(Perface)
(Machine)
(  vendor: Generic)
(  model: 3018)
(  description: Generic 3-axis)
(T1  D=3 CR=0 TAPER=118deg - ZMIN=-10 - foret)
G90 G94
G17
G21
G28 G91 Z0
G90

(Foret1)
T1
S500 M3
G4 P0.5
S1000 M3
G4 P0.5
S2000 M3
G4 P0.5
S4000 M3
G4 P0.5
S6000 M3
G4 P0.5
S8000 M3
G4 P0.5
S10000 M3
G4 P0.5
S12000 M3
G4 P0.5
S14000 M3
G4 P0.5
S16000 M3
G4 P0.5
S18000 M3
G4 P0.5
S20000 M3
G54
G0 X5 Y5
Z6.6
Z4.6
Z1
G1 Z-7 F50
Z-10
Z1
G0 Z4.6
Y40
Z1
G1 Z-7 F50
Z-10
Z1
G0 Z4.6
X60
Z1
G1 Z-7 F50
Z-10
Z1
G0 Z4.6
Y5
Z1
G1 Z-7 F50
Z-10
Z1
G0 Z4.6
Z6.6
G28 G91 Z0
G90
G28 G91 X0 Y0
G90
M5
M30
