(G-CODE GENERATED BY FLATCAM v8.994 - www.flatcam.org - Version Date: 2020/11/7)

(Name: doorbell-B_Cu.gbr_ncc_cnc)
(Type: G-code from Geometry)
(Units: MM)

(Created on Dimanche, 08 août 2021 at 16:16)

(This preprocessor is the default preprocessor used by FlatCAM.)
(It is made to work with MACH3 compatible motion controllers.)

(TOOL DIAMETER: 0.2 mm)
(Feedrate_XY: 100.0 mm/min)
(Feedrate_Z: 50.0 mm/min)
(Feedrate rapids 1500.0 mm/min)

(Z_Cut: -0.05 mm)
(Z_Move: 1.0 mm)
(Z Start: None mm)
(Z End: 5.0 mm)
(X,Y End: None mm)
(Steps per circle: 64)
(Preprocessor Geometry: default)

(X range:    0.1750 ...   44.8250  mm)
(Y range:    0.1750 ...   24.8250  mm)

(Spindle Speed: 2000.0 RPM)
G21
G90
G94

G01 F100.00

M5
G00 Z5.0000
G00 X0.0000 Y0.0000
T2
M6    
(MSG, Change to Tool Dia = 0.2000)
M0
G00 Z5.0000

S500 M3
G4 P0.5
S1000 M3
G4 P0.5
S2000 M3
G01 F100.00
G00 X0.2534 Y0.1750
G01 F50.00
G01 Z-0.0500
G01 F100.00
G01 X0.1750 Y0.3096
G01 X0.4160 Y0.1750
G01 X0.4059 Y0.1914
G01 X0.1750 Y0.5876
G01 X0.1750 Y0.8712
G01 X0.2310 Y0.7695
G01 X0.5260 Y0.2634
G01 X0.5804 Y0.1750
G01 X0.7449 Y0.1750
G01 X0.6461 Y0.3353
G01 X0.6230 Y0.3749
G01 X0.7861 Y0.3749
G01 X0.9093 Y0.1750
G01 X1.0737 Y0.1750
G01 X0.9506 Y0.3749
G01 X1.1150 Y0.3749
G01 X1.2382 Y0.1750
G01 X1.4026 Y0.1750
G01 X1.2794 Y0.3749
G01 X1.4439 Y0.3749
G01 X1.5430 Y0.2140
G01 X1.5684 Y0.1750
G01 X1.7354 Y0.1750
G01 X1.6613 Y0.2889
G01 X1.6083 Y0.3749
G01 X1.7727 Y0.3749
G01 X1.7796 Y0.3638
G01 X1.9024 Y0.1750
G01 X2.0694 Y0.1750
G01 X1.9393 Y0.3749
G01 X2.1064 Y0.3749
G01 X2.2364 Y0.1750
G01 X2.4034 Y0.1750
G01 X2.2734 Y0.3749
G01 X2.4404 Y0.3749
G01 X2.5497 Y0.2069
G01 X2.5715 Y0.1750
G01 X2.7413 Y0.1750
G01 X2.6661 Y0.2847
G01 X2.6074 Y0.3749
G01 X2.7744 Y0.3749
G01 X2.7825 Y0.3625
G01 X2.9111 Y0.1750
G01 X3.0809 Y0.1750
G01 X2.9437 Y0.3749
G01 X3.1135 Y0.3749
G01 X3.2506 Y0.1750
G01 X3.4204 Y0.1750
G01 X3.2832 Y0.3749
G01 X3.4530 Y0.3749
G01 X3.5446 Y0.2415
G01 X3.5926 Y0.1750
G01 X3.7653 Y0.1750
G01 X3.6590 Y0.3221
G01 X3.6228 Y0.3749
G01 X3.7936 Y0.3749
G01 X3.9381 Y0.1750
G01 X4.1108 Y0.1750
G01 X3.9663 Y0.3749
G01 X4.1390 Y0.3749
G01 X4.2835 Y0.1750
G01 X4.4585 Y0.1750
G01 X4.4138 Y0.2338
G01 X4.3118 Y0.3749
G01 X4.4845 Y0.3749
G01 X4.5262 Y0.3172
G01 X4.6344 Y0.1750
G01 X4.8103 Y0.1750
G01 X4.6582 Y0.3749
G01 X4.8341 Y0.3749
G01 X4.9862 Y0.1750
G01 X5.1621 Y0.1750
G01 X5.0100 Y0.3749
G01 X5.1859 Y0.3749
G01 X5.2725 Y0.2611
G01 X5.3414 Y0.1750
G01 X5.5207 Y0.1750
G01 X5.3829 Y0.3473
G01 X5.3618 Y0.3749
G01 X5.5400 Y0.3749
G01 X5.7000 Y0.1750
G01 X5.8793 Y0.1750
G01 X5.7193 Y0.3749
G01 X5.8986 Y0.3749
G01 X6.0113 Y0.2341
G01 X6.0610 Y0.1750
G01 X6.2440 Y0.1750
G01 X6.1195 Y0.3229
G01 X6.0779 Y0.3749
G01 X6.2587 Y0.3749
G01 X6.4269 Y0.1750
G01 X6.6099 Y0.1750
G01 X6.4417 Y0.3749
G01 X6.6246 Y0.3749
G01 X6.7418 Y0.2358
G01 X6.7954 Y0.1750
G01 X6.9823 Y0.1750
G01 X6.8478 Y0.3272
G01 X6.8076 Y0.3749
G01 X6.9924 Y0.3749
G01 X7.1692 Y0.1750
G01 X7.3561 Y0.1750
G01 X7.1793 Y0.3749
G01 X7.3662 Y0.3749
G01 X7.4628 Y0.2656
G01 X7.5470 Y0.1750
G01 X7.7380 Y0.1750
G01 X7.5666 Y0.3596
G01 X7.5530 Y0.3749
G01 X7.7434 Y0.3749
G01 X7.9291 Y0.1750
G01 X8.1226 Y0.1750
G01 X8.0722 Y0.2267
G01 X7.9345 Y0.3749
G01 X8.1256 Y0.3749
G01 X8.1736 Y0.3232
G01 X8.3182 Y0.1750
G01 X8.5138 Y0.1750
G01 X8.3187 Y0.3749
G01 X8.5143 Y0.3749
G01 X8.6751 Y0.2101
G01 X8.7111 Y0.1750
G01 X8.7099 Y0.3749
G01 X8.7741 Y0.3091
G01 X8.9115 Y0.1750
G01 X8.9071 Y0.3749
G01 X9.1120 Y0.1750
G01 X9.1076 Y0.3749
G01 X9.2709 Y0.2156
G01 X9.3145 Y0.1750
G01 X9.3080 Y0.3749
G01 X9.3675 Y0.3170
G01 X9.5202 Y0.1750
G01 X9.5107 Y0.3749
G01 X9.7259 Y0.1750
G01 X9.7164 Y0.3749
G01 X9.8588 Y0.2426
G01 X9.9353 Y0.1750
G01 X9.9221 Y0.3749
G01 X9.9529 Y0.3464
G01 X10.1466 Y0.1750
G01 X10.1319 Y0.3749
G01 X10.3468 Y0.1849
G01 X10.3585 Y0.1750
G01 X10.3432 Y0.3749
G01 X10.4382 Y0.2909
G01 X10.5759 Y0.1750
G01 X10.5558 Y0.3749
G01 X10.7934 Y0.1750
G01 X10.7732 Y0.3749
G01 X10.9195 Y0.2519
G01 X11.0155 Y0.1750
G01 X10.9907 Y0.3749
G01 X11.0083 Y0.3601
G01 X11.2395 Y0.1750
G01 X11.2138 Y0.3749
G01 X11.3962 Y0.2289
G01 X11.4670 Y0.1750
G01 X11.4378 Y0.3749
G01 X11.4824 Y0.3393
G01 X11.6982 Y0.1750
G01 X11.6667 Y0.3749
G01 X11.8679 Y0.2218
G01 X11.9327 Y0.1750
G01 X11.8979 Y0.3749
G01 X11.9513 Y0.3343
G01 X12.1716 Y0.1750
G01 X12.1340 Y0.3749
G01 X12.3341 Y0.2303
G01 X12.4147 Y0.1750
G01 X12.3730 Y0.3749
G01 X12.4147 Y0.3448
G01 X12.6622 Y0.1750
G01 X12.6182 Y0.3749
G01 X12.7942 Y0.2542
G01 X12.9159 Y0.1750
G01 X12.8657 Y0.3749
G01 X13.1726 Y0.1750
G01 X13.1221 Y0.3749
G01 X13.2479 Y0.2931
G01 X13.4394 Y0.1750
G01 X13.3819 Y0.3749
G01 X13.6226 Y0.2266
G01 X13.7111 Y0.1750
G01 X13.6487 Y0.3749
G01 X13.6946 Y0.3467
G01 X13.9891 Y0.1750
G01 X13.9241 Y0.3749
G01 X14.0649 Y0.2929
G01 X14.2790 Y0.1750
G01 X14.2062 Y0.3749
G01 X14.4334 Y0.2498
G01 X14.5776 Y0.1750
G01 X14.4965 Y0.3749
G01 X14.7999 Y0.2174
G01 X14.8867 Y0.1750
G01 X14.8003 Y0.3749
G01 X14.8628 Y0.3425
G01 X15.1639 Y0.1955
G01 X15.2087 Y0.1750
G01 X15.1155 Y0.3749
G01 X15.2237 Y0.3221
G01 X15.5252 Y0.1840
G01 X15.5462 Y0.1750
G01 X15.4446 Y0.3749
G01 X15.5819 Y0.3120
G01 X15.8835 Y0.1827
G01 X15.9028 Y0.1750
G01 X15.7905 Y0.3749
G01 X15.9371 Y0.3121
G01 X16.2386 Y0.1915
G01 X16.2829 Y0.1750
G01 X16.1569 Y0.3749
G01 X16.2890 Y0.3221
G01 X16.5901 Y0.2102
G01 X16.6923 Y0.1750
G01 X16.5487 Y0.3749
G01 X16.6373 Y0.3420
G01 X16.9378 Y0.2386
G01 X17.1385 Y0.1750
G01 X16.9719 Y0.3749
G01 X17.2815 Y0.2766
G01 X17.5834 Y0.1890
G01 X17.6365 Y0.1750
G01 X17.4450 Y0.3749
G01 X17.6207 Y0.3240
G01 X17.9214 Y0.2447
G01 X18.2148 Y0.1750
G01 X17.9789 Y0.3749
G01 X18.2547 Y0.3095
G01 X18.5555 Y0.2458
G01 X18.8578 Y0.1895
G01 X18.9476 Y0.1750
G01 X18.6265 Y0.3749
G01 X18.8818 Y0.3274
G01 X19.1820 Y0.2791
G01 X19.4833 Y0.2382
G01 X19.7856 Y0.2047
G01 X20.0885 Y0.1786
G01 X20.1461 Y0.1750
G01 X19.5202 Y0.3749
G01 X19.7993 Y0.3440
G01 X20.0988 Y0.3182
G01 X20.3989 Y0.2998
G01 X20.6994 Y0.2887
G01 X21.0000 Y0.2850
G01 X21.3006 Y0.2887
G01 X21.6011 Y0.2998
G01 X21.9012 Y0.3182
G01 X22.2007 Y0.3440
G01 X22.4798 Y0.3749
G01 X23.0524 Y0.1750
G01 X23.1422 Y0.1895
G01 X23.4445 Y0.2458
G01 X23.7453 Y0.3095
G01 X24.0211 Y0.3749
G01 X23.7852 Y0.1750
G01 X24.0786 Y0.2447
G01 X24.3793 Y0.3240
G01 X24.5550 Y0.3749
G01 X24.3635 Y0.1750
G01 X24.4166 Y0.1890
G01 X24.7185 Y0.2766
G01 X25.0281 Y0.3749
G01 X24.8615 Y0.1750
G01 X25.0622 Y0.2386
G01 X25.3627 Y0.3420
G01 X25.4513 Y0.3749
G01 X25.3077 Y0.1750
G01 X25.4099 Y0.2102
G01 X25.7110 Y0.3221
G01 X25.8431 Y0.3749
G01 X25.7171 Y0.1750
G01 X25.7614 Y0.1915
G01 X26.0629 Y0.3121
G01 X26.2095 Y0.3749
G01 X26.0972 Y0.1750
G01 X26.1165 Y0.1827
G01 X26.4181 Y0.3120
G01 X26.5554 Y0.3749
G01 X26.4538 Y0.1750
G01 X26.4748 Y0.1840
G01 X26.7763 Y0.3221
G01 X26.8845 Y0.3749
G01 X26.7913 Y0.1750
G01 X26.8361 Y0.1955
G01 X27.1372 Y0.3425
G01 X27.1997 Y0.3749
G01 X27.1133 Y0.1750
G01 X27.2001 Y0.2174
G01 X27.5035 Y0.3749
G01 X27.4224 Y0.1750
G01 X27.5666 Y0.2498
G01 X27.7938 Y0.3749
G01 X27.7210 Y0.1750
G01 X27.9351 Y0.2929
G01 X28.0759 Y0.3749
G01 X28.0109 Y0.1750
G01 X28.3054 Y0.3467
G01 X28.3513 Y0.3749
G01 X28.2889 Y0.1750
G01 X28.3774 Y0.2266
G01 X28.6181 Y0.3749
G01 X28.5606 Y0.1750
G01 X28.7521 Y0.2931
G01 X28.8779 Y0.3749
G01 X28.8274 Y0.1750
G01 X29.1343 Y0.3749
G01 X29.0841 Y0.1750
G01 X29.2058 Y0.2542
G01 X29.3818 Y0.3749
G01 X29.3378 Y0.1750
G01 X29.5853 Y0.3448
G01 X29.6270 Y0.3749
G01 X29.5853 Y0.1750
G01 X29.6659 Y0.2303
G01 X29.8660 Y0.3749
G01 X29.8284 Y0.1750
G01 X30.0487 Y0.3343
G01 X30.1021 Y0.3749
G01 X30.0673 Y0.1750
G01 X30.1321 Y0.2218
G01 X30.3333 Y0.3749
G01 X30.3018 Y0.1750
G01 X30.5176 Y0.3393
G01 X30.5622 Y0.3749
G01 X30.5330 Y0.1750
G01 X30.6038 Y0.2289
G01 X30.7862 Y0.3749
G01 X30.7605 Y0.1750
G01 X30.9917 Y0.3601
G01 X31.0093 Y0.3749
G01 X30.9845 Y0.1750
G01 X31.0805 Y0.2519
G01 X31.2268 Y0.3749
G01 X31.2066 Y0.1750
G01 X31.4442 Y0.3749
G01 X31.4241 Y0.1750
G01 X31.5618 Y0.2909
G01 X31.6568 Y0.3749
G01 X31.6415 Y0.1750
G01 X31.6532 Y0.1849
G01 X31.8681 Y0.3749
G01 X31.8534 Y0.1750
G01 X32.0471 Y0.3464
G01 X32.0779 Y0.3749
G01 X32.0647 Y0.1750
G01 X32.1412 Y0.2426
G01 X32.2836 Y0.3749
G01 X32.2741 Y0.1750
G01 X32.4893 Y0.3749
G01 X32.4798 Y0.1750
G01 X32.6325 Y0.3170
G01 X32.6920 Y0.3749
G01 X32.6855 Y0.1750
G01 X32.7291 Y0.2156
G01 X32.8924 Y0.3749
G01 X32.8880 Y0.1750
G01 X33.0929 Y0.3749
G01 X33.2901 Y0.3749
G01 X33.2259 Y0.3091
G01 X33.0885 Y0.1750
G01 X33.2889 Y0.1750
G01 X33.3249 Y0.2101
G01 X33.4857 Y0.3749
G01 X33.6813 Y0.3749
G01 X33.4862 Y0.1750
G01 X33.6818 Y0.1750
G01 X33.8264 Y0.3232
G01 X33.8744 Y0.3749
G01 X34.0655 Y0.3749
G01 X33.9278 Y0.2267
G01 X33.8774 Y0.1750
G01 X34.0709 Y0.1750
G01 X34.2566 Y0.3749
G01 X34.4470 Y0.3749
G01 X34.4334 Y0.3596
G01 X34.2620 Y0.1750
G01 X34.4530 Y0.1750
G01 X34.5372 Y0.2656
G01 X34.6338 Y0.3749
G01 X34.8207 Y0.3749
G01 X34.6439 Y0.1750
G01 X34.8308 Y0.1750
G01 X35.0076 Y0.3749
G01 X35.1924 Y0.3749
G01 X35.1522 Y0.3272
G01 X35.0177 Y0.1750
G01 X35.2046 Y0.1750
G01 X35.2582 Y0.2358
G01 X35.3754 Y0.3749
G01 X35.5583 Y0.3749
G01 X35.3901 Y0.1750
G01 X35.5731 Y0.1750
G01 X35.7413 Y0.3749
G01 X35.9221 Y0.3749
G01 X35.8805 Y0.3229
G01 X35.7560 Y0.1750
G01 X35.9390 Y0.1750
G01 X35.9887 Y0.2341
G01 X36.1014 Y0.3749
G01 X36.2807 Y0.3749
G01 X36.1207 Y0.1750
G01 X36.3000 Y0.1750
G01 X36.4600 Y0.3749
G01 X36.6382 Y0.3749
G01 X36.6171 Y0.3473
G01 X36.4793 Y0.1750
G01 X36.6586 Y0.1750
G01 X36.7275 Y0.2611
G01 X36.8141 Y0.3749
G01 X36.9900 Y0.3749
G01 X36.8379 Y0.1750
G01 X37.0138 Y0.1750
G01 X37.1659 Y0.3749
G01 X37.3418 Y0.3749
G01 X37.1897 Y0.1750
G01 X37.3656 Y0.1750
G01 X37.4738 Y0.3172
G01 X37.5155 Y0.3749
G01 X37.6882 Y0.3749
G01 X37.5862 Y0.2338
G01 X37.5415 Y0.1750
G01 X37.7165 Y0.1750
G01 X37.8610 Y0.3749
G01 X38.0337 Y0.3749
G01 X37.8892 Y0.1750
G01 X38.0619 Y0.1750
G01 X38.2064 Y0.3749
G01 X38.3772 Y0.3749
G01 X38.3410 Y0.3221
G01 X38.2347 Y0.1750
G01 X38.4074 Y0.1750
G01 X38.4554 Y0.2415
G01 X38.5470 Y0.3749
G01 X38.7168 Y0.3749
G01 X38.5796 Y0.1750
G01 X38.7494 Y0.1750
G01 X38.8865 Y0.3749
G01 X39.0563 Y0.3749
G01 X38.9191 Y0.1750
G01 X39.0889 Y0.1750
G01 X39.2175 Y0.3625
G01 X39.2256 Y0.3749
G01 X39.3926 Y0.3749
G01 X39.3339 Y0.2847
G01 X39.2587 Y0.1750
G01 X39.4285 Y0.1750
G01 X39.4503 Y0.2069
G01 X39.5596 Y0.3749
G01 X39.7266 Y0.3749
G01 X39.5966 Y0.1750
G01 X39.7636 Y0.1750
G01 X39.8936 Y0.3749
G01 X40.0607 Y0.3749
G01 X39.9306 Y0.1750
G01 X40.0976 Y0.1750
G01 X40.2204 Y0.3638
G01 X40.2273 Y0.3749
G01 X40.3917 Y0.3749
G01 X40.3387 Y0.2889
G01 X40.2646 Y0.1750
G01 X40.4316 Y0.1750
G01 X40.4570 Y0.2140
G01 X40.5561 Y0.3749
G01 X40.7206 Y0.3749
G01 X40.5974 Y0.1750
G01 X40.7618 Y0.1750
G01 X40.8850 Y0.3749
G01 X41.0494 Y0.3749
G01 X40.9263 Y0.1750
G01 X41.0907 Y0.1750
G01 X41.2139 Y0.3749
G01 X41.3770 Y0.3749
G01 X41.3539 Y0.3353
G01 X41.2551 Y0.1750
G01 X41.4196 Y0.1750
G01 X41.4740 Y0.2634
G01 X41.5390 Y0.3749
G01 X41.7010 Y0.3749
G01 X41.5941 Y0.1914
G01 X41.5840 Y0.1750
G01 X41.7466 Y0.1750
G01 X41.8631 Y0.3749
G01 X42.0251 Y0.3749
G01 X41.9086 Y0.1750
G01 X42.0706 Y0.1750
G01 X42.1871 Y0.3749
G01 X42.3492 Y0.3749
G01 X42.2327 Y0.1750
G01 X42.3947 Y0.1750
G01 X42.4998 Y0.3555
G01 X42.5106 Y0.3749
G01 X42.6703 Y0.3749
G01 X42.6217 Y0.2865
G01 X42.5567 Y0.1750
G01 X42.7187 Y0.1750
G01 X42.7435 Y0.2175
G01 X42.8301 Y0.3749
G01 X42.9899 Y0.3749
G01 X42.8799 Y0.1750
G01 X43.0397 Y0.1750
G01 X43.1497 Y0.3749
G01 X43.3095 Y0.3749
G01 X43.1995 Y0.1750
G01 X43.3593 Y0.1750
G01 X43.4693 Y0.3749
G01 X43.6291 Y0.3749
G01 X43.5191 Y0.1750
G01 X43.6789 Y0.1750
G01 X43.7800 Y0.3588
G01 X43.7884 Y0.3749
G01 X43.9461 Y0.3749
G01 X43.9035 Y0.2928
G01 X43.8387 Y0.1750
G01 X43.9985 Y0.1750
G01 X44.0270 Y0.2268
G01 X44.1038 Y0.3749
G01 X44.2615 Y0.3749
G01 X44.1578 Y0.1750
G01 X44.3155 Y0.1750
G01 X44.4198 Y0.3760
G01 X44.4732 Y0.1750
G01 X44.6972 Y0.6068
G01 X44.8250 Y0.8685
G01 X44.6251 Y0.7781
G01 X44.8250 Y1.1877
G01 X44.6251 Y1.0973
G01 X44.7297 Y1.3117
G01 X44.8250 Y1.5196
G01 X44.6251 Y1.4194
G01 X44.8250 Y1.8558
G01 X44.6251 Y1.7555
G01 X44.7420 Y2.0109
G01 X44.8250 Y2.2044
G01 X44.6251 Y2.0933
G01 X44.8250 Y2.5597
G01 X44.6251 Y2.4486
G01 X44.7345 Y2.7039
G01 X44.8250 Y2.9302
G01 X44.6251 Y2.8073
G01 X44.8250 Y3.3072
G01 X44.6251 Y3.1843
G01 X44.7073 Y3.3901
G01 X44.8250 Y3.7065
G01 X44.6251 Y3.5705
G01 X44.7928 Y4.0218
G01 X44.8250 Y4.1152
G01 X44.6251 Y3.9723
G01 X44.6610 Y4.0690
G01 X44.8250 Y4.5456
G01 X44.6251 Y4.3948
G01 X44.7287 Y4.6961
G01 X44.8250 Y4.9999
G01 X44.6251 Y4.8325
G01 X44.7800 Y5.3214
G01 X44.8250 Y5.4766
G01 X44.6251 Y5.2960
G01 X44.6460 Y5.3621
G01 X44.8149 Y5.9445
G01 X44.8250 Y5.9827
G01 X44.6251 Y5.7925
G01 X44.6800 Y5.9819
G01 X44.8250 Y6.5319
G01 X44.6251 Y6.3228
G01 X44.6979 Y6.5990
G01 X44.8250 Y7.1342
G01 X44.6251 Y6.8983
G01 X44.6998 Y7.2130
G01 X44.8250 Y7.8053
G01 X44.6251 Y7.5359
G01 X44.6860 Y7.8236
G01 X44.7945 Y8.4063
G01 X44.8250 Y8.5959
G01 X44.6251 Y8.2613
G01 X44.6565 Y8.4302
G01 X44.7501 Y9.0120
G01 X44.8250 Y9.5630
G01 X44.6251 Y9.1314
G01 X44.6905 Y9.6131
G01 X44.7551 Y10.1953
G01 X44.8053 Y10.7790
G01 X44.8250 Y11.0987
G01 X44.6251 Y10.3174
G01 X44.6657 Y10.7893
G01 X44.7014 Y11.3706
G01 X44.7229 Y11.9526
G01 X44.7300 Y12.5350
G01 X44.7229 Y13.1174
G01 X44.7014 Y13.6994
G01 X44.6657 Y14.2807
G01 X44.6251 Y14.7526
G01 X44.8250 Y15.5070
G01 X44.7501 Y16.0580
G01 X44.6565 Y16.6398
G01 X44.6251 Y16.8087
G01 X44.8250 Y16.4741
G01 X44.7945 Y16.6637
G01 X44.6860 Y17.2464
G01 X44.6251 Y17.5341
G01 X44.8250 Y17.2647
G01 X44.6998 Y17.8570
G01 X44.6251 Y18.1717
G01 X44.8250 Y17.9358
G01 X44.6979 Y18.4710
G01 X44.6251 Y18.7472
G01 X44.8250 Y18.5381
G01 X44.6800 Y19.0881
G01 X44.6251 Y19.2775
G01 X44.8250 Y19.0873
G01 X44.8149 Y19.1255
G01 X44.6460 Y19.7079
G01 X44.6251 Y19.7740
G01 X44.8250 Y19.5934
G01 X44.7800 Y19.7486
G01 X44.6251 Y20.2375
G01 X44.8250 Y20.0701
G01 X44.7287 Y20.3739
G01 X44.6251 Y20.6752
G01 X44.8250 Y20.5244
G01 X44.6610 Y21.0010
G01 X44.6251 Y21.0977
G01 X44.8250 Y20.9548
G01 X44.7928 Y21.0482
G01 X44.6251 Y21.4995
G01 X44.8250 Y21.3635
G01 X44.7073 Y21.6799
G01 X44.6251 Y21.8857
G01 X44.8250 Y21.7628
G01 X44.6251 Y22.2627
G01 X44.8250 Y22.1398
G01 X44.7345 Y22.3661
G01 X44.6251 Y22.6214
G01 X44.8250 Y22.5103
G01 X44.6251 Y22.9767
G01 X44.8250 Y22.8656
G01 X44.7420 Y23.0591
G01 X44.6251 Y23.3145
G01 X44.8250 Y23.2142
G01 X44.6251 Y23.6506
G01 X44.8250 Y23.5504
G01 X44.7297 Y23.7583
G01 X44.6251 Y23.9727
G01 X44.8250 Y23.8823
G01 X44.6251 Y24.2919
G01 X44.8250 Y24.2015
G01 X44.6972 Y24.4632
G01 X44.5095 Y24.8250
G01 X44.6672 Y24.8250
G01 X44.8223 Y24.5261
G01 X44.8250 Y24.5207
G01 X44.8250 Y24.8250
G01 X44.8250 Y24.8250
G01 X44.4601 Y24.6164
G01 X44.3518 Y24.8250
G01 X44.1941 Y24.8250
G01 X44.2978 Y24.6251
G01 X44.1401 Y24.6251
G01 X44.0364 Y24.8250
G01 X43.8772 Y24.8250
G01 X43.9035 Y24.7772
G01 X43.9824 Y24.6251
G01 X43.8247 Y24.6251
G01 X43.7800 Y24.7112
G01 X43.7174 Y24.8250
G01 X43.5576 Y24.8250
G01 X43.6566 Y24.6452
G01 X43.6670 Y24.6251
G01 X43.5078 Y24.6251
G01 X43.3978 Y24.8250
G01 X43.2380 Y24.8250
G01 X43.3480 Y24.6251
G01 X43.1883 Y24.6251
G01 X43.0782 Y24.8250
G01 X42.9184 Y24.8250
G01 X43.0285 Y24.6251
G01 X42.8687 Y24.6251
G01 X42.7586 Y24.8250
G01 X42.5975 Y24.8250
G01 X42.6217 Y24.7835
G01 X42.7089 Y24.6251
G01 X42.5491 Y24.6251
G01 X42.4998 Y24.7145
G01 X42.4355 Y24.8250
G01 X42.2734 Y24.8250
G01 X42.3780 Y24.6455
G01 X42.3893 Y24.6251
G01 X42.2279 Y24.6251
G01 X42.1114 Y24.8250
G01 X41.9494 Y24.8250
G01 X42.0659 Y24.6251
G01 X41.9039 Y24.6251
G01 X41.7874 Y24.8250
G01 X41.6253 Y24.8250
G01 X41.7418 Y24.6251
G01 X41.5798 Y24.6251
G01 X41.4740 Y24.8066
G01 X41.4627 Y24.8250
G01 X41.2983 Y24.8250
G01 X41.3539 Y24.7347
G01 X41.4178 Y24.6251
G01 X41.2557 Y24.6251
G01 X41.2338 Y24.6627
G01 X41.1338 Y24.8250
G01 X40.9694 Y24.8250
G01 X41.0926 Y24.6251
G01 X40.9281 Y24.6251
G01 X40.8050 Y24.8250
G01 X40.6405 Y24.8250
G01 X40.7637 Y24.6251
G01 X40.5993 Y24.6251
G01 X40.4761 Y24.8250
G01 X40.3102 Y24.8250
G01 X40.3387 Y24.7811
G01 X40.4348 Y24.6251
G01 X40.2704 Y24.6251
G01 X40.2204 Y24.7062
G01 X40.1432 Y24.8250
G01 X39.9761 Y24.8250
G01 X40.1060 Y24.6251
G01 X39.9392 Y24.6251
G01 X39.8091 Y24.8250
G01 X39.6421 Y24.8250
G01 X39.7722 Y24.6251
G01 X39.6052 Y24.6251
G01 X39.4751 Y24.8250
G01 X39.3067 Y24.8250
G01 X39.3339 Y24.7853
G01 X39.4382 Y24.6251
G01 X39.2712 Y24.6251
G01 X39.2175 Y24.7075
G01 X39.1369 Y24.8250
G01 X38.9672 Y24.8250
G01 X39.1011 Y24.6298
G01 X39.1224 Y24.5971
G00 Z1.0000
G00 X39.0245 Y24.4909
G01 F50.00
G01 Z-0.0500
G01 F100.00
G01 X38.9847 Y24.5520
G01 X38.7974 Y24.8250
G01 X38.6276 Y24.8250
G01 X38.8683 Y24.4742
G01 X39.1559 Y24.0321
G01 X39.4161 Y23.6098
G01 X39.3910 Y23.9175
G01 X39.5527 Y23.6550
G01 X39.8067 Y23.2192
G01 X39.9922 Y23.1737
G01 X39.9418 Y23.2654
G01 X39.8003 Y23.5081
G00 Z1.0000
G00 X40.0319 Y23.3888
G01 F50.00
G01 Z-0.0500
G01 F100.00
G01 X40.0636 Y23.3344
G01 X40.1394 Y23.1967
G00 Z1.0000
G00 X40.2997 Y23.1957
G01 F50.00
G01 Z-0.0500
G01 F100.00
G01 X40.1873 Y23.3999
G01 X40.3501 Y23.3946
G01 X40.4786 Y23.1610
G01 X40.5295 Y23.3589
G01 X40.6889 Y23.0694
G01 X40.7340 Y23.2776
G01 X40.8168 Y23.1273
G01 X40.9936 Y22.7865
G00 Z1.0000
G00 X41.1022 Y22.5733
G01 F50.00
G01 Z-0.0500
G01 F100.00
G01 X41.3126 Y22.1422
G01 X41.5423 Y21.6408
G01 X41.7596 Y21.1339
G01 X41.8131 Y21.0001
G01 X41.9681 Y20.9894
G01 X41.8889 Y21.1875
G01 X41.8272 Y21.3315
G00 Z1.0000
G00 X41.8002 Y21.3945
G01 F50.00
G01 Z-0.0500
G01 F100.00
G01 X41.6703 Y21.6975
G01 X41.4392 Y22.2020
G01 X41.1958 Y22.7007
G01 X40.9912 Y23.0951
G00 Z1.0000
G00 X41.2420 Y22.9156
G01 F50.00
G01 Z-0.0500
G01 F100.00
G01 X41.3209 Y22.7637
G01 X41.5658 Y22.2619
G01 X41.8000 Y21.7502
G01 X41.8000 Y22.0866
G01 X41.6923 Y22.3217
G01 X41.4459 Y22.8266
G01 X41.3834 Y22.9472
G00 Z1.0000
G00 X41.4798 Y23.0653
G01 F50.00
G01 Z-0.0500
G01 F100.00
G01 X41.5710 Y22.8895
G01 X41.8000 Y22.4203
G00 Z1.0000
G00 X41.8000 Y22.7394
G01 F50.00
G01 Z-0.0500
G01 F100.00
G01 X41.6960 Y22.9525
G01 X41.5298 Y23.2728
G01 X41.6218 Y23.3994
G01 X41.8000 Y23.0560
G00 Z1.0000
G00 X41.8837 Y23.1987
G01 F50.00
G01 Z-0.0500
G01 F100.00
G01 X41.7394 Y23.4767
G01 X41.8809 Y23.5080
G01 X42.0407 Y23.2000
G01 X42.1983 Y23.2000
G01 X42.0375 Y23.5103
G01 X42.1956 Y23.5094
G01 X42.3213 Y23.2672
G01 X42.3541 Y23.2000
G01 X42.3959 Y23.4273
G01 X42.3538 Y23.5085
G00 Z1.0000
G00 X43.1641 Y23.2000
G01 F50.00
G01 Z-0.0500
G01 F100.00
G01 X43.1758 Y23.2229
G01 X43.1849 Y23.2394
G01 X43.2043 Y23.2718
G01 X43.2146 Y23.2877
G01 X43.2364 Y23.3186
G01 X43.2478 Y23.3336
G01 X43.2718 Y23.3628
G01 X43.2843 Y23.3770
G01 X43.2972 Y23.3908
G01 X43.3239 Y23.4176
G01 X43.3519 Y23.4429
G01 X43.3664 Y23.4551
G01 X43.3962 Y23.4784
G01 X43.4115 Y23.4894
G01 X43.4425 Y23.5101
G01 X43.2171 Y23.5089
G01 X43.1958 Y23.4874
G01 X43.1806 Y23.4710
G01 X43.1658 Y23.4543
G01 X43.1514 Y23.4372
G01 X43.1375 Y23.4197
G01 X43.1239 Y23.4020
G01 X43.1041 Y23.3740
G01 X43.3246 Y23.2000
G01 X43.3398 Y23.2226
G01 X43.3582 Y23.2475
G01 X43.3778 Y23.2714
G01 X43.3986 Y23.2943
G01 X43.4204 Y23.3162
G01 X43.4434 Y23.3369
G01 X43.4673 Y23.3565
G01 X43.4921 Y23.3750
G01 X43.5178 Y23.3921
G01 X43.5443 Y23.4080
G01 X43.5716 Y23.4226
G01 X43.5995 Y23.4358
G01 X43.6281 Y23.4477
G01 X43.6426 Y23.4531
G01 X43.6720 Y23.4628
G01 X43.7018 Y23.4710
G01 X43.7319 Y23.4778
G01 X43.7494 Y23.4810
G01 X43.9270 Y23.3445
G01 X43.9029 Y23.3475
G01 X43.8789 Y23.3493
G01 X43.8669 Y23.3497
G01 X43.8428 Y23.3497
G01 X43.8188 Y23.3486
G01 X43.8068 Y23.3475
G01 X43.7830 Y23.3446
G01 X43.7593 Y23.3405
G01 X43.7358 Y23.3352
G01 X43.7242 Y23.3321
G01 X43.7011 Y23.3252
G01 X43.6898 Y23.3212
G01 X43.6673 Y23.3126
G01 X43.6453 Y23.3028
G01 X43.6239 Y23.2920
G01 X43.6029 Y23.2802
G01 X43.5927 Y23.2739
G01 X43.5727 Y23.2605
G01 X43.5534 Y23.2462
G01 X43.5440 Y23.2387
G01 X43.5258 Y23.2230
G01 X43.5170 Y23.2148
G01 X43.5022 Y23.2000
G00 Z1.0000
G00 X43.6784 Y23.1621
G01 F50.00
G01 Z-0.0500
G01 F100.00
G01 X43.6823 Y23.1644
G01 X43.6899 Y23.1686
G01 X43.6975 Y23.1725
G01 X43.7130 Y23.1799
G01 X43.7289 Y23.1864
G01 X43.7532 Y23.1948
G01 X43.7698 Y23.1994
G01 X43.7950 Y23.2047
G01 X43.8205 Y23.2082
G01 X43.8377 Y23.2095
G01 X43.8634 Y23.2098
G01 X43.8806 Y23.2089
G01 X43.9062 Y23.2061
G01 X43.9231 Y23.2032
G01 X43.9482 Y23.1972
G01 X43.9646 Y23.1922
G01 X43.9808 Y23.1864
G01 X43.9888 Y23.1832
G01 X43.9967 Y23.1799
G01 X44.0023 Y23.1773
G01 X44.0105 Y23.0009
G01 X44.0033 Y23.0084
G01 X43.9959 Y23.0155
G01 X43.9881 Y23.0222
G01 X43.9799 Y23.0286
G01 X43.9715 Y23.0345
G01 X43.9584 Y23.0426
G01 X43.9493 Y23.0475
G01 X43.9399 Y23.0519
G01 X43.9304 Y23.0558
G01 X43.9207 Y23.0593
G01 X43.9109 Y23.0623
G01 X43.9009 Y23.0648
G01 X43.8908 Y23.0668
G01 X43.8806 Y23.0683
G01 X43.8652 Y23.0696
G01 X43.8548 Y23.0699
G01 X43.8445 Y23.0696
G01 X43.8291 Y23.0683
G01 X43.8189 Y23.0668
G01 X43.8088 Y23.0648
G01 X43.7988 Y23.0623
G01 X43.7890 Y23.0593
G01 X43.7793 Y23.0558
G01 X43.7697 Y23.0519
G01 X43.7604 Y23.0475
G01 X43.7559 Y23.0451
G01 X43.7513 Y23.0426
G01 X43.7425 Y23.0373
G01 X43.7339 Y23.0316
G01 X43.7257 Y23.0254
G01 X43.7177 Y23.0189
G01 X43.7100 Y23.0120
G01 X43.7064 Y23.0084
G01 X43.7028 Y23.0047
G01 X43.7000 Y23.0017
G01 X43.6999 Y23.1049
G01 X43.6989 Y23.1147
G01 X43.6976 Y23.1219
G01 X43.6957 Y23.1290
G01 X43.6933 Y23.1360
G01 X43.6882 Y23.1471
G01 X43.6818 Y23.1576
G01 X43.6741 Y23.1672
G01 X43.6653 Y23.1757
G01 X43.6556 Y23.1831
G01 X43.6450 Y23.1893
G01 X43.6337 Y23.1942
G01 X43.6219 Y23.1976
G01 X43.6122 Y23.1992
G01 X43.6000 Y23.2000
G01 X43.1041 Y23.2000
G01 X43.1041 Y23.4822
G01 X43.1303 Y23.5084
G01 X43.5895 Y23.5109
G01 X43.6800 Y23.5020
G01 X43.7569 Y23.4787
G01 X43.8277 Y23.4408
G01 X43.8899 Y23.3899
G01 X43.9408 Y23.3277
G01 X43.9787 Y23.2569
G01 X44.0020 Y23.1800
G01 X44.0109 Y23.0895
G01 X44.0084 Y22.6303
G01 X43.9822 Y22.6041
G01 X43.7000 Y22.6041
G01 X43.7000 Y23.1000
G01 X43.9248 Y22.8599
G01 X43.9247 Y22.8547
G01 X43.9238 Y22.8479
G01 X43.9213 Y22.8379
G01 X43.9174 Y22.8284
G01 X43.9121 Y22.8196
G01 X43.9090 Y22.8155
G01 X43.9043 Y22.8104
G01 X43.8965 Y22.8037
G01 X43.8878 Y22.7982
G01 X43.8784 Y22.7940
G01 X43.8685 Y22.7912
G01 X43.8617 Y22.7902
G01 X43.8566 Y22.7899
G01 X43.8463 Y22.7904
G01 X43.8362 Y22.7924
G01 X43.8265 Y22.7959
G01 X43.8174 Y22.8007
G01 X43.8131 Y22.8037
G01 X43.8078 Y22.8080
G01 X43.8007 Y22.8155
G01 X43.7966 Y22.8210
G01 X43.7939 Y22.8254
G01 X43.7909 Y22.8315
G01 X43.7889 Y22.8363
G01 X43.7869 Y22.8429
G01 X43.7859 Y22.8479
G01 X43.7850 Y22.8547
G01 X43.7848 Y22.8599
G01 X43.7850 Y22.8650
G01 X43.7859 Y22.8719
G01 X43.7874 Y22.8786
G01 X43.7889 Y22.8835
G01 X43.7909 Y22.8883
G01 X43.7939 Y22.8944
G01 X43.7997 Y22.9030
G01 X43.8066 Y22.9106
G01 X43.8104 Y22.9140
G01 X43.8160 Y22.9181
G01 X43.8203 Y22.9208
G01 X43.8265 Y22.9239
G01 X43.8313 Y22.9258
G01 X43.8378 Y22.9278
G01 X43.8429 Y22.9289
G01 X43.8497 Y22.9297
G01 X43.8566 Y22.9299
G01 X43.8583 Y22.9298
G01 X43.8600 Y22.9297
G01 X43.8617 Y22.9296
G01 X43.8685 Y22.9285
G01 X43.8735 Y22.9274
G01 X43.8800 Y22.9252
G01 X43.8848 Y22.9232
G01 X43.8937 Y22.9181
G01 X43.9019 Y22.9118
G01 X43.9090 Y22.9043
G01 X43.9149 Y22.8959
G01 X43.9188 Y22.8883
G01 X43.9223 Y22.8786
G01 X43.9243 Y22.8685
G01 X43.9248 Y22.8599
G01 X44.0089 Y22.7172
G01 X43.9997 Y22.7078
G01 X43.9920 Y22.7009
G01 X43.9840 Y22.6943
G01 X43.9758 Y22.6882
G01 X43.9672 Y22.6825
G01 X43.9584 Y22.6772
G01 X43.9493 Y22.6723
G01 X43.9399 Y22.6679
G01 X43.9304 Y22.6640
G01 X43.9207 Y22.6605
G01 X43.9109 Y22.6575
G01 X43.9009 Y22.6550
G01 X43.8908 Y22.6530
G01 X43.8806 Y22.6515
G01 X43.8652 Y22.6501
G01 X43.8548 Y22.6499
G01 X43.8445 Y22.6501
G01 X43.8291 Y22.6515
G01 X43.8189 Y22.6530
G01 X43.8088 Y22.6550
G01 X43.7988 Y22.6575
G01 X43.7890 Y22.6605
G01 X43.7793 Y22.6640
G01 X43.7697 Y22.6679
G01 X43.7604 Y22.6723
G01 X43.7513 Y22.6772
G01 X43.7425 Y22.6825
G01 X43.7339 Y22.6882
G01 X43.7257 Y22.6943
G01 X43.7177 Y22.7009
G01 X43.7100 Y22.7078
G01 X43.7064 Y22.7114
G01 X43.7028 Y22.7151
G01 X43.7000 Y22.7181
G00 Z1.0000
G00 X43.7000 Y21.7819
G01 F50.00
G01 Z-0.0500
G01 F100.00
G01 X43.7138 Y21.7957
G01 X43.7216 Y21.8024
G01 X43.7298 Y21.8088
G01 X43.7382 Y21.8147
G01 X43.7469 Y21.8202
G01 X43.7559 Y21.8253
G01 X43.7651 Y21.8299
G01 X43.7745 Y21.8341
G01 X43.7841 Y21.8378
G01 X43.7939 Y21.8411
G01 X43.8038 Y21.8438
G01 X43.8139 Y21.8461
G01 X43.8240 Y21.8478
G01 X43.8343 Y21.8491
G01 X43.8445 Y21.8499
G01 X43.8548 Y21.8501
G01 X43.8652 Y21.8499
G01 X43.8754 Y21.8491
G01 X43.8857 Y21.8478
G01 X43.8958 Y21.8461
G01 X43.9059 Y21.8438
G01 X43.9158 Y21.8411
G01 X43.9256 Y21.8378
G01 X43.9352 Y21.8341
G01 X43.9446 Y21.8299
G01 X43.9538 Y21.8253
G01 X43.9628 Y21.8202
G01 X43.9715 Y21.8147
G01 X43.9799 Y21.8088
G01 X43.9881 Y21.8024
G01 X43.9959 Y21.7957
G01 X44.0089 Y21.7828
G01 X43.9248 Y21.6401
G01 X43.9245 Y21.6470
G01 X43.9231 Y21.6554
G01 X43.9213 Y21.6621
G01 X43.9188 Y21.6685
G01 X43.9158 Y21.6746
G01 X43.9121 Y21.6804
G01 X43.9079 Y21.6858
G01 X43.9031 Y21.6908
G01 X43.8979 Y21.6953
G01 X43.8923 Y21.6993
G01 X43.8863 Y21.7026
G01 X43.8800 Y21.7054
G01 X43.8735 Y21.7076
G01 X43.8668 Y21.7091
G01 X43.8600 Y21.7099
G01 X43.8531 Y21.7101
G01 X43.8463 Y21.7096
G01 X43.8378 Y21.7080
G01 X43.8313 Y21.7060
G01 X43.8249 Y21.7034
G01 X43.8189 Y21.7002
G01 X43.8131 Y21.6963
G01 X43.8078 Y21.6920
G01 X43.8030 Y21.6871
G01 X43.7986 Y21.6818
G01 X43.7948 Y21.6761
G01 X43.7916 Y21.6700
G01 X43.7889 Y21.6637
G01 X43.7869 Y21.6571
G01 X43.7856 Y21.6504
G01 X43.7849 Y21.6435
G01 X43.7849 Y21.6367
G01 X43.7856 Y21.6298
G01 X43.7869 Y21.6231
G01 X43.7889 Y21.6165
G01 X43.7916 Y21.6102
G01 X43.7948 Y21.6041
G01 X43.7986 Y21.5984
G01 X43.8030 Y21.5931
G01 X43.8078 Y21.5882
G01 X43.8131 Y21.5839
G01 X43.8174 Y21.5810
G01 X43.8234 Y21.5776
G01 X43.8297 Y21.5748
G01 X43.8362 Y21.5726
G01 X43.8429 Y21.5711
G01 X43.8497 Y21.5703
G01 X43.8566 Y21.5701
G01 X43.8617 Y21.5704
G01 X43.8685 Y21.5715
G01 X43.8752 Y21.5731
G01 X43.8816 Y21.5754
G01 X43.8878 Y21.5784
G01 X43.8937 Y21.5819
G01 X43.8993 Y21.5860
G01 X43.9043 Y21.5906
G01 X43.9090 Y21.5957
G01 X43.9131 Y21.6012
G01 X43.9166 Y21.6071
G01 X43.9195 Y21.6133
G01 X43.9218 Y21.6198
G01 X43.9235 Y21.6265
G01 X43.9245 Y21.6333
G01 X43.9248 Y21.6401
G01 X44.0105 Y21.4991
G01 X44.0033 Y21.4916
G01 X43.9959 Y21.4845
G01 X43.9881 Y21.4778
G01 X43.9799 Y21.4714
G01 X43.9715 Y21.4655
G01 X43.9628 Y21.4600
G01 X43.9493 Y21.4525
G01 X43.9399 Y21.4481
G01 X43.9304 Y21.4442
G01 X43.9207 Y21.4407
G01 X43.9109 Y21.4377
G01 X43.9009 Y21.4352
G01 X43.8908 Y21.4332
G01 X43.8806 Y21.4317
G01 X43.8652 Y21.4304
G01 X43.8548 Y21.4301
G01 X43.8445 Y21.4304
G01 X43.8291 Y21.4317
G01 X43.8189 Y21.4332
G01 X43.8088 Y21.4352
G01 X43.7988 Y21.4377
G01 X43.7890 Y21.4407
G01 X43.7793 Y21.4442
G01 X43.7697 Y21.4481
G01 X43.7604 Y21.4525
G01 X43.7513 Y21.4574
G01 X43.7425 Y21.4627
G01 X43.7339 Y21.4684
G01 X43.7257 Y21.4746
G01 X43.7177 Y21.4811
G01 X43.7100 Y21.4880
G01 X43.7000 Y21.4983
G00 Z1.0000
G00 X43.6784 Y21.3379
G01 F50.00
G01 Z-0.0500
G01 F100.00
G01 X43.6975 Y21.3275
G01 X43.7130 Y21.3201
G01 X43.7369 Y21.3106
G01 X43.7532 Y21.3052
G01 X43.7698 Y21.3006
G01 X43.7950 Y21.2953
G01 X43.8205 Y21.2918
G01 X43.8377 Y21.2905
G01 X43.8634 Y21.2902
G01 X43.8806 Y21.2911
G01 X43.9062 Y21.2939
G01 X43.9231 Y21.2968
G01 X43.9482 Y21.3028
G01 X43.9646 Y21.3078
G01 X43.9808 Y21.3136
G01 X44.0023 Y21.3227
G01 X43.9270 Y21.1555
G01 X43.9029 Y21.1525
G01 X43.8909 Y21.1514
G01 X43.8669 Y21.1503
G01 X43.8428 Y21.1503
G01 X43.8188 Y21.1514
G01 X43.7949 Y21.1538
G01 X43.7711 Y21.1573
G01 X43.7475 Y21.1620
G01 X43.7242 Y21.1679
G01 X43.7011 Y21.1748
G01 X43.6785 Y21.1829
G01 X43.6673 Y21.1874
G01 X43.6453 Y21.1972
G01 X43.6239 Y21.2080
G01 X43.6029 Y21.2198
G01 X43.5826 Y21.2327
G01 X43.5630 Y21.2465
G01 X43.5440 Y21.2613
G01 X43.5258 Y21.2770
G01 X43.5170 Y21.2852
G01 X43.5022 Y21.3000
G01 X43.3246 Y21.3000
G01 X43.3398 Y21.2774
G01 X43.3488 Y21.2648
G01 X43.3679 Y21.2404
G01 X43.3880 Y21.2170
G01 X43.4094 Y21.1946
G01 X43.4318 Y21.1733
G01 X43.4552 Y21.1531
G01 X43.4796 Y21.1341
G01 X43.5048 Y21.1163
G01 X43.5310 Y21.0997
G01 X43.5443 Y21.0920
G01 X43.5716 Y21.0774
G01 X43.5995 Y21.0642
G01 X43.6281 Y21.0523
G01 X43.6572 Y21.0419
G01 X43.6868 Y21.0329
G01 X43.7168 Y21.0254
G01 X43.7494 Y21.0190
G01 X43.4425 Y20.9899
G01 X43.4115 Y21.0106
G01 X43.3962 Y21.0216
G01 X43.3664 Y21.0449
G01 X43.3519 Y21.0571
G01 X43.3239 Y21.0824
G01 X43.2972 Y21.1092
G01 X43.2843 Y21.1230
G01 X43.2718 Y21.1372
G01 X43.2478 Y21.1664
G01 X43.2364 Y21.1814
G01 X43.2146 Y21.2123
G01 X43.1944 Y21.2443
G01 X43.1849 Y21.2606
G01 X43.1758 Y21.2771
G01 X43.1641 Y21.3000
G01 X43.1041 Y21.1260
G01 X43.1239 Y21.0980
G01 X43.1375 Y21.0803
G01 X43.1514 Y21.0628
G01 X43.1658 Y21.0457
G01 X43.1806 Y21.0290
G01 X43.1958 Y21.0126
G01 X43.2171 Y20.9911
G00 Z1.0000
G00 X43.6000 Y21.3000
G01 F50.00
G01 Z-0.0500
G01 F100.00
G01 X43.6074 Y21.3003
G01 X43.6171 Y21.3015
G01 X43.6243 Y21.3030
G01 X43.6337 Y21.3058
G01 X43.6405 Y21.3086
G01 X43.6493 Y21.3130
G01 X43.6556 Y21.3169
G01 X43.6634 Y21.3227
G01 X43.6690 Y21.3276
G01 X43.6757 Y21.3347
G01 X43.6818 Y21.3424
G01 X43.6858 Y21.3486
G01 X43.6893 Y21.3550
G01 X43.6933 Y21.3640
G01 X43.6964 Y21.3733
G01 X43.6985 Y21.3829
G01 X43.6997 Y21.3926
G01 X43.7000 Y21.4000
G01 X43.7000 Y21.8959
G01 X43.9822 Y21.8959
G01 X44.0084 Y21.8697
G01 X44.0109 Y21.4105
G01 X44.0020 Y21.3200
G01 X43.9787 Y21.2431
G01 X43.9408 Y21.1723
G01 X43.8899 Y21.1101
G01 X43.8277 Y21.0592
G01 X43.7569 Y21.0213
G01 X43.6800 Y20.9980
G01 X43.5895 Y20.9891
G01 X43.1303 Y20.9916
G01 X43.1041 Y21.0178
G01 X43.1041 Y21.3000
G01 X43.6000 Y21.3000
G00 Z1.0000
G00 X42.3959 Y21.0507
G01 F50.00
G01 Z-0.0500
G01 F100.00
G01 X42.2962 Y21.3000
G00 Z1.0000
G00 X42.1453 Y21.3000
G01 F50.00
G01 Z-0.0500
G01 F100.00
G01 X42.2690 Y20.9910
G01 X42.1186 Y20.9902
G01 X42.0183 Y21.2410
G01 X41.9930 Y21.3000
G01 X41.6214 Y21.1009
G01 X41.4844 Y21.4204
G00 Z1.0000
G00 X41.4617 Y21.4736
G01 F50.00
G01 Z-0.0500
G01 F100.00
G01 X41.4143 Y21.5840
G01 X41.1861 Y22.0823
G01 X41.1542 Y22.1477
G00 Z1.0000
G00 X41.2597 Y21.5855
G01 F50.00
G01 Z-0.0500
G01 F100.00
G01 X41.1027 Y21.9281
G00 Z1.0000
G00 X41.0244 Y21.7629
G01 F50.00
G01 Z-0.0500
G01 F100.00
G01 X41.1273 Y21.5383
G00 Z1.0000
G00 X41.0208 Y21.4346
G01 F50.00
G01 Z-0.0500
G01 F100.00
G01 X40.9305 Y21.6318
G00 Z1.0000
G00 X40.8248 Y21.5265
G01 F50.00
G01 Z-0.0500
G01 F100.00
G01 X40.9023 Y21.3571
G01 X40.9115 Y21.3357
G01 X40.7931 Y21.2566
G01 X40.7744 Y21.3004
G01 X40.7091 Y21.4428
G00 Z1.0000
G00 X40.5850 Y21.3776
G01 F50.00
G01 Z-0.0500
G01 F100.00
G01 X40.6464 Y21.2436
G01 X40.6673 Y21.1947
G01 X40.5373 Y21.1426
G01 X40.5184 Y21.1869
G01 X40.4518 Y21.3323
G00 Z1.0000
G00 X40.3101 Y21.3055
G01 F50.00
G01 Z-0.0500
G01 F100.00
G01 X40.3904 Y21.1302
G01 X40.3970 Y21.1147
G01 X40.2502 Y21.1001
G01 X40.1575 Y21.3025
G00 Z1.0000
G00 X39.9927 Y21.3261
G01 F50.00
G01 Z-0.0500
G01 F100.00
G01 X40.0962 Y21.1002
G01 X39.9268 Y21.1339
G01 X39.8096 Y21.3896
G01 X39.7431 Y21.1987
G01 X39.6674 Y21.3640
G01 X39.5824 Y21.5380
G01 X39.5336 Y21.3189
G01 X39.3200 Y21.7565
G01 X39.0882 Y22.2033
G01 X38.8455 Y22.6443
G01 X38.5920 Y23.0792
G01 X38.3279 Y23.5078
G01 X38.2355 Y23.6499
G01 X38.0685 Y23.6499
G01 X38.2097 Y23.4329
G01 X38.4719 Y23.0073
G01 X38.7237 Y22.5753
G01 X38.9647 Y22.1374
G01 X39.0977 Y21.8811
G00 Z1.0000
G00 X38.9082 Y21.9424
G01 F50.00
G01 Z-0.0500
G01 F100.00
G01 X38.8413 Y22.0714
G01 X38.6019 Y22.5063
G01 X38.5612 Y22.5760
G00 Z1.0000
G00 X38.3919 Y22.8666
G01 F50.00
G01 Z-0.0500
G01 F100.00
G01 X38.3518 Y22.9353
G01 X38.0914 Y23.3580
G01 X37.9015 Y23.6499
G01 X37.7345 Y23.6499
G01 X37.9731 Y23.2831
G01 X38.0833 Y23.1043
G00 Z1.0000
G00 X37.8739 Y23.1772
G01 F50.00
G01 Z-0.0500
G01 F100.00
G01 X37.8548 Y23.2082
G01 X37.5878 Y23.6186
G01 X37.5664 Y23.6499
G01 X37.3966 Y23.6499
G01 X37.4714 Y23.5408
G01 X37.6938 Y23.1989
G00 Z1.0000
G00 X37.5333 Y23.1891
G01 F50.00
G01 Z-0.0500
G01 F100.00
G01 X37.3550 Y23.4631
G01 X37.2269 Y23.6499
G01 X37.0571 Y23.6499
G01 X37.2386 Y23.3853
G01 X37.3873 Y23.1567
G00 Z1.0000
G00 X37.2549 Y23.1035
G01 F50.00
G01 Z-0.0500
G01 F100.00
G01 X37.1222 Y23.3075
G01 X36.8873 Y23.6499
G01 X36.7164 Y23.6499
G01 X36.7385 Y23.6193
G01 X37.0058 Y23.2297
G01 X37.1334 Y23.0335
G00 Z1.0000
G00 X37.0239 Y22.9452
G01 F50.00
G01 Z-0.0500
G01 F100.00
G01 X36.9031 Y23.1309
G00 Z1.0000
G00 X36.8104 Y23.0167
G01 F50.00
G01 Z-0.0500
G01 F100.00
G01 X36.9257 Y22.8394
G00 Z1.0000
G00 X36.8410 Y22.7128
G01 F50.00
G01 Z-0.0500
G01 F100.00
G01 X36.7203 Y22.8985
G01 X36.6392 Y22.7664
G01 X36.7732 Y22.5604
G00 Z1.0000
G00 X36.7282 Y22.3681
G01 F50.00
G01 Z-0.0500
G01 F100.00
G01 X36.6720 Y22.4592
G01 X36.5742 Y22.6095
G01 X36.5312 Y22.4190
G01 X36.5538 Y22.3843
G01 X36.7341 Y22.0916
G01 X36.5201 Y22.1721
G01 X36.6707 Y21.9277
G01 X36.8965 Y21.5403
G01 X37.1127 Y21.1474
G01 X37.2698 Y20.8445
G01 X37.0701 Y20.9256
G01 X37.1942 Y20.6865
G01 X37.2698 Y20.5314
G01 X37.0701 Y20.6215
G01 X37.2628 Y20.2267
G01 X37.2698 Y20.2113
G01 X37.0701 Y20.3024
G01 X37.1362 Y20.1669
G01 X37.2698 Y19.8751
G01 X37.0701 Y19.9751
G01 X37.1907 Y19.7118
G01 X37.2698 Y19.5271
G01 X37.0701 Y19.6378
G01 X37.2326 Y19.2587
G01 X37.2698 Y19.1655
G01 X37.0701 Y19.2825
G01 X37.1032 Y19.2052
G01 X37.2621 Y18.8080
G01 X37.2698 Y18.7870
G01 X37.0701 Y18.9111
G01 X37.1314 Y18.7576
G01 X37.2698 Y18.3852
G01 X37.0701 Y18.5209
G01 X37.1475 Y18.3127
G01 X37.2698 Y17.9570
G01 X37.0701 Y18.1074
G01 X37.1515 Y17.8707
G01 X37.2698 Y17.4971
G01 X37.0701 Y17.6642
G01 X37.1436 Y17.4321
G01 X37.2589 Y17.0344
G01 X37.2698 Y16.9929
G01 X37.0701 Y17.1830
G01 X37.1240 Y16.9971
G01 X37.2286 Y16.6001
G01 X37.2698 Y16.4265
G01 X37.0701 Y16.6524
G01 X37.0928 Y16.5660
G01 X37.1869 Y16.1699
G01 X37.2698 Y15.7781
G01 X37.0701 Y16.0459
G01 X37.1339 Y15.7442
G01 X37.2078 Y15.3473
G01 X37.2698 Y14.9618
G01 X37.0701 Y15.3222
G01 X37.1335 Y14.9282
G01 X37.1873 Y14.5315
G01 X37.2315 Y14.1337
G01 X37.2658 Y13.7348
G01 X37.2699 Y13.6690
G01 X37.0701 Y14.3190
G01 X37.0921 Y14.1199
G01 X37.1262 Y13.7245
G01 X37.1505 Y13.3284
G01 X37.1651 Y12.9318
G01 X37.1700 Y12.5350
G01 X37.1651 Y12.1382
G01 X37.1505 Y11.7416
G01 X37.1262 Y11.3455
G01 X37.1023 Y11.0682
G01 X36.9752 Y11.2236
G01 X36.9528 Y10.9638
G01 X36.9472 Y10.9131
G01 X36.8214 Y11.0699
G01 X36.8135 Y10.9775
G01 X36.7888 Y10.7547
G01 X36.6656 Y10.9140
G01 X36.6316 Y10.6070
G01 X36.6300 Y10.5959
G01 X36.5072 Y10.7556
G01 X36.4926 Y10.6242
G01 X36.4666 Y10.4325
G01 X36.3475 Y10.5959
G01 X36.3031 Y10.2690
G01 X36.1840 Y10.4325
G01 X36.1641 Y10.2856
G01 X36.1342 Y10.1001
G01 X36.0194 Y10.2679
G01 X35.9650 Y9.9309
G01 X35.8504 Y10.0989
G01 X35.8284 Y9.9620
G01 X35.7901 Y9.7560
G01 X35.6797 Y9.9282
G01 X35.6235 Y9.6262
G01 X35.6136 Y9.5795
G01 X35.5048 Y9.7532
G01 X35.4862 Y9.6535
G01 X35.4321 Y9.3980
G01 X35.3265 Y9.5749
G01 X35.2745 Y9.3295
G01 X35.2468 Y9.2127
G01 X35.1449 Y9.3934
G01 X35.1379 Y9.3602
G01 X35.0581 Y9.0240
G01 X34.9574 Y9.2058
G01 X34.9199 Y9.0482
G01 X34.8618 Y8.8277
G01 X34.7664 Y9.0148
G01 X34.6953 Y8.7450
G01 X34.6610 Y8.6269
G01 X34.5698 Y8.8182
G01 X34.5603 Y8.7824
G01 X34.4642 Y8.4507
G01 X34.4546 Y8.4205
G01 X34.3658 Y8.6143
G01 X34.3302 Y8.4913
G01 X34.2396 Y8.2055
G01 X34.1557 Y8.4042
G01 X34.0940 Y8.2093
G01 X34.0156 Y7.9815
G00 Z1.0000
G00 X33.8865 Y7.8524
G01 F50.00
G01 Z-0.0500
G01 F100.00
G01 X33.8589 Y7.8619
G01 X33.7780 Y7.8822
G01 X33.7707 Y7.8835
G01 X33.6907 Y7.8954
G01 X33.6833 Y7.8960
G01 X33.6000 Y7.9000
G01 X33.5142 Y7.8959
G01 X33.5069 Y7.8951
G01 X33.4244 Y7.8827
G01 X33.3387 Y7.8612
G01 X33.2556 Y7.8315
G01 X33.1779 Y7.7949
G01 X33.1715 Y7.7913
G01 X33.1000 Y7.7483
G01 X33.0290 Y7.6957
G01 X32.9636 Y7.6364
G01 X32.9043 Y7.5710
G01 X32.8517 Y7.5000
G01 X32.8063 Y7.4243
G01 X32.7685 Y7.3444
G01 X32.7395 Y7.2636
G01 X32.7374 Y7.2565
G01 X32.7173 Y7.1756
G01 X32.7043 Y7.0882
G01 X32.7000 Y7.0000
G01 X32.7043 Y6.9118
G01 X32.7173 Y6.8244
G01 X32.7388 Y6.7387
G01 X32.7685 Y6.6556
G01 X32.8063 Y6.5757
G01 X32.8517 Y6.5000
G01 X32.9043 Y6.4290
G01 X32.9636 Y6.3636
G01 X33.0290 Y6.3043
G01 X33.1000 Y6.2517
G01 X33.1757 Y6.2063
G01 X33.2556 Y6.1685
G01 X33.3364 Y6.1395
G01 X33.4196 Y6.1184
G01 X33.4293 Y6.1165
G01 X33.5118 Y6.1043
G01 X33.5951 Y6.1001
G01 X33.6049 Y6.1001
G01 X33.6882 Y6.1043
G01 X33.7707 Y6.1165
G01 X33.7804 Y6.1184
G01 X33.8613 Y6.1388
G01 X33.9398 Y6.1667
G01 X33.9489 Y6.1705
G01 X34.0243 Y6.2063
G01 X34.1000 Y6.2517
G01 X34.1671 Y6.3013
G01 X34.1747 Y6.3075
G01 X34.2364 Y6.3636
G01 X34.2925 Y6.4253
G01 X34.2987 Y6.4329
G01 X34.3483 Y6.5000
G01 X34.3937 Y6.5757
G01 X34.4295 Y6.6511
G01 X34.4333 Y6.6602
G01 X34.4612 Y6.7387
G01 X34.4822 Y6.8220
G01 X34.4951 Y6.9069
G01 X34.4960 Y6.9167
G01 X34.5000 Y7.0000
G01 X34.4959 Y7.0858
G01 X34.4835 Y7.1707
G01 X34.4822 Y7.1780
G01 X34.4619 Y7.2589
G01 X34.4524 Y7.2865
G01 X37.9529 Y10.7871
G01 X37.9761 Y10.8124
G01 X37.9823 Y10.8200
G01 X38.0027 Y10.8477
G01 X38.0205 Y10.8771
G01 X38.0251 Y10.8858
G01 X38.0397 Y10.9169
G01 X38.0536 Y10.9562
G01 X38.0625 Y10.9919
G01 X38.0676 Y11.0259
G01 X38.0686 Y11.0357
G01 X38.0701 Y11.0700
G01 X38.0701 Y21.3895
G01 X38.1200 Y21.4134
G01 X38.1957 Y21.4588
G01 X38.2018 Y21.4629
G01 X38.2746 Y21.5172
G01 X38.3418 Y21.5782
G01 X38.4012 Y21.6436
G01 X38.4074 Y21.6512
G01 X38.4612 Y21.7243
G01 X38.5078 Y21.8022
G01 X38.5457 Y21.8820
G01 X38.5495 Y21.8910
G01 X38.5791 Y21.9742
G01 X38.6017 Y22.0647
G01 X38.6148 Y22.1520
G01 X38.6158 Y22.1618
G01 X38.6200 Y22.2500
G01 X38.6154 Y22.3431
G01 X38.6026 Y22.4305
G01 X38.6007 Y22.4401
G01 X38.5804 Y22.5210
G01 X38.5776 Y22.5304
G01 X38.5477 Y22.6135
G01 X38.5078 Y22.6978
G01 X38.4599 Y22.7778
G01 X38.4074 Y22.8488
G01 X38.4012 Y22.8564
G01 X38.3451 Y22.9182
G01 X38.3382 Y22.9251
G01 X38.2727 Y22.9844
G01 X38.1978 Y23.0399
G01 X38.1178 Y23.0878
G01 X38.0380 Y23.1257
G01 X38.0290 Y23.1295
G01 X37.9434 Y23.1598
G01 X37.8553 Y23.1817
G01 X37.7680 Y23.1948
G01 X37.7582 Y23.1958
G01 X37.6700 Y23.2000
G01 X37.5818 Y23.1958
G01 X37.5720 Y23.1948
G01 X37.4895 Y23.1826
G01 X37.4799 Y23.1807
G01 X37.3942 Y23.1591
G01 X37.3065 Y23.1277
G01 X37.2222 Y23.0878
G01 X37.1422 Y23.0399
G01 X37.0673 Y22.9844
G01 X37.0018 Y22.9251
G01 X36.9949 Y22.9182
G01 X36.9356 Y22.8527
G01 X36.8829 Y22.7818
G01 X36.8775 Y22.7736
G01 X36.8346 Y22.7021
G01 X36.8300 Y22.6934
G01 X36.7923 Y22.6135
G01 X36.7609 Y22.5258
G01 X36.7383 Y22.4353
G01 X36.7252 Y22.3480
G01 X36.7242 Y22.3382
G01 X36.7200 Y22.2500
G01 X36.7242 Y22.1618
G01 X36.7252 Y22.1520
G01 X36.7383 Y22.0647
G01 X36.7609 Y21.9742
G01 X36.7905 Y21.8910
G01 X36.7943 Y21.8820
G01 X36.8334 Y21.8000
G01 X36.8801 Y21.7222
G01 X36.9326 Y21.6512
G01 X36.9388 Y21.6436
G01 X37.0000 Y21.5765
G01 X37.0673 Y21.5156
G01 X37.1402 Y21.4615
G01 X37.1464 Y21.4575
G01 X37.2200 Y21.4134
G01 X37.2698 Y21.3895
G01 X37.2699 Y11.2357
G01 X33.8865 Y7.8524
G00 Z1.0000
G00 X33.8273 Y7.8699
G01 F50.00
G01 Z-0.0500
G01 F100.00
G01 X33.8521 Y7.9365
G01 X33.9381 Y8.1866
G00 Z1.0000
G00 X33.7588 Y8.0957
G01 F50.00
G01 Z-0.0500
G01 F100.00
G01 X33.7203 Y7.9836
G01 X33.6876 Y7.8957
G00 Z1.0000
G00 X33.5388 Y7.8971
G01 F50.00
G01 Z-0.0500
G01 F100.00
G01 X33.5884 Y8.0308
G01 X33.6122 Y8.0999
G01 X33.4622 Y8.0941
G01 X33.4566 Y8.0779
G01 X33.3800 Y7.8717
G00 Z1.0000
G00 X33.2067 Y7.8085
G01 F50.00
G01 Z-0.0500
G01 F100.00
G01 X33.2129 Y7.8240
G01 X33.3014 Y8.0621
G01 X33.1270 Y7.9946
G01 X33.0823 Y7.8744
G01 X33.0005 Y7.6700
G01 X32.9325 Y7.8769
G01 X32.8349 Y7.6328
G01 X32.7110 Y7.3439
G01 X32.5801 Y7.0580
G01 X32.5001 Y6.8940
G01 X32.7006 Y6.9857
G01 X32.5673 Y6.7125
G01 X32.5457 Y6.6710
G01 X32.6157 Y6.5020
G01 X32.6923 Y6.6496
G01 X32.7377 Y6.7426
G00 Z1.0000
G00 X32.8091 Y6.5708
G01 F50.00
G01 Z-0.0500
G01 F100.00
G01 X32.7019 Y6.3642
G01 X32.7984 Y6.2461
G01 X32.8978 Y6.4376
G00 Z1.0000
G00 X32.9999 Y6.3305
G01 F50.00
G01 Z-0.0500
G01 F100.00
G01 X32.9148 Y6.1664
G01 X32.9021 Y6.1434
G01 X33.0189 Y6.0654
G01 X33.0382 Y6.1004
G01 X33.1127 Y6.2439
G00 Z1.0000
G00 X33.2360 Y6.1776
G01 F50.00
G01 Z-0.0500
G01 F100.00
G01 X33.1617 Y6.0344
G01 X33.1422 Y5.9991
G01 X33.2723 Y5.9452
G01 X33.2852 Y5.9684
G01 X33.3695 Y6.1309
G00 Z1.0000
G00 X33.5133 Y6.1042
G01 F50.00
G01 Z-0.0500
G01 F100.00
G01 X33.4153 Y5.9153
G01 X33.5651 Y5.9001
G01 X33.6706 Y6.1033
G00 Z1.0000
G00 X33.8426 Y6.1340
G01 F50.00
G01 Z-0.0500
G01 F100.00
G01 X33.8178 Y6.0831
G01 X33.7245 Y5.9033
G01 X33.9003 Y5.9383
G01 X33.9428 Y6.0201
G01 X34.0375 Y6.2140
G01 X34.0960 Y6.0149
G01 X34.2254 Y6.2799
G01 X34.2915 Y6.4242
G01 X34.3294 Y6.1738
G01 X34.3519 Y6.2200
G01 X34.5029 Y6.5496
G01 X34.6457 Y6.8828
G01 X34.6999 Y7.0184
G01 X34.4905 Y6.8760
G01 X34.5164 Y6.9363
G01 X34.6497 Y7.2697
G01 X34.7761 Y7.6103
G01 X34.8469 Y7.3984
G01 X34.9066 Y7.5591
G01 X35.0018 Y7.8359
G01 X35.0793 Y7.6309
G01 X35.1575 Y7.8580
G01 X35.2194 Y8.0535
G01 X35.3033 Y7.8549
G01 X35.4020 Y8.1662
G01 X35.4305 Y8.2646
G01 X35.5183 Y8.0698
G01 X35.5359 Y8.1256
G01 X35.6358 Y8.4699
G01 X35.7257 Y8.2772
G01 X35.7747 Y8.4463
G01 X35.8328 Y8.6669
G01 X35.9283 Y8.4799
G01 X36.0064 Y8.7761
G01 X36.0264 Y8.8605
G01 X36.1249 Y8.6765
G01 X36.1422 Y8.7421
G01 X36.2151 Y9.0492
G01 X36.3158 Y8.8674
G01 X36.3673 Y9.0842
G01 X36.3988 Y9.2329
G01 X36.5044 Y9.0560
G01 X36.5803 Y9.4144
G01 X36.6860 Y9.2375
G01 X36.7220 Y9.4077
G01 X36.7559 Y9.5900
G01 X36.8663 Y9.4178
G01 X36.9309 Y9.7650
G01 X37.0412 Y9.5928
G01 X37.0699 Y9.7466
G01 X37.1001 Y9.9342
G01 X37.2149 Y9.7664
G01 X37.2690 Y10.1031
G01 X37.3838 Y9.9354
G01 X37.4104 Y10.1007
G01 X37.4330 Y10.2671
G01 X37.5521 Y10.1037
G01 X37.5965 Y10.4306
G01 X37.7156 Y10.2672
G01 X37.7431 Y10.4699
G01 X37.7565 Y10.5906
G01 X37.8791 Y10.4306
G01 X37.8821 Y10.4528
G01 X37.9149 Y10.7490
G01 X38.0381 Y10.5897
G01 X38.0674 Y10.8540
G01 X38.1035 Y11.2734
G01 X38.1293 Y11.6935
G01 X38.1448 Y12.1141
G01 X38.1500 Y12.5350
G01 X38.1448 Y12.9559
G01 X38.1293 Y13.3765
G01 X38.1035 Y13.7966
G01 X38.0701 Y14.1843
G01 X38.2699 Y14.8820
G01 X38.2413 Y15.0925
G01 X38.1734 Y15.5149
G01 X38.0951 Y15.9354
G01 X38.0701 Y16.0532
G01 X38.2699 Y15.7611
G01 X38.2324 Y15.9627
G01 X38.1431 Y16.3846
G01 X38.0701 Y16.6917
G01 X38.2699 Y16.4563
G01 X38.1793 Y16.8382
G01 X38.0701 Y17.2521
G01 X38.2699 Y17.0434
G01 X38.2034 Y17.2958
G01 X38.0814 Y17.7166
G01 X38.0701 Y17.7520
G01 X38.2699 Y17.5690
G01 X38.2154 Y17.7572
G01 X38.0820 Y18.1781
G01 X38.0701 Y18.2126
G01 X38.2699 Y18.0485
G01 X38.2149 Y18.2221
G01 X38.0701 Y18.6429
G01 X38.2699 Y18.4925
G01 X38.2020 Y18.6900
G01 X38.0701 Y19.0447
G01 X38.2699 Y18.9090
G01 X38.1764 Y19.1607
G01 X38.0701 Y19.4263
G01 X38.2699 Y19.3038
G01 X38.1380 Y19.6338
G01 X38.0701 Y19.7920
G01 X38.2699 Y19.6808
G01 X38.0866 Y20.1090
G01 X38.0701 Y20.1448
G01 X38.2699 Y20.0365
G01 X38.2146 Y20.1657
G01 X38.0701 Y20.4810
G01 X38.2699 Y20.3810
G01 X38.1487 Y20.6457
G01 X38.0701 Y20.8066
G01 X38.2699 Y20.7164
G01 X38.0701 Y21.1258
G01 X38.2699 Y21.0356
G01 X38.1946 Y21.1900
G01 X38.0870 Y21.3974
G00 Z1.0000
G00 X38.2082 Y21.4677
G01 F50.00
G01 Z-0.0500
G01 F100.00
G01 X38.3089 Y21.2736
G00 Z1.0000
G00 X38.4165 Y21.3702
G01 F50.00
G01 Z-0.0500
G01 F100.00
G01 X38.3192 Y21.5577
G00 Z1.0000
G00 X38.4198 Y21.6679
G01 F50.00
G01 Z-0.0500
G01 F100.00
G01 X38.5203 Y21.4741
G01 X38.6153 Y21.5949
G01 X38.5078 Y21.8021
G00 Z1.0000
G00 X38.5776 Y21.9697
G01 F50.00
G01 Z-0.0500
G01 F100.00
G01 X38.5943 Y21.9394
G01 X38.7009 Y21.7339
G00 Z1.0000
G00 X38.7823 Y21.8811
G01 F50.00
G01 Z-0.0500
G01 F100.00
G01 X38.7178 Y22.0054
G01 X38.6171 Y22.1883
G01 X39.2639 Y22.1687
G01 X39.2117 Y22.2693
G01 X38.9673 Y22.7133
G01 X38.7121 Y23.1512
G01 X38.6627 Y23.2314
G01 X39.0575 Y22.8366
G01 X39.0891 Y22.7824
G01 X39.2788 Y22.4378
G00 Z1.0000
G00 X38.9798 Y24.0461
G01 F50.00
G01 Z-0.0500
G01 F100.00
G01 X38.7519 Y24.3964
G01 X38.4579 Y24.8250
G01 X38.2853 Y24.8250
G01 X38.3410 Y24.7479
G01 X38.5675 Y24.4178
G00 Z1.0000
G00 X38.3755 Y24.4501
G01 F50.00
G01 Z-0.0500
G01 F100.00
G01 X38.2265 Y24.6673
G01 X38.1125 Y24.8250
G01 X37.9398 Y24.8250
G01 X38.1121 Y24.5867
G01 X38.2057 Y24.4501
G01 X38.0359 Y24.4501
G01 X37.9976 Y24.5061
G01 X37.7671 Y24.8250
G01 X37.5944 Y24.8250
G01 X37.8653 Y24.4501
G01 X37.6925 Y24.4501
G01 X37.4738 Y24.7528
G01 X37.4189 Y24.8250
G01 X37.2430 Y24.8250
G01 X37.3613 Y24.6694
G01 X37.5198 Y24.4501
G01 X37.3471 Y24.4501
G01 X37.2489 Y24.5860
G01 X37.0671 Y24.8250
G01 X36.8912 Y24.8250
G01 X37.1364 Y24.5026
G01 X37.1744 Y24.4501
G01 X37.0004 Y24.4501
G01 X36.7275 Y24.8089
G01 X36.7146 Y24.8250
G01 X36.5353 Y24.8250
G01 X36.6171 Y24.7227
G01 X36.8245 Y24.4501
G01 X36.6486 Y24.4501
G01 X36.5068 Y24.6366
G01 X36.3560 Y24.8250
G01 X36.1767 Y24.8250
G01 X36.3964 Y24.5505
G01 X36.4727 Y24.4501
G01 X36.2968 Y24.4501
G01 X36.2860 Y24.4643
G01 X35.9974 Y24.8250
G01 X35.8149 Y24.8250
G01 X35.8805 Y24.7471
G01 X36.1181 Y24.4501
G01 X35.9388 Y24.4501
G01 X35.7722 Y24.6583
G01 X35.6320 Y24.8250
G01 X35.4490 Y24.8250
G01 X35.6640 Y24.5694
G01 X35.7595 Y24.4501
G01 X35.5802 Y24.4501
G01 X35.5558 Y24.4806
G01 X35.2661 Y24.8250
G01 X35.0796 Y24.8250
G01 X35.1522 Y24.7428
G01 X35.3985 Y24.4501
G01 X35.2155 Y24.4501
G01 X35.0462 Y24.6514
G01 X34.8927 Y24.8250
G01 X34.7058 Y24.8250
G01 X34.9402 Y24.5599
G01 X35.0326 Y24.4501
G01 X34.8496 Y24.4501
G01 X34.8342 Y24.4685
G01 X34.5372 Y24.8044
G01 X34.5181 Y24.8250
G01 X34.3270 Y24.8250
G01 X34.4334 Y24.7104
G01 X34.6635 Y24.4501
G01 X34.4767 Y24.4501
G01 X34.3297 Y24.6163
G01 X34.1359 Y24.8250
G01 X33.9448 Y24.8250
G01 X34.2260 Y24.5223
G01 X34.2898 Y24.4501
G01 X34.1020 Y24.4501
G01 X33.8264 Y24.7468
G01 X33.7501 Y24.8250
G01 X33.5545 Y24.8250
G01 X33.7250 Y24.6502
G01 X33.9109 Y24.4501
G01 X33.7198 Y24.4501
G01 X33.6236 Y24.5537
G01 X33.3589 Y24.8250
G01 X33.1602 Y24.8250
G01 X33.2259 Y24.7609
G01 X33.5287 Y24.4501
G01 X33.3335 Y24.4501
G01 X33.1269 Y24.6619
G01 X32.9597 Y24.8250
G01 X32.7593 Y24.8250
G01 X33.0279 Y24.5629
G01 X33.1379 Y24.4501
G01 X32.9423 Y24.4501
G01 X32.9289 Y24.4639
G01 X32.6325 Y24.7530
G01 X32.5551 Y24.8250
G01 X32.3495 Y24.8250
G01 X32.5360 Y24.6517
G01 X32.7428 Y24.4499
G00 Z1.0000
G00 X32.5809 Y24.4123
G01 F50.00
G01 Z-0.0500
G01 F100.00
G01 X32.4395 Y24.5503
G01 X32.1438 Y24.8250
G01 X31.9326 Y24.8250
G01 X32.0471 Y24.7236
G01 X32.3429 Y24.4489
G01 X32.4644 Y24.3303
G00 Z1.0000
G00 X32.3654 Y24.2313
G01 F50.00
G01 Z-0.0500
G01 F100.00
G01 X32.2464 Y24.3475
G01 X32.1524 Y24.4348
G00 Z1.0000
G00 X32.1191 Y24.2747
G01 F50.00
G01 Z-0.0500
G01 F100.00
G01 X32.1499 Y24.2461
G01 X32.2664 Y24.1323
G00 Z1.0000
G00 X32.1674 Y24.0333
G01 F50.00
G01 Z-0.0500
G01 F100.00
G01 X32.0533 Y24.1447
G01 X32.0237 Y24.1722
G01 X31.9247 Y24.0731
G01 X31.9568 Y24.0433
G01 X32.0684 Y23.9343
G00 Z1.0000
G00 X31.9695 Y23.8354
G01 F50.00
G01 Z-0.0500
G01 F100.00
G01 X31.8603 Y23.9419
G01 X31.8256 Y23.9741
G01 X31.7266 Y23.8750
G01 X31.7637 Y23.8405
G01 X31.8705 Y23.7364
G00 Z1.0000
G00 X31.7715 Y23.6374
G01 F50.00
G01 Z-0.0500
G01 F100.00
G01 X31.6672 Y23.7391
G01 X31.6275 Y23.7760
G01 X31.5285 Y23.6769
G01 X31.5707 Y23.6377
G01 X31.6725 Y23.5384
G00 Z1.0000
G00 X31.5735 Y23.4394
G01 F50.00
G01 Z-0.0500
G01 F100.00
G01 X31.4741 Y23.5363
G01 X31.4294 Y23.5778
G00 Z1.0000
G00 X31.3304 Y23.4788
G01 F50.00
G01 Z-0.0500
G01 F100.00
G01 X31.3776 Y23.4349
G01 X31.4745 Y23.3404
G00 Z1.0000
G00 X31.3755 Y23.2414
G01 F50.00
G01 Z-0.0500
G01 F100.00
G01 X31.2810 Y23.3335
G01 X31.2313 Y23.3797
G01 X31.1322 Y23.2807
G01 X31.1845 Y23.2321
G01 X31.2765 Y23.1424
G00 Z1.0000
G00 X31.1775 Y23.0434
G01 F50.00
G01 Z-0.0500
G01 F100.00
G01 X31.0880 Y23.1307
G01 X31.0332 Y23.1816
G01 X30.9341 Y23.0826
G01 X30.9914 Y23.0293
G01 X31.0785 Y22.9444
G00 Z1.0000
G00 X30.9795 Y22.8454
G01 F50.00
G01 Z-0.0500
G01 F100.00
G01 X30.8949 Y22.9279
G01 X30.8351 Y22.9835
G01 X30.7360 Y22.8845
G01 X30.7984 Y22.8266
G01 X30.8805 Y22.7464
G00 Z1.0000
G00 X30.7815 Y22.6474
G01 F50.00
G01 Z-0.0500
G01 F100.00
G01 X30.7018 Y22.7252
G01 X30.6370 Y22.7854
G01 X30.5379 Y22.6864
G01 X30.6053 Y22.6238
G01 X30.6825 Y22.5484
G00 Z1.0000
G00 X30.5835 Y22.4494
G01 F50.00
G01 Z-0.0500
G01 F100.00
G01 X30.5088 Y22.5224
G01 X30.4389 Y22.5873
G01 X30.3398 Y22.4882
G01 X30.4122 Y22.4210
G01 X30.4845 Y22.3504
G00 Z1.0000
G00 X30.3855 Y22.2514
G01 F50.00
G01 Z-0.0500
G01 F100.00
G01 X30.3157 Y22.3196
G01 X30.2408 Y22.3892
G01 X30.1417 Y22.2901
G01 X30.2192 Y22.2182
G01 X30.2865 Y22.1524
G00 Z1.0000
G00 X30.1875 Y22.0534
G01 F50.00
G01 Z-0.0500
G01 F100.00
G01 X30.1226 Y22.1168
G01 X30.0426 Y22.1911
G01 X29.9436 Y22.0920
G01 X30.0261 Y22.0154
G01 X30.0885 Y21.9544
G00 Z1.0000
G00 X29.9896 Y21.8555
G01 F50.00
G01 Z-0.0500
G01 F100.00
G01 X29.9296 Y21.9140
G01 X29.8445 Y21.9930
G01 X29.7455 Y21.8939
G01 X29.8330 Y21.8126
G01 X29.8906 Y21.7565
G00 Z1.0000
G00 X29.7916 Y21.6575
G01 F50.00
G01 Z-0.0500
G01 F100.00
G01 X29.7365 Y21.7112
G01 X29.6464 Y21.7949
G00 Z1.0000
G00 X29.5474 Y21.6958
G01 F50.00
G01 Z-0.0500
G01 F100.00
G01 X29.6399 Y21.6098
G01 X29.6926 Y21.5585
G00 Z1.0000
G00 X29.5936 Y21.4595
G01 F50.00
G01 Z-0.0500
G01 F100.00
G01 X29.5434 Y21.5084
G01 X29.4483 Y21.5968
G01 X29.3493 Y21.4977
G01 X29.4469 Y21.4070
G01 X29.4946 Y21.3605
G00 Z1.0000
G00 X29.3956 Y21.2615
G01 F50.00
G01 Z-0.0500
G01 F100.00
G01 X29.3503 Y21.3056
G01 X29.2502 Y21.3986
G01 X29.1512 Y21.2996
G01 X29.2538 Y21.2042
G01 X29.2966 Y21.1625
G00 Z1.0000
G00 X29.1976 Y21.0635
G01 F50.00
G01 Z-0.0500
G01 F100.00
G01 X29.1573 Y21.1028
G01 X29.0521 Y21.2005
G00 Z1.0000
G00 X28.9530 Y21.1015
G01 F50.00
G01 Z-0.0500
G01 F100.00
G01 X29.0607 Y21.0014
G01 X29.0986 Y20.9645
G00 Z1.0000
G00 X28.9996 Y20.8655
G01 F50.00
G01 Z-0.0500
G01 F100.00
G01 X28.9642 Y20.9001
G01 X28.8540 Y21.0024
G00 Z1.0000
G00 X28.7549 Y20.9034
G01 F50.00
G01 Z-0.0500
G01 F100.00
G01 X28.8677 Y20.7987
G01 X28.9006 Y20.7665
G00 Z1.0000
G00 X28.8016 Y20.6675
G01 F50.00
G01 Z-0.0500
G01 F100.00
G01 X28.7711 Y20.6973
G01 X28.6559 Y20.8043
G01 X28.5568 Y20.7053
G01 X28.6746 Y20.5959
G01 X28.7026 Y20.5685
G00 Z1.0000
G00 X28.6036 Y20.4695
G01 F50.00
G01 Z-0.0500
G01 F100.00
G01 X28.5781 Y20.4945
G01 X28.4578 Y20.6062
G01 X28.3587 Y20.5072
G01 X28.4815 Y20.3931
G01 X28.5046 Y20.3705
G00 Z1.0000
G00 X28.4056 Y20.2715
G01 F50.00
G01 Z-0.0500
G01 F100.00
G01 X28.3850 Y20.2917
G01 X28.2597 Y20.4081
G00 Z1.0000
G00 X28.1606 Y20.3090
G01 F50.00
G01 Z-0.0500
G01 F100.00
G01 X28.2884 Y20.1903
G01 X28.3066 Y20.1725
G00 Z1.0000
G00 X28.2076 Y20.0735
G01 F50.00
G01 Z-0.0500
G01 F100.00
G01 X28.1919 Y20.0889
G01 X28.0616 Y20.2100
G01 X27.9625 Y20.1109
G01 X28.0954 Y19.9875
G01 X28.1087 Y19.9745
G00 Z1.0000
G00 X28.0097 Y19.8756
G01 F50.00
G01 Z-0.0500
G01 F100.00
G01 X27.9988 Y19.8861
G01 X27.8634 Y20.0119
G01 X27.7644 Y19.9128
G01 X27.9023 Y19.7847
G01 X27.9107 Y19.7766
G00 Z1.0000
G00 X27.8117 Y19.6776
G01 F50.00
G01 Z-0.0500
G01 F100.00
G01 X27.6653 Y19.8138
G00 Z1.0000
G00 X27.5663 Y19.7147
G01 F50.00
G01 Z-0.0500
G01 F100.00
G01 X27.7127 Y19.5786
G00 Z1.0000
G00 X27.6137 Y19.4796
G01 F50.00
G01 Z-0.0500
G01 F100.00
G01 X27.4672 Y19.6157
G00 Z1.0000
G00 X27.3682 Y19.5166
G01 F50.00
G01 Z-0.0500
G01 F100.00
G01 X27.5146 Y19.3805
G01 X27.4156 Y19.2815
G01 X27.2691 Y19.4176
G01 X27.1701 Y19.3185
G01 X27.3165 Y19.1824
G00 Z1.0000
G00 X27.2175 Y19.0834
G01 F50.00
G01 Z-0.0500
G01 F100.00
G01 X27.0710 Y19.2194
G01 X26.9720 Y19.1204
G01 X27.1184 Y18.9843
G00 Z1.0000
G00 X27.0194 Y18.8853
G01 F50.00
G01 Z-0.0500
G01 F100.00
G01 X26.8728 Y19.0213
G01 X26.7736 Y18.9221
G01 X26.7821 Y18.9146
G01 X26.9203 Y18.7862
G00 Z1.0000
G00 X26.8213 Y18.6872
G01 F50.00
G01 Z-0.0500
G01 F100.00
G01 X26.6881 Y18.8109
G01 X26.6745 Y18.8229
G00 Z1.0000
G00 X26.5753 Y18.7237
G01 F50.00
G01 Z-0.0500
G01 F100.00
G01 X26.5941 Y18.7071
G01 X26.7222 Y18.5881
G01 X26.6232 Y18.4891
G01 X26.5001 Y18.6034
G01 X26.4761 Y18.6246
G01 X26.3769 Y18.5254
G01 X26.4060 Y18.4997
G01 X26.5241 Y18.3900
G01 X26.4250 Y18.2909
G01 X26.3120 Y18.3959
G01 X26.2778 Y18.4262
G00 Z1.0000
G00 X26.1767 Y18.3287
G01 F50.00
G01 Z-0.0500
G01 F100.00
G01 X26.2180 Y18.2922
G01 X26.3260 Y18.1919
G00 Z1.0000
G00 X26.2422 Y18.0786
G01 F50.00
G01 Z-0.0500
G01 F100.00
G01 X26.1240 Y18.1885
G01 X26.0900 Y18.2185
G01 X26.0293 Y18.0853
G01 X26.1647 Y17.9596
G01 X26.2009 Y17.9242
G00 Z1.0000
G00 X26.1999 Y17.7296
G01 F50.00
G01 Z-0.0500
G01 F100.00
G01 X26.0681 Y17.8582
G01 X25.9993 Y17.9221
G00 Z1.0000
G00 X25.9383 Y17.7877
G01 F50.00
G01 Z-0.0500
G01 F100.00
G01 X25.9716 Y17.7568
G01 X26.0901 Y17.6412
G00 Z1.0000
G00 X26.1999 Y17.7053
G01 F50.00
G01 Z-0.0500
G01 F100.00
G01 X26.1736 Y17.6925
G01 X26.1020 Y17.6497
G01 X26.0960 Y17.6455
G01 X26.0310 Y17.5972
G01 X26.0253 Y17.5925
G01 X25.9636 Y17.5364
G01 X25.9059 Y17.4728
G01 X25.9013 Y17.4671
G01 X25.8517 Y17.4000
G01 X25.8063 Y17.3243
G01 X25.7685 Y17.2444
G01 X25.7395 Y17.1636
G01 X25.7374 Y17.1565
G01 X25.7173 Y17.0756
G01 X25.7043 Y16.9882
G01 X25.7000 Y16.9000
G01 X25.7043 Y16.8118
G01 X25.7173 Y16.7244
G01 X25.7388 Y16.6387
G01 X25.7685 Y16.5556
G01 X25.8051 Y16.4779
G01 X25.8087 Y16.4715
G01 X25.8517 Y16.4000
G01 X25.9043 Y16.3290
G01 X25.9636 Y16.2636
G01 X26.0290 Y16.2043
G01 X26.1000 Y16.1517
G01 X26.1757 Y16.1063
G01 X26.2556 Y16.0685
G01 X26.3387 Y16.0388
G01 X26.4244 Y16.0173
G01 X26.5118 Y16.0043
G01 X26.6000 Y16.0000
G01 X26.6882 Y16.0043
G01 X26.7756 Y16.0173
G01 X26.8613 Y16.0388
G01 X26.9444 Y16.0685
G01 X27.0221 Y16.1051
G01 X27.0959 Y16.1491
G01 X27.1040 Y16.1545
G01 X27.1710 Y16.2043
G01 X27.2364 Y16.2636
G01 X27.2925 Y16.3253
G01 X27.2987 Y16.3329
G01 X27.3483 Y16.4000
G01 X27.3913 Y16.4715
G01 X27.3959 Y16.4801
G01 X27.4315 Y16.5556
G01 X27.4597 Y16.6341
G01 X27.4626 Y16.6435
G01 X27.4827 Y16.7244
G01 X27.4951 Y16.8069
G01 X27.4960 Y16.8167
G01 X27.5000 Y16.9025
G01 X27.4957 Y16.9882
G01 X27.4835 Y17.0707
G01 X27.4816 Y17.0804
G01 X27.4612 Y17.1613
G01 X27.4333 Y17.2398
G01 X27.4295 Y17.2489
G01 X27.3937 Y17.3243
G01 X27.3509 Y17.3959
G01 X27.3455 Y17.4040
G01 X27.2957 Y17.4710
G01 X27.2398 Y17.5328
G01 X27.2346 Y17.5381
G01 X27.1710 Y17.5957
G01 X27.1020 Y17.6469
G01 X27.0959 Y17.6509
G01 X27.0264 Y17.6925
G01 X27.0002 Y17.7053
G01 X27.0001 Y17.7343
G01 X32.9157 Y23.6498
G01 X38.2443 Y23.6499
G01 X39.3186 Y22.5755
G01 X39.3002 Y22.5234
G01 X39.2788 Y22.4377
G01 X39.2652 Y22.3480
G01 X39.2644 Y22.3407
G01 X39.2600 Y22.2500
G01 X39.2642 Y22.1618
G01 X39.2652 Y22.1520
G01 X39.2778 Y22.0671
G01 X39.2793 Y22.0599
G01 X39.3009 Y21.9742
G01 X39.3305 Y21.8910
G01 X39.3343 Y21.8820
G01 X39.3722 Y21.8022
G01 X39.4175 Y21.7264
G01 X39.4229 Y21.7182
G01 X39.4741 Y21.6492
G01 X39.4788 Y21.6436
G01 X39.5382 Y21.5782
G01 X39.6073 Y21.5156
G01 X39.6822 Y21.4601
G01 X39.7622 Y21.4122
G01 X39.8465 Y21.3723
G01 X39.9342 Y21.3409
G01 X40.0247 Y21.3183
G01 X40.1120 Y21.3052
G01 X40.1218 Y21.3042
G01 X40.2100 Y21.3000
G01 X40.2982 Y21.3042
G01 X40.3080 Y21.3052
G01 X40.3953 Y21.3183
G01 X40.4810 Y21.3396
G01 X40.4904 Y21.3424
G01 X40.5735 Y21.3723
G01 X40.6578 Y21.4122
G01 X40.7336 Y21.4575
G01 X40.7418 Y21.4629
G01 X40.8127 Y21.5156
G01 X40.8782 Y21.5749
G01 X40.8851 Y21.5818
G01 X40.9444 Y21.6473
G01 X40.9999 Y21.7222
G01 X41.0454 Y21.7979
G01 X41.0500 Y21.8066
G01 X41.0877 Y21.8865
G01 X41.1176 Y21.9696
G01 X41.1204 Y21.9790
G01 X41.1417 Y22.0647
G01 X41.1548 Y22.1520
G01 X41.1558 Y22.1618
G01 X41.1600 Y22.2500
G01 X41.1558 Y22.3382
G01 X41.1548 Y22.3480
G01 X41.1417 Y22.4353
G01 X41.1204 Y22.5210
G01 X41.1184 Y22.5281
G01 X41.0877 Y22.6135
G01 X41.0478 Y22.6978
G01 X40.9999 Y22.7778
G01 X40.9444 Y22.8527
G01 X40.8818 Y22.9218
G01 X40.8127 Y22.9844
G01 X40.7378 Y23.0399
G01 X40.6621 Y23.0854
G01 X40.6556 Y23.0890
G01 X40.5735 Y23.1277
G01 X40.4858 Y23.1591
G01 X40.3953 Y23.1817
G01 X40.3080 Y23.1948
G01 X40.3007 Y23.1956
G01 X40.2100 Y23.2000
G01 X40.1218 Y23.1958
G01 X40.1144 Y23.1952
G01 X40.0295 Y23.1826
G01 X40.0223 Y23.1812
G01 X39.9366 Y23.1598
G01 X39.8845 Y23.1414
G01 X38.6912 Y24.3347
G01 X38.6639 Y24.3593
G01 X38.6363 Y24.3799
G01 X38.6282 Y24.3853
G01 X38.5986 Y24.4029
G01 X38.5676 Y24.4177
G01 X38.5586 Y24.4215
G01 X38.5262 Y24.4329
G01 X38.4905 Y24.4420
G01 X38.4492 Y24.4482
G01 X38.4100 Y24.4501
G01 X32.7500 Y24.4501
G01 X32.7108 Y24.4482
G01 X32.6768 Y24.4433
G01 X32.6671 Y24.4414
G01 X32.6315 Y24.4322
G01 X32.6014 Y24.4215
G01 X32.5924 Y24.4177
G01 X32.5614 Y24.4029
G01 X32.5318 Y24.3853
G01 X32.5237 Y24.3799
G01 X32.4961 Y24.3593
G01 X32.4671 Y24.3329
G01 X26.3153 Y18.1812
G01 X26.2907 Y18.1539
G01 X26.2701 Y18.1263
G01 X26.2647 Y18.1182
G01 X26.2471 Y18.0886
G01 X26.2323 Y18.0576
G01 X26.2285 Y18.0486
G01 X26.2171 Y18.0162
G01 X26.2086 Y17.9829
G01 X26.2067 Y17.9732
G01 X26.2018 Y17.9392
G01 X26.1999 Y17.9025
G01 X26.1999 Y17.7053
G00 Z1.0000
G00 X25.9809 Y17.5522
G01 F50.00
G01 Z-0.0500
G01 F100.00
G01 X25.8751 Y17.6554
G01 X25.8361 Y17.6916
G01 X25.7388 Y17.5909
G01 X25.7785 Y17.5540
G01 X25.8871 Y17.4480
G00 Z1.0000
G00 X25.8087 Y17.3286
G01 F50.00
G01 Z-0.0500
G01 F100.00
G01 X25.6820 Y17.4526
G01 X25.6600 Y17.4730
G01 X25.5932 Y17.3437
G01 X25.7023 Y17.2373
G01 X25.7488 Y17.1896
G00 Z1.0000
G00 X25.7102 Y17.0287
G01 F50.00
G01 Z-0.0500
G01 F100.00
G01 X25.6033 Y17.1383
G01 X25.5385 Y17.2015
G01 X25.5059 Y17.0376
G01 X25.6135 Y16.9274
G01 X25.7033 Y16.8307
G01 X25.5001 Y16.8431
G01 X25.5121 Y16.8308
G01 X25.6161 Y16.7188
G01 X25.7174 Y16.6043
G01 X25.7812 Y16.5284
G01 X25.5393 Y16.5944
G01 X25.6114 Y16.5128
G01 X25.7076 Y16.3985
G01 X25.8010 Y16.2818
G01 X25.8915 Y16.1628
G01 X25.9791 Y16.0417
G01 X26.0420 Y15.9499
G01 X26.0406 Y16.1956
G01 X26.0936 Y16.1223
G01 X26.1801 Y15.9962
G01 X26.2634 Y15.8680
G01 X26.2793 Y15.8423
G01 X26.4665 Y15.8051
G01 X26.3817 Y15.9429
G01 X26.3136 Y16.0476
G00 Z1.0000
G00 X26.5080 Y16.0048
G01 F50.00
G01 Z-0.0500
G01 F100.00
G01 X26.5838 Y15.8818
G01 X26.6315 Y15.8001
G01 X26.7846 Y15.8152
G01 X26.7039 Y15.9538
G01 X26.6733 Y16.0035
G00 Z1.0000
G00 X26.8221 Y16.0288
G01 F50.00
G01 Z-0.0500
G01 F100.00
G01 X26.9079 Y15.8818
G01 X26.9280 Y15.8453
G01 X27.0581 Y15.8992
G01 X27.0297 Y15.9508
G01 X26.9575 Y16.0746
G00 Z1.0000
G00 X27.0813 Y16.1403
G01 F50.00
G01 Z-0.0500
G01 F100.00
G01 X27.1515 Y16.0198
G01 X27.1814 Y15.9656
G01 X27.2982 Y16.0436
G01 X27.2733 Y16.0888
G01 X27.1940 Y16.2250
G00 Z1.0000
G00 X27.2952 Y16.3284
G01 F50.00
G01 Z-0.0500
G01 F100.00
G01 X27.3043 Y16.3137
G01 X27.3951 Y16.1578
G01 X27.4016 Y16.1461
G01 X27.4965 Y16.2619
G01 X27.4244 Y16.3856
G01 X27.3815 Y16.4552
G00 Z1.0000
G00 X27.4509 Y16.6095
G01 F50.00
G01 Z-0.0500
G01 F100.00
G01 X27.5445 Y16.4576
G01 X27.5812 Y16.3946
G01 X27.6482 Y16.5562
G01 X27.5645 Y16.6919
G01 X27.4941 Y16.8002
G01 X27.6920 Y16.7519
G01 X27.6828 Y16.7668
G01 X27.5769 Y16.9296
G01 X27.4845 Y17.0643
G01 X27.6999 Y16.9972
G01 X27.6933 Y17.0073
G01 X27.5816 Y17.1703
G01 X27.4658 Y17.3304
G01 X27.3462 Y17.4876
G01 X27.2227 Y17.6419
G01 X27.0955 Y17.7930
G01 X27.0784 Y17.8125
G01 X27.1775 Y17.9116
G01 X27.2015 Y17.8845
G01 X27.3310 Y17.7307
G01 X27.4566 Y17.5737
G01 X27.5771 Y17.4153
G00 Z1.0000
G00 X27.4162 Y17.8468
G01 F50.00
G01 Z-0.0500
G01 F100.00
G01 X27.3075 Y17.9759
G01 X27.2767 Y18.0108
G01 X27.3759 Y18.1100
G01 X27.4136 Y18.0674
G01 X27.5060 Y17.9575
G00 Z1.0000
G00 X27.6053 Y18.0569
G01 F50.00
G01 Z-0.0500
G01 F100.00
G01 X27.5196 Y18.1588
G01 X27.4751 Y18.2092
G01 X27.5742 Y18.3083
G01 X27.6256 Y18.2503
G01 X27.7047 Y18.1562
G01 X27.8040 Y18.2556
G01 X27.7316 Y18.3417
G01 X27.6734 Y18.4075
G01 X27.7726 Y18.5067
G01 X27.8376 Y18.4332
G01 X27.9034 Y18.3550
G00 Z1.0000
G00 X28.0027 Y18.4543
G01 F50.00
G01 Z-0.0500
G01 F100.00
G01 X27.9436 Y18.5246
G01 X27.8718 Y18.6059
G01 X27.9709 Y18.7050
G01 X28.0496 Y18.6160
G01 X28.1021 Y18.5537
G00 Z1.0000
G00 X28.2015 Y18.6530
G01 F50.00
G01 Z-0.0500
G01 F100.00
G01 X28.1556 Y18.7075
G01 X28.0701 Y18.8042
G01 X28.1693 Y18.9034
G01 X28.2616 Y18.7989
G01 X28.3008 Y18.7524
G01 X28.4002 Y18.8517
G01 X28.3676 Y18.8904
G01 X28.2684 Y19.0026
G01 X28.3676 Y19.1017
G01 X28.4737 Y18.9818
G01 X28.4995 Y18.9511
G00 Z1.0000
G00 X28.5989 Y19.0504
G01 F50.00
G01 Z-0.0500
G01 F100.00
G01 X28.5797 Y19.0733
G01 X28.4668 Y19.2009
G01 X28.5660 Y19.3001
G01 X28.6857 Y19.1647
G01 X28.6982 Y19.1498
G01 X28.7976 Y19.2491
G01 X28.6651 Y19.3992
G01 X28.7643 Y19.4984
G01 X28.8969 Y19.3485
G00 Z1.0000
G00 X28.9961 Y19.4476
G01 F50.00
G01 Z-0.0500
G01 F100.00
G01 X28.8635 Y19.5976
G01 X28.9627 Y19.6968
G01 X29.0953 Y19.5468
G00 Z1.0000
G00 X29.1944 Y19.6460
G01 F50.00
G01 Z-0.0500
G01 F100.00
G01 X29.0618 Y19.7959
G01 X29.1610 Y19.8951
G01 X29.2936 Y19.7452
G01 X29.3928 Y19.8443
G01 X29.2602 Y19.9943
G01 X29.3594 Y20.0935
G01 X29.4920 Y19.9435
G00 Z1.0000
G00 X29.5911 Y20.0427
G01 F50.00
G01 Z-0.0500
G01 F100.00
G01 X29.4585 Y20.1926
G01 X29.5577 Y20.2918
G01 X29.6903 Y20.1419
G00 Z1.0000
G00 X29.7895 Y20.2410
G01 F50.00
G01 Z-0.0500
G01 F100.00
G01 X29.6568 Y20.3909
G01 X29.7558 Y20.4899
G01 X29.7655 Y20.4795
G01 X29.8887 Y20.3402
G00 Z1.0000
G00 X29.9878 Y20.4394
G01 F50.00
G01 Z-0.0500
G01 F100.00
G01 X29.8692 Y20.5736
G01 X29.8549 Y20.5890
G01 X29.9539 Y20.6880
G01 X29.9729 Y20.6676
G01 X30.0870 Y20.5386
G00 Z1.0000
G00 X30.1862 Y20.6377
G01 F50.00
G01 Z-0.0500
G01 F100.00
G01 X30.0767 Y20.7616
G01 X30.0530 Y20.7871
G01 X30.1520 Y20.8861
G01 X30.1804 Y20.8556
G01 X30.2853 Y20.7369
G00 Z1.0000
G00 X30.3845 Y20.8361
G01 F50.00
G01 Z-0.0500
G01 F100.00
G01 X30.2841 Y20.9496
G01 X30.2511 Y20.9852
G01 X30.3501 Y21.0842
G01 X30.3879 Y21.0437
G01 X30.4837 Y20.9353
G00 Z1.0000
G00 X30.5829 Y21.0344
G01 F50.00
G01 Z-0.0500
G01 F100.00
G01 X30.4916 Y21.1377
G01 X30.4492 Y21.1833
G01 X30.5483 Y21.2824
G01 X30.5953 Y21.2317
G01 X30.6820 Y21.1336
G00 Z1.0000
G00 X30.7812 Y21.2328
G01 F50.00
G01 Z-0.0500
G01 F100.00
G01 X30.6991 Y21.3257
G01 X30.6473 Y21.3814
G01 X30.7464 Y21.4805
G01 X30.8028 Y21.4197
G01 X30.8804 Y21.3320
G00 Z1.0000
G00 X30.9796 Y21.4311
G01 F50.00
G01 Z-0.0500
G01 F100.00
G01 X30.9065 Y21.5137
G01 X30.8454 Y21.5795
G01 X30.9445 Y21.6786
G01 X31.0102 Y21.6078
G01 X31.0787 Y21.5303
G00 Z1.0000
G00 X31.1779 Y21.6295
G01 F50.00
G01 Z-0.0500
G01 F100.00
G01 X31.1140 Y21.7018
G01 X31.0435 Y21.7776
G01 X31.1426 Y21.8767
G01 X31.2177 Y21.7958
G01 X31.2771 Y21.7287
G00 Z1.0000
G00 X31.3763 Y21.8278
G01 F50.00
G01 Z-0.0500
G01 F100.00
G01 X31.3214 Y21.8898
G01 X31.2416 Y21.9757
G01 X31.3407 Y22.0748
G01 X31.4252 Y21.9838
G01 X31.4754 Y21.9270
G00 Z1.0000
G00 X31.5746 Y22.0262
G01 F50.00
G01 Z-0.0500
G01 F100.00
G01 X31.5289 Y22.0779
G01 X31.4397 Y22.1738
G01 X31.5388 Y22.2729
G01 X31.6326 Y22.1719
G01 X31.6738 Y22.1253
G00 Z1.0000
G00 X31.7730 Y22.2245
G01 F50.00
G01 Z-0.0500
G01 F100.00
G01 X31.7364 Y22.2659
G01 X31.6379 Y22.3720
G01 X31.7369 Y22.4710
G01 X31.8401 Y22.3599
G01 X31.8721 Y22.3237
G00 Z1.0000
G00 X31.9713 Y22.4229
G01 F50.00
G01 Z-0.0500
G01 F100.00
G01 X31.9438 Y22.4539
G01 X31.8360 Y22.5701
G01 X31.9350 Y22.6691
G01 X32.0476 Y22.5479
G01 X32.0705 Y22.5220
G00 Z1.0000
G00 X32.1697 Y22.6212
G01 F50.00
G01 Z-0.0500
G01 F100.00
G01 X32.1513 Y22.6420
G01 X32.0341 Y22.7682
G01 X32.1331 Y22.8672
G01 X32.2550 Y22.7360
G01 X32.2688 Y22.7204
G00 Z1.0000
G00 X32.3680 Y22.8196
G01 F50.00
G01 Z-0.0500
G01 F100.00
G01 X32.3588 Y22.8300
G01 X32.2322 Y22.9663
G01 X32.3312 Y23.0653
G01 X32.4672 Y22.9187
G00 Z1.0000
G00 X32.5664 Y23.0179
G01 F50.00
G01 Z-0.0500
G01 F100.00
G01 X32.4303 Y23.1644
G01 X32.5293 Y23.2634
G01 X32.6654 Y23.1170
G00 Z1.0000
G00 X32.7645 Y23.2160
G01 F50.00
G01 Z-0.0500
G01 F100.00
G01 X32.6284 Y23.3625
G01 X32.7275 Y23.4616
G01 X32.8635 Y23.3151
G00 Z1.0000
G00 X32.9654 Y23.4111
G01 F50.00
G01 Z-0.0500
G01 F100.00
G01 X32.8265 Y23.5606
G01 X32.9347 Y23.6498
G01 X33.0849 Y23.4881
G01 X33.1186 Y23.4501
G01 X33.3054 Y23.4501
G01 X33.1886 Y23.5821
G01 X33.1258 Y23.6498
G01 X33.3156 Y23.6498
G01 X33.4923 Y23.4501
G01 X33.6786 Y23.4501
G01 X33.6681 Y23.4626
G01 X33.5025 Y23.6498
G01 X33.6894 Y23.6498
G01 X33.7741 Y23.5540
G01 X33.8616 Y23.4501
G01 X34.0445 Y23.4501
G01 X33.8763 Y23.6498
G01 X34.0594 Y23.6498
G01 X34.2275 Y23.4501
G01 X34.4082 Y23.4501
G01 X34.3654 Y23.5037
G01 X34.2423 Y23.6499
G01 X34.4253 Y23.6499
G01 X34.4736 Y23.5925
G01 X34.5876 Y23.4501
G01 X34.7669 Y23.4501
G01 X34.6070 Y23.6499
G01 X34.7863 Y23.6499
G01 X34.9462 Y23.4501
G01 X35.1228 Y23.4501
G01 X35.0720 Y23.5169
G01 X34.9656 Y23.6499
G01 X35.1449 Y23.6499
G01 X35.1824 Y23.6030
G01 X35.2987 Y23.4501
G01 X35.4746 Y23.4501
G01 X35.3226 Y23.6499
G01 X35.4985 Y23.6499
G01 X35.6505 Y23.4501
G01 X35.8245 Y23.4501
G01 X35.7871 Y23.5018
G01 X35.6744 Y23.6499
G01 X35.8503 Y23.6499
G01 X35.8995 Y23.5852
G01 X35.9972 Y23.4501
G01 X36.1699 Y23.4501
G01 X36.0255 Y23.6499
G01 X36.1982 Y23.6499
G01 X36.3427 Y23.4501
G01 X36.5151 Y23.4501
G01 X36.3710 Y23.6499
G01 X36.5437 Y23.6499
G01 X36.6240 Y23.5387
G01 X36.6849 Y23.4501
G00 Z1.0000
G00 X37.0717 Y21.5123
G01 F50.00
G01 Z-0.0500
G01 F100.00
G01 X37.2362 Y21.2134
G01 X37.2698 Y21.1485
G00 Z1.0000
G00 X38.0701 Y15.2753
G01 F50.00
G01 Z-0.0500
G01 F100.00
G01 X38.1029 Y15.0720
G01 X38.1600 Y14.6515
G01 X38.2067 Y14.2297
G01 X38.2432 Y13.8069
G01 X38.2692 Y13.3834
G01 X38.2699 Y13.3627
G00 Z1.0000
G00 X38.2699 Y11.7073
G01 F50.00
G01 Z-0.0500
G01 F100.00
G01 X38.2692 Y11.6866
G01 X38.2432 Y11.2631
G01 X38.2067 Y10.8403
G01 X38.2013 Y10.7913
G00 Z1.0000
G00 X37.2561 Y11.2220
G01 F50.00
G01 Z-0.0500
G01 F100.00
G01 X37.2658 Y11.3352
G01 X37.2699 Y11.4010
G00 Z1.0000
G00 X34.5386 Y7.3727
G01 F50.00
G01 Z-0.0500
G01 F100.00
G01 X34.5191 Y7.3201
G01 X34.4745 Y7.2087
G00 Z1.0000
G00 X32.6515 Y7.5603
G01 F50.00
G01 Z-0.0500
G01 F100.00
G01 X32.5830 Y7.4006
G01 X32.5391 Y7.3047
G00 Z1.0000
G00 X32.6132 Y5.0999
G01 F50.00
G01 Z-0.0500
G01 F100.00
G01 X32.4832 Y4.9001
G01 X32.6502 Y4.9001
G01 X32.7688 Y5.0825
G01 X32.7796 Y5.0999
G01 X32.9440 Y5.0999
G01 X32.8871 Y5.0076
G01 X32.8172 Y4.9001
G01 X32.9842 Y4.9001
G01 X33.0054 Y4.9327
G01 X33.1084 Y5.0999
G01 X33.2729 Y5.0999
G01 X33.1498 Y4.9001
G01 X33.3142 Y4.9001
G01 X33.4285 Y5.0857
G01 X33.4368 Y5.0999
G01 X33.5988 Y5.0999
G01 X33.5486 Y5.0137
G01 X33.4786 Y4.9001
G01 X33.6430 Y4.9001
G01 X33.6687 Y4.9417
G01 X33.7609 Y5.0999
G01 X33.9229 Y5.0999
G01 X33.8065 Y4.9001
G01 X33.9685 Y4.9001
G01 X34.0849 Y5.0999
G01 X34.2453 Y5.0999
G01 X34.2166 Y5.0479
G01 X34.1305 Y4.9001
G01 X34.2926 Y4.9001
G01 X34.3384 Y4.9789
G01 X34.4051 Y5.0999
G01 X34.5649 Y5.0999
G01 X34.4602 Y4.9099
G01 X34.4546 Y4.9001
G01 X34.6147 Y4.9001
G01 X34.7247 Y5.0999
G01 X34.8844 Y5.0999
G01 X34.7745 Y4.9001
G01 X34.9343 Y4.9001
G01 X35.0137 Y5.0445
G01 X35.0425 Y5.0999
G01 X35.2002 Y5.0999
G01 X35.1372 Y4.9785
G01 X35.0941 Y4.9002
G01 X35.2539 Y4.9002
G01 X35.2607 Y4.9125
G01 X35.3579 Y5.0999
G01 X35.5156 Y5.0999
G01 X35.4120 Y4.9002
G01 X35.5697 Y4.9002
G01 X35.6733 Y5.0999
G01 X35.8303 Y5.0999
G01 X35.8186 Y5.0759
G01 X35.7274 Y4.9002
G01 X35.8851 Y4.9002
G01 X35.9436 Y5.0130
G01 X35.9861 Y5.0999
G01 X36.1418 Y5.0999
G01 X36.0687 Y4.9501
G01 X36.0428 Y4.9002
G01 X36.2001 Y4.9002
G01 X36.2976 Y5.0999
G01 X36.4534 Y5.0999
G01 X36.3559 Y4.9002
G01 X36.5117 Y4.9002
G01 X36.6092 Y5.0999
G01 X36.7644 Y5.0999
G01 X36.7565 Y5.0827
G01 X36.6674 Y4.9002
G01 X36.8232 Y4.9002
G01 X36.8831 Y5.0229
G01 X36.9184 Y5.0999
G01 X36.9790 Y4.9002
G01 X37.0097 Y4.9630
G01 X37.1907 Y5.3582
G01 X37.3619 Y5.7577
G01 X37.4684 Y6.0239
G01 X37.5191 Y5.7737
G01 X37.6539 Y6.1109
G01 X37.6854 Y6.1957
G01 X37.8668 Y6.2818
G01 X37.7845 Y6.0605
G01 X37.7628 Y6.0061
G00 Z1.0000
G00 X37.9473 Y6.0965
G01 F50.00
G01 Z-0.0500
G01 F100.00
G01 X38.0335 Y6.3284
G01 X38.1908 Y6.3499
G01 X38.1122 Y6.1384
G00 Z1.0000
G00 X38.2656 Y6.1494
G01 F50.00
G01 Z-0.0500
G01 F100.00
G01 X38.3338 Y6.3329
G01 X38.3397 Y6.3499
G01 X38.4795 Y6.3258
G01 X38.4656 Y6.2857
G01 X38.4097 Y6.1352
G00 Z1.0000
G00 X38.5456 Y6.0991
G01 F50.00
G01 Z-0.0500
G01 F100.00
G01 X38.5975 Y6.2385
G01 X38.6150 Y6.2894
G01 X38.7445 Y6.2357
G01 X38.7293 Y6.1914
G01 X38.6744 Y6.0437
G00 Z1.0000
G00 X38.7946 Y5.9654
G01 F50.00
G01 Z-0.0500
G01 F100.00
G01 X38.8611 Y6.1442
G01 X38.8668 Y6.1608
G01 X38.9836 Y6.0720
G01 X38.9065 Y5.8644
G00 Z1.0000
G00 X39.0076 Y5.7348
G01 F50.00
G01 Z-0.0500
G01 F100.00
G01 X39.0925 Y5.9631
G01 X39.1898 Y5.8233
G01 X39.0930 Y5.5627
G01 X39.2748 Y5.6501
G01 X39.2213 Y5.5063
G01 X39.1467 Y5.3196
G01 X39.3377 Y5.4201
G01 X39.1727 Y5.0076
G01 X38.9825 Y4.5639
G01 X38.8853 Y4.3516
G01 X38.8263 Y4.5589
G01 X38.6788 Y4.2371
G01 X38.4955 Y4.1773
G01 X38.5284 Y4.2447
G01 X38.6116 Y4.4265
G00 Z1.0000
G00 X38.4311 Y4.3686
G01 F50.00
G01 Z-0.0500
G01 F100.00
G01 X38.4018 Y4.3046
G01 X38.3264 Y4.1501
G01 X38.1706 Y4.1501
G01 X38.2686 Y4.3508
G00 Z1.0000
G00 X38.1177 Y4.3608
G01 F50.00
G01 Z-0.0500
G01 F100.00
G01 X38.0071 Y4.1342
G01 X37.9775 Y4.3927
G01 X37.8194 Y4.0688
G01 X37.7632 Y3.9604
G01 X37.5766 Y3.9047
G01 X37.6944 Y4.1318
G01 X37.7072 Y4.1581
G00 Z1.0000
G00 X37.5206 Y4.1007
G01 F50.00
G01 Z-0.0500
G01 F100.00
G01 X37.4164 Y3.9001
G01 X37.2587 Y3.9001
G01 X37.3624 Y4.0999
G01 X37.2047 Y4.0999
G01 X37.1127 Y3.9226
G01 X37.1003 Y3.9001
G01 X36.9405 Y3.9001
G01 X36.9892 Y3.9886
G01 X37.0470 Y4.0999
G01 X36.8893 Y4.0999
G01 X36.8658 Y4.0546
G01 X36.7807 Y3.9001
G01 X36.6209 Y3.9001
G01 X36.7309 Y4.0999
G01 X36.5711 Y4.0999
G01 X36.4611 Y3.9001
G01 X36.3013 Y3.9001
G01 X36.4113 Y4.0999
G01 X36.2515 Y4.0999
G01 X36.1656 Y3.9438
G01 X36.1401 Y3.9001
G01 X35.9781 Y3.9001
G01 X36.0438 Y4.0128
G01 X36.0917 Y4.0999
G01 X35.9319 Y4.0999
G01 X35.9220 Y4.0818
G01 X35.8161 Y3.9001
G01 X35.6540 Y3.9001
G01 X35.7705 Y4.0999
G01 X35.6085 Y4.0999
G01 X35.4920 Y3.9001
G01 X35.3289 Y3.9001
G01 X35.3498 Y3.9341
G01 X35.4464 Y4.0999
G01 X35.2844 Y4.0999
G01 X35.2297 Y4.0060
G01 X35.1644 Y3.9001
G01 X35.0000 Y3.9001
G01 X35.1096 Y4.0780
G01 X35.1224 Y4.0999
G01 X34.9587 Y4.0999
G01 X34.8356 Y3.9001
G01 X34.6711 Y3.9001
G01 X34.7942 Y4.0999
G01 X34.6298 Y4.0999
G01 X34.5430 Y3.9590
G01 X34.5047 Y3.9001
G01 X34.3377 Y3.9001
G01 X34.4247 Y4.0339
G01 X34.4654 Y4.0999
G01 X34.3006 Y4.0999
G01 X34.1707 Y3.9001
G01 X34.0036 Y3.9001
G01 X34.1336 Y4.0999
G01 X33.9666 Y4.0999
G01 X33.8628 Y3.9403
G01 X33.8352 Y3.9001
G01 X33.6654 Y3.9001
G01 X33.7464 Y4.0181
G01 X33.7996 Y4.0999
G01 X33.6326 Y4.0999
G01 X33.4957 Y3.9001
G01 X33.3259 Y3.9001
G01 X33.4630 Y4.0999
G01 X33.2932 Y4.0999
G01 X33.1902 Y3.9497
G01 X33.1543 Y3.9001
G01 X32.9816 Y3.9001
G01 X33.0757 Y4.0303
G01 X33.1234 Y4.0999
G01 X32.9533 Y4.0999
G01 X32.8089 Y3.9001
G01 X32.6360 Y3.9001
G01 X32.7805 Y4.0999
G01 X32.6078 Y4.0999
G01 X32.5260 Y3.9867
G01 X32.4601 Y3.9001
G01 X32.2842 Y3.9001
G01 X32.4136 Y4.0701
G01 X32.4351 Y4.0999
G01 X32.2603 Y4.0999
G01 X32.1083 Y3.9001
G01 X31.9298 Y3.9001
G01 X31.9817 Y3.9648
G01 X32.0844 Y4.0999
G01 X31.9085 Y4.0999
G01 X31.8713 Y4.0510
G01 X31.7505 Y3.9001
G01 X31.5712 Y3.9001
G01 X31.7311 Y4.0999
G01 X31.5518 Y4.0999
G01 X31.4434 Y3.9643
G01 X31.3893 Y3.9001
G01 X31.2063 Y3.9001
G01 X31.3351 Y4.0532
G01 X31.3725 Y4.0999
G01 X31.1915 Y4.0999
G01 X31.0234 Y3.9001
G01 X30.8368 Y3.9001
G01 X30.9119 Y3.9850
G01 X31.0085 Y4.0999
G01 X30.8256 Y4.0999
G01 X30.8059 Y4.0764
G01 X30.6499 Y3.9001
G01 X30.4616 Y3.9001
G01 X30.4916 Y3.9323
G01 X30.6397 Y4.0999
G01 X30.4528 Y4.0999
G01 X30.3879 Y4.0263
G01 X30.2705 Y3.9001
G01 X30.0795 Y3.9001
G01 X30.2651 Y4.0999
G01 X30.0740 Y4.0999
G01 X29.9734 Y3.9916
G01 X29.8841 Y3.9001
G01 X29.6885 Y3.9001
G01 X29.8720 Y4.0881
G01 X29.8829 Y4.0999
G01 X29.6879 Y4.0999
G01 X29.5631 Y3.9719
G01 X29.4894 Y3.9001
G01 X29.4923 Y4.0999
G01 X29.4641 Y4.0709
G01 X29.2890 Y3.9001
G01 X29.2933 Y4.0999
G01 X29.1573 Y3.9672
G01 X29.0850 Y3.9001
G01 X29.0928 Y4.0999
G01 X29.0607 Y4.0686
G01 X28.8794 Y3.9001
G01 X28.8887 Y4.0999
G01 X28.7565 Y3.9770
G01 X28.6695 Y3.9001
G01 X28.6830 Y4.0999
G01 X28.6625 Y4.0807
G01 X28.4581 Y3.9001
G01 X28.4728 Y4.0999
G01 X28.3613 Y4.0013
G01 X28.2410 Y3.9001
G01 X28.2610 Y4.0999
G01 X28.0608 Y3.9314
G01 X28.0217 Y3.9001
G01 X28.0436 Y4.0999
G01 X27.9720 Y4.0396
G01 X27.7976 Y3.9001
G01 X27.8232 Y4.0999
G01 X27.6753 Y3.9814
G01 X27.5683 Y3.9001
G01 X27.5992 Y4.0999
G01 X27.5891 Y4.0918
G01 X27.3799 Y3.9326
G01 X27.3349 Y3.9001
G01 X27.3685 Y4.0999
G01 X27.2965 Y4.0451
G01 X27.0959 Y3.9001
G01 X27.1333 Y4.0999
G01 X27.0057 Y4.0076
G01 X26.8490 Y3.9001
G01 X26.8927 Y4.0999
G01 X26.7168 Y3.9792
G01 X26.5952 Y3.9001
G01 X26.6453 Y4.0999
G01 X26.4302 Y3.9597
G01 X26.3385 Y3.9032
G01 X26.1516 Y3.9525
G01 X26.3553 Y4.0780
G01 X26.3895 Y4.1002
G00 Z1.0000
G00 X26.2058 Y4.1503
G01 F50.00
G01 Z-0.0500
G01 F100.00
G01 X26.0742 Y4.0692
G01 X26.0187 Y4.0369
G01 X25.9138 Y4.1378
G01 X26.0022 Y4.1893
G01 X26.0904 Y4.2437
G01 X25.9887 Y4.3454
G01 X25.9302 Y4.3094
G01 X25.8114 Y4.2401
G00 Z1.0000
G00 X25.7091 Y4.3425
G01 F50.00
G01 Z-0.0500
G01 F100.00
G01 X25.8583 Y4.4295
G01 X25.8870 Y4.4471
G01 X25.7852 Y4.5489
G01 X25.6067 Y4.4449
G00 Z1.0000
G00 X25.5040 Y4.5476
G01 F50.00
G01 Z-0.0500
G01 F100.00
G01 X25.5199 Y4.5563
G01 X25.6828 Y4.6513
G01 X25.5805 Y4.7536
G01 X25.4509 Y4.6781
G01 X25.4009 Y4.6506
G00 Z1.0000
G00 X25.2979 Y4.7537
G01 F50.00
G01 Z-0.0500
G01 F100.00
G01 X25.3819 Y4.7999
G01 X25.4781 Y4.8560
G01 X25.3757 Y4.9584
G01 X25.3129 Y4.9217
G01 X25.1948 Y4.8568
G01 X25.0917 Y4.9598
G01 X25.2439 Y5.0436
G01 X25.2734 Y5.0607
G01 X25.1709 Y5.1632
G01 X24.9886 Y5.0630
G01 X24.8847 Y5.1668
G01 X24.9267 Y5.1886
G01 X25.0678 Y5.2663
G01 X24.9648 Y5.3693
G01 X24.8607 Y5.3121
G01 X24.7809 Y5.2706
G01 X24.6771 Y5.3745
G01 X24.7947 Y5.4355
G01 X24.8617 Y5.4724
G01 X24.7586 Y5.5755
G01 X24.7287 Y5.5590
G01 X24.5732 Y5.4783
G01 X24.4689 Y5.5827
G01 X24.4935 Y5.5946
G01 X24.6554 Y5.6787
G01 X24.5516 Y5.7825
G01 X24.4305 Y5.7197
G01 X24.3642 Y5.6873
G01 X24.2595 Y5.7920
G01 X24.3676 Y5.8448
G01 X24.4478 Y5.8863
G01 X24.3439 Y5.9902
G01 X24.3046 Y5.9698
G01 X24.1549 Y5.8967
G01 X24.0495 Y6.0020
G01 X24.0827 Y6.0172
G01 X24.2401 Y6.0941
G01 X24.1354 Y6.1987
G01 X24.0228 Y6.1438
G01 X23.9439 Y6.1077
G01 X23.8383 Y6.2133
G01 X23.9630 Y6.2704
G01 X24.0307 Y6.3034
G01 X23.9260 Y6.4081
G01 X23.9031 Y6.3969
G01 X23.7516 Y6.3275
G01 X23.7323 Y6.3193
G01 X23.6257 Y6.4259
G01 X23.6949 Y6.4555
G01 X23.8209 Y6.5132
G01 X23.7153 Y6.6188
G01 X23.6381 Y6.5835
G01 X23.5191 Y6.5325
G00 Z1.0000
G00 X23.4119 Y6.6396
G01 F50.00
G01 Z-0.0500
G01 F100.00
G01 X23.4377 Y6.6499
G01 X23.5814 Y6.7115
G01 X23.6097 Y6.7244
G01 X23.5036 Y6.8305
G01 X23.3841 Y6.7792
G01 X23.2421 Y6.7225
G01 X23.1819 Y6.7001
G01 X22.9486 Y6.9136
G01 X22.8664 Y6.8853
G01 X22.7272 Y6.8412
G01 X22.6174 Y6.8094
G01 X22.4524 Y6.9098
G01 X22.5496 Y6.9355
G01 X22.6866 Y6.9752
G01 X22.7193 Y6.9855
G00 Z1.0000
G00 X22.5570 Y7.0834
G01 F50.00
G01 Z-0.0500
G01 F100.00
G01 X22.5123 Y7.0704
G01 X22.3777 Y7.0349
G01 X22.3226 Y7.0218
G00 Z1.0000
G00 X22.2111 Y7.1393
G01 F50.00
G01 Z-0.0500
G01 F100.00
G01 X22.3437 Y7.1707
G01 X22.4351 Y7.1948
G00 Z1.0000
G00 X22.3424 Y7.3152
G01 F50.00
G01 Z-0.0500
G01 F100.00
G01 X22.3097 Y7.3065
G01 X22.1810 Y7.2760
G01 X22.0515 Y7.2486
G01 X21.9215 Y7.2244
G01 X21.7909 Y7.2033
G01 X21.7668 Y7.2001
G01 X22.0902 Y7.3999
G01 X22.0242 Y7.3859
G01 X21.8975 Y7.3623
G01 X21.7703 Y7.3418
G01 X21.6427 Y7.3245
G01 X21.5146 Y7.3103
G01 X21.3862 Y7.2992
G01 X21.2576 Y7.2913
G01 X21.1288 Y7.2866
G01 X21.0000 Y7.2850
G01 X20.8712 Y7.2866
G01 X20.7424 Y7.2913
G01 X20.6138 Y7.2992
G01 X20.4854 Y7.3103
G01 X20.3573 Y7.3245
G01 X20.2297 Y7.3418
G01 X20.1025 Y7.3623
G01 X19.9758 Y7.3859
G01 X19.9098 Y7.3999
G01 X20.2332 Y7.2001
G01 X20.2091 Y7.2033
G01 X20.0785 Y7.2244
G01 X19.9485 Y7.2486
G01 X19.8190 Y7.2760
G01 X19.6903 Y7.3065
G01 X19.5624 Y7.3402
G01 X19.4354 Y7.3771
G01 X19.3635 Y7.3999
G01 X19.5450 Y7.2001
G01 X19.5251 Y7.2053
G01 X19.3947 Y7.2431
G01 X19.2653 Y7.2841
G01 X19.1370 Y7.3283
G01 X19.0098 Y7.3756
G01 X18.9490 Y7.3999
G01 X19.0801 Y7.2001
G01 X18.9594 Y7.2449
G01 X18.8302 Y7.2966
G01 X18.7023 Y7.3514
G01 X18.5966 Y7.3999
G01 X18.7001 Y7.2001
G01 X18.6455 Y7.2234
G01 X18.5159 Y7.2828
G01 X18.3878 Y7.3454
G01 X18.2827 Y7.3999
G01 X18.3663 Y7.2001
G01 X18.3248 Y7.2203
G01 X18.1952 Y7.2876
G01 X18.0673 Y7.3580
G01 X17.9954 Y7.3999
G01 X18.0639 Y7.2001
G01 X17.9983 Y7.2362
G01 X17.8691 Y7.3114
G01 X17.7419 Y7.3898
G01 X17.7265 Y7.3999
G01 X17.7830 Y7.2001
G01 X17.6670 Y7.2716
G01 X17.5388 Y7.3549
G01 X17.4733 Y7.3999
G01 X17.5202 Y7.2001
G01 X17.4610 Y7.2385
G01 X17.3321 Y7.3270
G01 X17.2313 Y7.3999
G01 X17.2697 Y7.2001
G01 X17.2515 Y7.2125
G01 X17.1220 Y7.3061
G01 X16.9988 Y7.3999
G01 X17.0302 Y7.2001
G01 X16.9087 Y7.2925
G01 X16.7749 Y7.3999
G01 X16.8002 Y7.2001
G01 X16.6925 Y7.2863
G01 X16.5578 Y7.3999
G01 X16.5775 Y7.2001
G01 X16.4735 Y7.2875
G01 X16.3465 Y7.3999
G01 X16.3611 Y7.2001
G01 X16.2521 Y7.2965
G01 X16.1408 Y7.3999
G01 X16.1502 Y7.2001
G01 X16.0284 Y7.3132
G01 X15.9396 Y7.3999
G01 X15.7422 Y7.3999
G01 X15.8028 Y7.3378
G01 X15.9319 Y7.2118
G01 X15.9445 Y7.2001
G01 X15.7434 Y7.2001
G01 X15.7038 Y7.2388
G01 X15.5754 Y7.3703
G01 X15.5480 Y7.3999
G01 X15.3569 Y7.3999
G01 X15.4740 Y7.2738
G01 X15.5459 Y7.2001
G01 X15.3514 Y7.2001
G01 X15.2428 Y7.3170
G01 X15.1695 Y7.3999
G01 X14.9840 Y7.3999
G01 X15.0105 Y7.3684
G01 X15.1391 Y7.2230
G01 X15.1604 Y7.2001
G01 X14.9725 Y7.2001
G01 X14.9045 Y7.2770
G01 X14.8011 Y7.3999
G01 X14.6206 Y7.3999
G01 X14.6690 Y7.3393
G01 X14.7862 Y7.2001
G01 X14.6033 Y7.2001
G01 X14.5608 Y7.2505
G01 X14.4413 Y7.3999
G01 X14.2650 Y7.3999
G01 X14.3227 Y7.3240
G01 X14.4219 Y7.2001
G01 X14.2426 Y7.2001
G01 X14.2123 Y7.2379
G01 X14.0891 Y7.3999
G01 X13.9161 Y7.3999
G01 X13.9719 Y7.3226
G01 X14.0652 Y7.2001
G01 X13.8893 Y7.2001
G01 X13.8595 Y7.2392
G01 X13.7434 Y7.3999
G01 X13.5730 Y7.3999
G01 X13.6172 Y7.3355
G01 X13.7151 Y7.2001
G01 X13.5423 Y7.2001
G01 X13.5027 Y7.2548
G01 X13.4033 Y7.3999
G01 X13.2348 Y7.3999
G01 X13.2590 Y7.3626
G01 X13.3706 Y7.2001
G01 X13.2008 Y7.2001
G01 X13.1426 Y7.2849
G01 X13.0678 Y7.3999
G01 X12.9008 Y7.3999
G01 X13.0310 Y7.2001
G01 X12.8638 Y7.2001
G01 X12.7796 Y7.3295
G01 X12.7362 Y7.3999
G01 X12.5718 Y7.3999
G01 X12.6613 Y7.2546
G01 X12.6968 Y7.2001
G01 X12.5305 Y7.2001
G01 X12.4141 Y7.3888
G01 X12.4077 Y7.3999
G01 X12.2457 Y7.3999
G01 X12.2941 Y7.3169
G01 X12.3660 Y7.2001
G01 X12.2016 Y7.2001
G01 X12.1740 Y7.2449
G01 X12.0837 Y7.3999
G01 X11.9218 Y7.3999
G01 X12.0381 Y7.2001
G01 X11.8760 Y7.2001
G01 X11.8032 Y7.3251
G01 X11.7620 Y7.3999
G01 X11.6022 Y7.3999
G01 X11.6814 Y7.2561
G01 X11.7140 Y7.2001
G01 X11.5524 Y7.2001
G01 X11.4424 Y7.3999
G01 X11.2841 Y7.3999
G01 X11.3077 Y7.3544
G01 X11.3926 Y7.2001
G01 X11.2328 Y7.2001
G01 X11.1842 Y7.2884
G01 X11.1264 Y7.3999
G01 X10.9687 Y7.3998
G01 X11.0607 Y7.2224
G01 X11.0730 Y7.2001
G01 X10.9146 Y7.2001
G01 X10.8109 Y7.3998
G01 X10.6550 Y7.3998
G01 X10.6833 Y7.3420
G01 X10.7569 Y7.2001
G01 X10.5992 Y7.2001
G01 X10.5582 Y7.2790
G01 X10.4992 Y7.3998
G01 X10.3435 Y7.3998
G01 X10.4332 Y7.2161
G01 X10.4415 Y7.2001
G01 X10.2852 Y7.2001
G01 X10.1877 Y7.3998
G01 X10.0332 Y7.3998
G01 X10.0527 Y7.3573
G01 X10.1294 Y7.2001
G01 X9.9737 Y7.2001
G01 X9.9261 Y7.2975
G01 X9.8792 Y7.3998
G01 X9.7253 Y7.3998
G01 X9.7996 Y7.2376
G01 X9.8179 Y7.2001
G01 X9.6628 Y7.2001
G01 X9.5713 Y7.3998
G01 X9.4173 Y7.3998
G01 X9.5088 Y7.2001
G01 X9.3548 Y7.2001
G01 X9.2890 Y7.3439
G01 X9.2650 Y7.3998
G01 X9.1127 Y7.3998
G01 X9.1610 Y7.2871
G01 X9.2009 Y7.2001
G01 X9.0469 Y7.2001
G01 X9.0330 Y7.2304
G01 X8.9604 Y7.3998
G01 X8.8080 Y7.3998
G01 X8.8937 Y7.2001
G01 X8.7414 Y7.2001
G01 X8.6557 Y7.3998
G01 X8.5044 Y7.3998
G01 X8.5184 Y7.3649
G01 X8.5891 Y7.2001
G01 X8.4368 Y7.2001
G01 X8.3890 Y7.3114
G01 X8.3537 Y7.3998
G01 X8.2029 Y7.3998
G01 X8.2597 Y7.2578
G01 X8.2844 Y7.2001
G01 X8.1321 Y7.2001
G01 X8.0521 Y7.3998
G01 X7.9014 Y7.3998
G01 X7.9827 Y7.1965
G00 Z1.0000
G00 X7.8585 Y7.1300
G01 F50.00
G01 Z-0.0500
G01 F100.00
G01 X7.7778 Y7.3319
G01 X7.6701 Y7.2242
G01 X7.7423 Y7.0435
G01 X7.7512 Y7.0228
G01 X7.6446 Y6.9162
G01 X7.6130 Y6.9899
G01 X7.5624 Y7.1165
G01 X7.4547 Y7.0088
G01 X7.4836 Y6.9363
G01 X7.5380 Y6.8096
G01 X7.4314 Y6.7029
G01 X7.3543 Y6.8828
G01 X7.3470 Y6.9011
G01 X7.2400 Y6.7941
G01 X7.3248 Y6.5963
G01 X7.2182 Y6.4897
G01 X7.1334 Y6.6875
G01 X7.0268 Y6.5809
G01 X7.1116 Y6.3831
G01 X7.0059 Y6.2774
G01 X6.9852 Y6.3227
G01 X6.9202 Y6.4743
G01 X6.8136 Y6.3677
G01 X6.8572 Y6.2659
G01 X6.9003 Y6.1718
G01 X6.7947 Y6.0662
G01 X6.7292 Y6.2092
G01 X6.7070 Y6.2611
G01 X6.6003 Y6.1544
G01 X6.6891 Y5.9606
G01 X6.5835 Y5.8550
G01 X6.4947 Y6.0488
G01 X6.3891 Y5.9432
G01 X6.4779 Y5.7494
G01 X6.3722 Y5.6438
G01 X6.2835 Y5.8376
G01 X6.1779 Y5.7320
G01 X6.2559 Y5.5616
G01 X6.2671 Y5.5387
G00 Z1.0000
G00 X6.1624 Y5.4340
G01 F50.00
G01 Z-0.0500
G01 F100.00
G01 X6.1294 Y5.5017
G01 X6.0723 Y5.6264
G01 X5.9667 Y5.5208
G01 X6.0028 Y5.4419
G01 X6.0577 Y5.3293
G00 Z1.0000
G00 X5.9631 Y5.2040
G01 F50.00
G01 Z-0.0500
G01 F100.00
G01 X5.8763 Y5.3820
G01 X5.8611 Y5.4152
G01 X5.7557 Y5.3098
G01 X5.9313 Y4.9501
G01 X6.0643 Y4.6937
G00 Z1.0000
G00 X5.9210 Y4.6659
G01 F50.00
G01 Z-0.0500
G01 F100.00
G01 X5.8063 Y4.8871
G01 X5.6510 Y5.2051
G01 X5.5464 Y5.1005
G01 X5.6812 Y4.8242
G01 X5.7877 Y4.6189
G00 Z1.0000
G00 X5.6641 Y4.5532
G01 F50.00
G01 Z-0.0500
G01 F100.00
G01 X5.5562 Y4.7612
G01 X5.4417 Y4.9958
G01 X5.3370 Y4.8911
G01 X5.4311 Y4.6983
G01 X5.5501 Y4.4689
G00 Z1.0000
G00 X5.4464 Y4.3648
G01 F50.00
G01 Z-0.0500
G01 F100.00
G01 X5.3060 Y4.6353
G01 X5.2323 Y4.7864
G01 X5.1276 Y4.6817
G01 X5.1810 Y4.5724
G01 X5.3552 Y4.2365
G00 Z1.0000
G00 X5.2801 Y4.0798
G01 F50.00
G01 Z-0.0500
G01 F100.00
G01 X5.2577 Y4.1206
G01 X5.0559 Y4.5094
G01 X5.0229 Y4.5770
G01 X4.9183 Y4.4724
G01 X4.9309 Y4.4465
G01 X5.1342 Y4.0546
G01 X5.2300 Y3.8806
G00 Z1.0000
G00 X5.2357 Y3.5809
G01 F50.00
G01 Z-0.0500
G01 F100.00
G01 X5.2253 Y3.5988
G01 X5.0108 Y3.9886
G01 X4.8139 Y4.3680
G01 X4.7101 Y4.2642
G01 X4.8873 Y3.9226
G01 X5.1035 Y3.5298
G01 X5.3293 Y3.1423
G01 X5.5531 Y2.7792
G01 X5.5757 Y3.0093
G01 X5.6828 Y2.8355
G01 X5.7971 Y2.6598
G01 X5.9950 Y2.6123
G01 X5.8319 Y2.8631
G00 Z1.0000
G00 X6.0328 Y2.8110
G01 F50.00
G01 Z-0.0500
G01 F100.00
G01 X6.1583 Y2.6181
G01 X6.1706 Y2.6001
G01 X6.3335 Y2.6101
G01 X6.2747 Y2.6959
G01 X6.2059 Y2.8016
G00 Z1.0000
G00 X6.1651 Y2.8001
G01 F50.00
G01 Z-0.0500
G01 F100.00
G01 X6.1749 Y2.8001
G01 X6.2631 Y2.8046
G01 X6.3553 Y2.8183
G01 X6.4458 Y2.8409
G01 X6.5335 Y2.8723
G01 X6.6178 Y2.9122
G01 X6.6978 Y2.9601
G01 X6.7727 Y3.0156
G01 X6.8418 Y3.0782
G01 X6.9044 Y3.1473
G01 X6.9599 Y3.2222
G01 X7.0078 Y3.3022
G01 X7.0477 Y3.3865
G01 X7.0791 Y3.4742
G01 X7.1017 Y3.5647
G01 X7.1154 Y3.6569
G01 X7.1200 Y3.7500
G01 X7.1154 Y3.8431
G01 X7.1017 Y3.9353
G01 X7.0791 Y4.0258
G01 X7.0477 Y4.1135
G01 X7.0078 Y4.1978
G01 X6.9599 Y4.2778
G01 X6.9044 Y4.3527
G01 X6.8418 Y4.4218
G01 X6.7727 Y4.4844
G01 X6.6978 Y4.5399
G01 X6.6178 Y4.5878
G01 X6.5335 Y4.6277
G01 X6.4458 Y4.6591
G01 X6.3553 Y4.6817
G01 X6.2631 Y4.6954
G01 X6.1700 Y4.7000
G01 X6.0769 Y4.6954
G01 X5.9847 Y4.6817
G01 X5.8942 Y4.6591
G01 X5.8065 Y4.6277
G01 X5.7222 Y4.5878
G01 X5.6422 Y4.5399
G01 X5.5673 Y4.4844
G01 X5.4982 Y4.4218
G01 X5.4356 Y4.3527
G01 X5.3801 Y4.2778
G01 X5.3322 Y4.1978
G01 X5.2923 Y4.1135
G01 X5.2609 Y4.0258
G01 X5.2383 Y3.9353
G01 X5.2246 Y3.8431
G01 X5.2200 Y3.7500
G01 X5.2246 Y3.6569
G01 X5.2383 Y3.5647
G01 X5.2609 Y3.4742
G01 X5.2923 Y3.3865
G01 X5.3322 Y3.3022
G01 X5.3801 Y3.2222
G01 X5.4356 Y3.1473
G01 X5.4982 Y3.0782
G01 X5.5673 Y3.0156
G01 X5.6422 Y2.9601
G01 X5.7222 Y2.9122
G01 X5.8065 Y2.8723
G01 X5.8942 Y2.8409
G01 X5.9847 Y2.8183
G01 X6.0769 Y2.8046
G01 X6.1651 Y2.8001
G00 Z1.0000
G00 X6.3612 Y2.8196
G01 F50.00
G01 Z-0.0500
G01 F100.00
G01 X6.3911 Y2.7736
G01 X6.4829 Y2.6398
G01 X6.6177 Y2.6908
G01 X6.5075 Y2.8514
G01 X6.5014 Y2.8607
G00 Z1.0000
G00 X6.6305 Y2.9196
G01 F50.00
G01 Z-0.0500
G01 F100.00
G01 X6.7457 Y2.7517
G01 X6.8621 Y2.8294
G01 X6.7473 Y2.9967
G00 Z1.0000
G00 X6.8530 Y3.0905
G01 F50.00
G01 Z-0.0500
G01 F100.00
G01 X6.9683 Y2.9221
G01 X7.0680 Y3.0242
G01 X6.9731 Y3.1625
G01 X6.9463 Y3.2037
G00 Z1.0000
G00 X7.0253 Y3.3389
G01 F50.00
G01 Z-0.0500
G01 F100.00
G01 X7.0895 Y3.2403
G01 X7.1518 Y3.1495
G01 X7.2245 Y3.2910
G01 X7.2059 Y3.3181
G01 X7.0862 Y3.5021
G00 Z1.0000
G00 X7.1181 Y3.7097
G01 F50.00
G01 Z-0.0500
G01 F100.00
G01 X7.3149 Y3.4073
G00 Z1.0000
G00 X7.4591 Y3.4440
G01 F50.00
G01 Z-0.0500
G01 F100.00
G01 X7.4387 Y3.4737
G01 X7.2204 Y3.8092
G01 X7.0685 Y4.0558
G00 Z1.0000
G00 X7.3950 Y4.0597
G01 F50.00
G01 Z-0.0500
G01 F100.00
G01 X7.4570 Y3.9590
G01 X7.6715 Y3.6292
G01 X7.8257 Y3.4044
G00 Z1.0000
G00 X7.7600 Y3.7499
G01 F50.00
G01 Z-0.0500
G01 F100.00
G01 X7.5753 Y4.0339
G01 X7.5460 Y4.0814
G00 Z1.0000
G00 X7.6457 Y4.1864
G01 F50.00
G01 Z-0.0500
G01 F100.00
G01 X7.6936 Y4.1088
G01 X7.7860 Y3.9667
G00 Z1.0000
G00 X7.8428 Y4.1361
G01 F50.00
G01 Z-0.0500
G01 F100.00
G01 X7.8118 Y4.1837
G01 X7.7182 Y4.3356
G01 X7.8038 Y4.4636
G01 X7.9192 Y4.2764
G00 Z1.0000
G00 X8.0118 Y4.3928
G01 F50.00
G01 Z-0.0500
G01 F100.00
G01 X7.9031 Y4.5693
G01 X8.0088 Y4.6645
G01 X8.1159 Y4.4908
G00 Z1.0000
G00 X8.2317 Y4.5697
G01 F50.00
G01 Z-0.0500
G01 F100.00
G01 X8.1253 Y4.7423
G01 X8.2513 Y4.8047
G01 X8.3578 Y4.6319
G00 Z1.0000
G00 X8.4959 Y4.6747
G01 F50.00
G01 Z-0.0500
G01 F100.00
G01 X8.3833 Y4.8575
G01 X8.5297 Y4.8866
G01 X8.6398 Y4.7080
G01 X8.6469 Y4.6970
G00 Z1.0000
G00 X8.8161 Y4.6936
G01 F50.00
G01 Z-0.0500
G01 F100.00
G01 X8.7581 Y4.7829
G01 X8.6859 Y4.8999
G01 X8.8542 Y4.8938
G01 X8.8764 Y4.8578
G01 X9.0115 Y4.6500
G01 X9.0446 Y4.8559
G01 X9.1848 Y4.6403
G01 X9.2700 Y4.5161
G01 X9.2784 Y4.7532
G01 X9.3012 Y4.7181
G01 X9.4966 Y4.4334
G01 X9.6989 Y4.1535
G01 X9.9080 Y3.8787
G01 X10.1237 Y3.6091
G01 X10.3000 Y3.3996
G00 Z1.0000
G00 X10.3000 Y3.1856
G01 F50.00
G01 Z-0.0500
G01 F100.00
G01 X10.2401 Y3.2534
G01 X10.0155 Y3.5203
G01 X9.7976 Y3.7926
G01 X9.6183 Y4.0282
G00 Z1.0000
G00 X9.6598 Y3.7425
G01 F50.00
G01 Z-0.0500
G01 F100.00
G01 X9.6872 Y3.7064
G01 X9.9073 Y3.4315
G01 X10.1341 Y3.1620
G01 X10.3000 Y2.9743
G00 Z1.0000
G00 X10.4585 Y2.8000
G01 F50.00
G01 Z-0.0500
G01 F100.00
G01 X10.6071 Y2.6401
G01 X10.7526 Y2.4909
G01 X10.8959 Y2.5445
G01 X10.7084 Y2.7366
G01 X10.6496 Y2.8000
G00 Z1.0000
G00 X10.8422 Y2.8000
G01 F50.00
G01 Z-0.0500
G01 F100.00
G01 X10.8959 Y2.7449
G01 X10.5581 Y2.4899
G01 X10.5057 Y2.5436
G01 X10.2636 Y2.8041
G01 X10.0280 Y3.0705
G01 X9.7991 Y3.3426
G01 X9.6370 Y3.5452
G00 Z1.0000
G00 X9.5866 Y3.3840
G01 F50.00
G01 Z-0.0500
G01 F100.00
G01 X9.6909 Y3.2538
G01 X9.8441 Y3.0717
G00 Z1.0000
G00 X9.6682 Y3.0634
G01 F50.00
G01 Z-0.0500
G01 F100.00
G01 X9.5826 Y3.1650
G01 X9.5158 Y3.2485
G00 Z1.0000
G00 X9.4302 Y3.1315
G01 F50.00
G01 Z-0.0500
G01 F100.00
G01 X9.4744 Y3.0762
G01 X9.5603 Y2.9741
G00 Z1.0000
G00 X9.4610 Y2.8747
G01 F50.00
G01 Z-0.0500
G01 F100.00
G01 X9.3662 Y2.9874
G01 X9.3307 Y3.0318
G00 Z1.0000
G00 X9.2182 Y2.9482
G01 F50.00
G01 Z-0.0500
G01 F100.00
G01 X9.2580 Y2.8986
G01 X9.3471 Y2.7927
G01 X9.2261 Y2.7191
G01 X9.1497 Y2.8098
G01 X9.0926 Y2.8812
G00 Z1.0000
G00 X8.9523 Y2.8324
G01 F50.00
G01 Z-0.0500
G01 F100.00
G01 X9.0415 Y2.7209
G01 X9.0904 Y2.6629
G01 X8.9406 Y2.6234
G01 X8.9333 Y2.6321
G01 X8.7957 Y2.8041
G00 Z1.0000
G00 X8.7051 Y2.8001
G01 F50.00
G01 Z-0.0500
G01 F100.00
G01 X8.7149 Y2.8001
G01 X8.8031 Y2.8046
G01 X8.8953 Y2.8183
G01 X8.9858 Y2.8409
G01 X9.0735 Y2.8723
G01 X9.1578 Y2.9122
G01 X9.2378 Y2.9601
G01 X9.3127 Y3.0156
G01 X9.3818 Y3.0782
G01 X9.4444 Y3.1473
G01 X9.4999 Y3.2222
G01 X9.5478 Y3.3022
G01 X9.5877 Y3.3865
G01 X9.6191 Y3.4742
G01 X9.6417 Y3.5647
G01 X9.6554 Y3.6569
G01 X9.6600 Y3.7500
G01 X9.6554 Y3.8431
G01 X9.6417 Y3.9353
G01 X9.6191 Y4.0258
G01 X9.5877 Y4.1135
G01 X9.5478 Y4.1978
G01 X9.4999 Y4.2778
G01 X9.4444 Y4.3527
G01 X9.3818 Y4.4218
G01 X9.3127 Y4.4844
G01 X9.2378 Y4.5399
G01 X9.1578 Y4.5878
G01 X9.0735 Y4.6277
G01 X8.9858 Y4.6591
G01 X8.8953 Y4.6817
G01 X8.8031 Y4.6954
G01 X8.7100 Y4.7000
G01 X8.6169 Y4.6954
G01 X8.5247 Y4.6817
G01 X8.4342 Y4.6591
G01 X8.3465 Y4.6277
G01 X8.2622 Y4.5878
G01 X8.1822 Y4.5399
G01 X8.1073 Y4.4844
G01 X8.0382 Y4.4218
G01 X7.9756 Y4.3527
G01 X7.9201 Y4.2778
G01 X7.8722 Y4.1978
G01 X7.8323 Y4.1135
G01 X7.8009 Y4.0258
G01 X7.7783 Y3.9353
G01 X7.7646 Y3.8431
G01 X7.7600 Y3.7500
G01 X7.7646 Y3.6569
G01 X7.7783 Y3.5647
G01 X7.8009 Y3.4742
G01 X7.8323 Y3.3865
G01 X7.8722 Y3.3022
G01 X7.9201 Y3.2222
G01 X7.9756 Y3.1473
G01 X8.0382 Y3.0782
G01 X8.1073 Y3.0156
G01 X8.1822 Y2.9601
G01 X8.2622 Y2.9122
G01 X8.3465 Y2.8723
G01 X8.4342 Y2.8409
G01 X8.5247 Y2.8183
G01 X8.6169 Y2.8046
G01 X8.7051 Y2.8001
G00 Z1.0000
G00 X8.6159 Y2.8047
G01 F50.00
G01 Z-0.0500
G01 F100.00
G01 X8.7797 Y2.6001
G01 X8.6004 Y2.6001
G01 X8.4732 Y2.7590
G01 X8.4022 Y2.8522
G01 X8.3878 Y2.6416
G01 X8.3628 Y2.6728
G01 X8.1246 Y2.9859
G01 X8.0955 Y3.0262
G01 X8.1193 Y2.7617
G01 X8.0121 Y2.9025
G01 X7.7797 Y3.2242
G01 X7.5551 Y3.5514
G01 X7.3387 Y3.8841
G01 X7.1305 Y4.2220
G01 X6.9307 Y4.5648
G01 X6.8785 Y4.6596
G01 X6.8703 Y4.3904
G01 X6.8089 Y4.4958
G01 X6.6419 Y4.7992
G01 X6.5915 Y4.6004
G01 X6.4924 Y4.7805
G01 X6.4474 Y4.8673
G01 X6.2727 Y4.8999
G01 X6.3689 Y4.7145
G01 X6.3919 Y4.6727
G00 Z1.0000
G00 X6.2200 Y4.6977
G01 F50.00
G01 Z-0.0500
G01 F100.00
G01 X6.1098 Y4.9100
G00 Z1.0000
G00 X5.1947 Y5.8806
G01 F50.00
G01 Z-0.0500
G01 F100.00
G01 X5.1555 Y5.9720
G01 X5.1121 Y6.0805
G00 Z1.0000
G00 X5.0044 Y5.9728
G01 F50.00
G01 Z-0.0500
G01 F100.00
G01 X5.0261 Y5.9184
G01 X5.0880 Y5.7739
G00 Z1.0000
G00 X4.9814 Y5.6673
G01 F50.00
G01 Z-0.0500
G01 F100.00
G01 X4.8967 Y5.8651
G00 Z1.0000
G00 X4.7901 Y5.7585
G01 F50.00
G01 Z-0.0500
G01 F100.00
G01 X4.8748 Y5.5607
G00 Z1.0000
G00 X4.7682 Y5.4541
G01 F50.00
G01 Z-0.0500
G01 F100.00
G01 X4.6834 Y5.6519
G00 Z1.0000
G00 X4.5739 Y5.5521
G01 F50.00
G01 Z-0.0500
G01 F100.00
G01 X4.6616 Y5.3475
G00 Z1.0000
G00 X4.5551 Y5.2410
G01 F50.00
G01 Z-0.0500
G01 F100.00
G01 X4.4351 Y5.5206
G01 X4.4495 Y5.1354
G01 X4.4254 Y5.1880
G01 X4.2501 Y5.5970
G01 X4.0848 Y6.0101
G01 X4.0302 Y6.1572
G01 X4.2299 Y6.0243
G01 X4.2155 Y6.0605
G01 X4.0616 Y6.4744
G01 X4.0302 Y6.5658
G01 X4.2299 Y6.4233
G01 X4.1934 Y6.5215
G01 X4.0509 Y6.9358
G01 X4.0302 Y7.0014
G01 X4.2299 Y6.8458
G01 X4.1839 Y6.9797
G01 X4.0526 Y7.3941
G01 X4.0302 Y7.4714
G01 X4.2299 Y7.2978
G01 X4.1866 Y7.4347
G01 X4.0665 Y7.8489
G01 X4.0302 Y7.9866
G01 X4.2299 Y7.7877
G01 X4.2014 Y7.8862
G01 X4.0924 Y8.2999
G01 X4.0302 Y8.5618
G01 X4.2299 Y8.3271
G01 X4.1301 Y8.7467
G01 X4.0422 Y9.1619
G01 X4.0302 Y9.2267
G01 X4.2299 Y8.9511
G01 X4.1795 Y9.1892
G01 X4.1025 Y9.6030
G01 X4.0356 Y10.0186
G01 X4.0302 Y10.0589
G01 X4.2299 Y9.6921
G01 X4.1741 Y10.0391
G01 X4.1179 Y10.4528
G01 X4.0719 Y10.8677
G01 X4.0361 Y11.2837
G01 X4.0301 Y11.3803
G01 X4.2299 Y10.7128
G01 X4.2112 Y10.8815
G01 X4.1757 Y11.2940
G01 X4.1503 Y11.7072
G01 X4.1351 Y12.1210
G01 X4.1300 Y12.5350
G01 X4.1351 Y12.9490
G01 X4.1503 Y13.3628
G01 X4.1562 Y13.4583
G00 Z1.0000
G00 X4.0260 Y13.6224
G01 F50.00
G01 Z-0.0500
G01 F100.00
G01 X4.0105 Y13.3696
G01 X4.0079 Y13.3004
G00 Z1.0000
G00 X3.8775 Y13.4884
G01 F50.00
G01 Z-0.0500
G01 F100.00
G01 X3.8939 Y13.7546
G00 Z1.0000
G00 X3.7636 Y13.8849
G01 F50.00
G01 Z-0.0500
G01 F100.00
G01 X3.7568 Y13.8069
G01 X3.7454 Y13.6205
G00 Z1.0000
G00 X3.6133 Y13.7526
G01 F50.00
G01 Z-0.0500
G01 F100.00
G01 X3.6172 Y13.8172
G01 X3.6342 Y14.0142
G00 Z1.0000
G00 X3.5048 Y14.1436
G01 F50.00
G01 Z-0.0500
G01 F100.00
G01 X3.4824 Y13.8835
G00 Z1.0000
G00 X3.3531 Y14.0128
G01 F50.00
G01 Z-0.0500
G01 F100.00
G01 X3.3755 Y14.2729
G00 Z1.0000
G00 X3.2487 Y14.3997
G01 F50.00
G01 Z-0.0500
G01 F100.00
G01 X3.2360 Y14.2846
G01 X3.2237 Y14.1422
G00 Z1.0000
G00 X3.0943 Y14.2716
G01 F50.00
G01 Z-0.0500
G01 F100.00
G01 X3.0966 Y14.2983
G01 X3.1219 Y14.5265
G01 X2.9951 Y14.6533
G01 X2.9669 Y14.3990
G00 Z1.0000
G00 X2.8402 Y14.5257
G01 F50.00
G01 Z-0.0500
G01 F100.00
G01 X2.8685 Y14.7799
G01 X2.7134 Y14.6525
G01 X2.7285 Y14.7886
G01 X2.7893 Y15.2363
G01 X2.7915 Y15.2505
G01 X2.5368 Y15.4299
G01 X2.5852 Y15.7303
G01 X2.5888 Y15.7497
G01 X2.4714 Y15.8841
G01 X2.4472 Y15.7542
G01 X2.4271 Y15.6289
G00 Z1.0000
G00 X2.3069 Y15.7633
G01 F50.00
G01 Z-0.0500
G01 F100.00
G01 X2.3093 Y15.7781
G01 X2.3486 Y15.9895
G01 X2.2220 Y16.0741
G01 X2.1820 Y15.8593
G00 Z1.0000
G00 X2.0524 Y15.9279
G01 F50.00
G01 Z-0.0500
G01 F100.00
G01 X2.0898 Y16.1291
G01 X1.9552 Y16.1707
G01 X1.9182 Y15.9722
G00 Z1.0000
G00 X1.7803 Y15.9962
G01 F50.00
G01 Z-0.0500
G01 F100.00
G01 X1.8179 Y16.1980
G01 X1.6758 Y16.1999
G01 X1.6381 Y15.9971
G00 Z1.0000
G00 X1.4915 Y15.9746
G01 F50.00
G01 Z-0.0500
G01 F100.00
G01 X1.5312 Y16.1879
G01 X1.3833 Y16.1585
G01 X1.3437 Y15.9457
G01 X1.3403 Y15.9244
G00 Z1.0000
G00 X1.1844 Y15.8369
G01 F50.00
G01 Z-0.0500
G01 F100.00
G01 X1.2058 Y15.9696
G01 X1.2292 Y16.0956
G01 X1.0693 Y16.0015
G01 X1.0185 Y15.6868
G01 X0.9046 Y15.8601
G01 X0.8505 Y15.5239
G01 X0.8122 Y15.2418
G00 Z1.0000
G00 X0.8038 Y15.1805
G01 F50.00
G01 Z-0.0500
G01 F100.00
G01 X0.7832 Y15.0285
G01 X0.7293 Y14.5427
G00 Z1.0000
G00 X0.5928 Y14.5815
G01 F50.00
G01 Z-0.0500
G01 F100.00
G01 X0.6442 Y15.0456
G01 X0.7120 Y15.5444
G01 X0.7302 Y15.6579
G00 Z1.0000
G00 X0.5822 Y15.6191
G01 F50.00
G01 Z-0.0500
G01 F100.00
G01 X0.5735 Y15.5650
G01 X0.5053 Y15.0628
G01 X0.4494 Y14.5591
G01 X0.4460 Y14.5196
G01 X0.1750 Y14.6249
G01 X0.2274 Y15.0971
G01 X0.2965 Y15.6061
G01 X0.3749 Y16.0933
G01 X0.1750 Y15.7322
G01 X0.2402 Y16.1372
G01 X0.3349 Y16.6456
G01 X0.3749 Y16.8349
G01 X0.1750 Y16.5520
G01 X0.1975 Y16.6729
G01 X0.3054 Y17.1821
G01 X0.3749 Y17.4751
G01 X0.1750 Y17.2392
G01 X0.2898 Y17.7226
G01 X0.3749 Y18.0455
G01 X0.1750 Y17.8364
G01 X0.2885 Y18.2667
G01 X0.3749 Y18.5649
G01 X0.1750 Y18.3782
G01 X0.3014 Y18.8139
G01 X0.3749 Y19.0460
G01 X0.1750 Y18.8786
G01 X0.3288 Y19.3639
G01 X0.3749 Y19.4980
G01 X0.1750 Y19.3421
G01 X0.1958 Y19.4078
G01 X0.3708 Y19.9163
G01 X0.3749 Y19.9275
G01 X0.1750 Y19.7776
G01 X0.2390 Y19.9634
G01 X0.3749 Y20.3293
G01 X0.1750 Y20.1933
G01 X0.2969 Y20.5211
G01 X0.3749 Y20.7162
G01 X0.1750 Y20.5934
G01 X0.3698 Y21.0803
G01 X0.3749 Y21.0924
G01 X0.1750 Y20.9704
G01 X0.2404 Y21.1339
G01 X0.3749 Y21.4477
G01 X0.1750 Y21.3367
G01 X0.3297 Y21.6975
G01 X0.3749 Y21.7962
G01 X0.1750 Y21.6920
G01 X0.2017 Y21.7542
G01 X0.3749 Y22.1324
G01 X0.1750 Y22.0321
G01 X0.3077 Y22.3217
G01 X0.3749 Y22.4595
G01 X0.1750 Y22.3683
G01 X0.1811 Y22.3816
G01 X0.3749 Y22.7787
G01 X0.1750 Y22.6883
G01 X0.3040 Y22.9525
G01 X0.3749 Y23.0892
G01 X0.1750 Y23.0074
G01 X0.3749 Y23.3932
G01 X0.1750 Y23.3119
G01 X0.3189 Y23.5893
G01 X0.3749 Y23.6910
G01 X0.1750 Y23.6159
G01 X0.1955 Y23.6553
G01 X0.3749 Y23.9813
G01 X0.1750 Y23.9084
G01 X0.3528 Y24.2315
G01 X0.3749 Y24.2694
G01 X0.1750 Y24.1988
G01 X0.2310 Y24.3005
G01 X0.5260 Y24.8066
G01 X0.5373 Y24.8250
G01 X0.3747 Y24.8250
G01 X0.1750 Y24.4824
G01 X0.1750 Y24.7604
G01 X0.2126 Y24.8250
G01 X0.5817 Y24.6241
G01 X0.6461 Y24.7347
G01 X0.7017 Y24.8250
G01 X0.8662 Y24.8250
G01 X0.7662 Y24.6627
G01 X0.7443 Y24.6251
G01 X0.9074 Y24.6251
G01 X1.0306 Y24.8250
G01 X1.1950 Y24.8250
G01 X1.0719 Y24.6251
G01 X1.2363 Y24.6251
G01 X1.3595 Y24.8250
G01 X1.5239 Y24.8250
G01 X1.4007 Y24.6251
G01 X1.5652 Y24.6251
G01 X1.6613 Y24.7811
G01 X1.6898 Y24.8250
G01 X1.8568 Y24.8250
G01 X1.7796 Y24.7062
G01 X1.7296 Y24.6251
G01 X1.8940 Y24.6251
G01 X2.0239 Y24.8250
G01 X2.1909 Y24.8250
G01 X2.0608 Y24.6251
G01 X2.2278 Y24.6251
G01 X2.3579 Y24.8250
G01 X2.5249 Y24.8250
G01 X2.3948 Y24.6251
G01 X2.5618 Y24.6251
G01 X2.6661 Y24.7853
G01 X2.6933 Y24.8250
G01 X2.8631 Y24.8250
G01 X2.7825 Y24.7075
G01 X2.7288 Y24.6251
G01 X2.8958 Y24.6251
G01 X3.0328 Y24.8250
G01 X3.2026 Y24.8250
G01 X3.0654 Y24.6251
G01 X3.2352 Y24.6251
G01 X3.3724 Y24.8250
G01 X3.5421 Y24.8250
G01 X3.4050 Y24.6251
G01 X3.5748 Y24.6251
G01 X3.6590 Y24.7479
G01 X3.7147 Y24.8250
G01 X3.8875 Y24.8250
G01 X3.7735 Y24.6673
G01 X3.7445 Y24.6251
G01 X3.9157 Y24.6251
G01 X4.0602 Y24.8250
G01 X4.2329 Y24.8250
G01 X4.0884 Y24.6251
G01 X4.2612 Y24.6251
G01 X4.4056 Y24.8250
G01 X4.5811 Y24.8250
G01 X4.5262 Y24.7528
G01 X4.4288 Y24.6180
G00 Z1.0000
G00 X4.5475 Y24.5433
G01 F50.00
G01 Z-0.0500
G01 F100.00
G01 X4.6387 Y24.6694
G01 X4.7570 Y24.8250
G01 X4.9329 Y24.8250
G01 X4.7511 Y24.5860
G01 X4.6001 Y24.3770
G01 X4.6001 Y24.1380
G01 X4.8636 Y24.5026
G01 X5.1088 Y24.8250
G01 X5.2854 Y24.8250
G01 X5.2725 Y24.8089
G01 X4.9760 Y24.4192
G01 X4.6892 Y24.0224
G01 X4.6001 Y23.8925
G01 X4.6001 Y23.6450
G01 X4.8036 Y23.9418
G01 X5.0885 Y24.3358
G01 X5.3829 Y24.7227
G01 X5.4647 Y24.8250
G01 X5.6440 Y24.8250
G01 X5.4932 Y24.6366
G01 X5.2009 Y24.2524
G01 X4.9181 Y23.8611
G01 X4.6586 Y23.4829
G01 X4.7594 Y23.3822
G01 X5.0326 Y23.7805
G01 X5.3134 Y24.1690
G01 X5.6036 Y24.5505
G01 X5.8233 Y24.8250
G01 X6.0026 Y24.8250
G01 X5.7140 Y24.4643
G01 X5.4258 Y24.0856
G01 X5.1470 Y23.6999
G01 X4.8778 Y23.3075
G01 X4.8605 Y23.2810
G01 X4.9617 Y23.1798
G01 X4.9942 Y23.2297
G01 X5.2615 Y23.6193
G01 X5.5383 Y24.0022
G01 X5.8243 Y24.3782
G01 X6.1195 Y24.7471
G01 X6.1851 Y24.8250
G01 X6.3680 Y24.8250
G01 X6.2278 Y24.6583
G01 X5.9347 Y24.2921
G01 X5.6507 Y23.9188
G01 X5.3760 Y23.5387
G01 X5.1106 Y23.1519
G01 X5.0629 Y23.0786
G01 X5.1641 Y22.9774
G01 X5.2270 Y23.0742
G01 X5.4904 Y23.4581
G01 X5.7632 Y23.8354
G01 X6.0451 Y24.2059
G01 X6.3360 Y24.5694
G01 X6.5510 Y24.8250
G01 X6.7339 Y24.8250
G01 X6.4442 Y24.4806
G01 X6.1554 Y24.1198
G01 X5.8756 Y23.7520
G01 X5.6049 Y23.3775
G01 X5.3434 Y22.9964
G01 X5.2653 Y22.8762
G01 X5.3664 Y22.7751
G01 X5.4598 Y22.9186
G01 X5.7193 Y23.2969
G01 X5.9881 Y23.6686
G01 X6.2658 Y24.0337
G01 X6.5524 Y24.3918
G01 X6.8478 Y24.7428
G01 X6.9204 Y24.8250
G01 X7.1073 Y24.8250
G01 X6.9538 Y24.6514
G01 X6.6607 Y24.3030
G01 X6.3762 Y23.9475
G01 X6.1005 Y23.5852
G01 X5.8338 Y23.2162
G01 X5.5762 Y22.8408
G01 X5.4676 Y22.6739
G01 X5.5688 Y22.5727
G01 X5.6926 Y22.7630
G01 X5.9483 Y23.1356
G01 X6.2129 Y23.5018
G01 X6.4865 Y23.8614
G01 X6.7689 Y24.2142
G01 X7.0598 Y24.5599
G01 X7.2942 Y24.8250
G01 X7.4819 Y24.8250
G01 X7.4628 Y24.8044
G01 X7.1658 Y24.4685
G01 X6.8771 Y24.1254
G01 X6.5969 Y23.7753
G01 X6.3254 Y23.4184
G01 X6.0627 Y23.0550
G01 X5.8091 Y22.6853
G01 X5.6700 Y22.4715
G01 X5.7712 Y22.3703
G01 X5.9255 Y22.6075
G01 X6.1772 Y22.9744
G01 X6.4378 Y23.3350
G01 X6.7073 Y23.6891
G01 X6.9853 Y24.0366
G01 X7.2718 Y24.3770
G01 X7.5666 Y24.7104
G01 X7.6730 Y24.8250
G01 X7.8641 Y24.8250
G01 X7.6703 Y24.6163
G01 X7.3778 Y24.2856
G01 X7.0935 Y23.9477
G01 X6.8176 Y23.6030
G01 X6.5503 Y23.2516
G01 X6.2916 Y22.8938
G01 X6.0419 Y22.5297
G01 X5.8724 Y22.2692
G01 X5.9735 Y22.1680
G01 X6.1583 Y22.4519
G01 X6.4061 Y22.8132
G01 X6.6627 Y23.1682
G01 X6.9280 Y23.5169
G01 X7.2018 Y23.8589
G01 X7.4838 Y24.1941
G01 X7.7740 Y24.5223
G01 X8.0552 Y24.8250
G01 X8.2499 Y24.8250
G01 X8.1736 Y24.7468
G01 X7.8778 Y24.4283
G01 X7.5898 Y24.1027
G01 X7.3100 Y23.7701
G01 X7.0384 Y23.4308
G01 X6.7752 Y23.0848
G01 X6.5206 Y22.7326
G01 X6.2747 Y22.3741
G01 X6.0747 Y22.0668
G01 X6.1759 Y21.9656
G01 X6.3911 Y22.2964
G01 X6.6350 Y22.6520
G01 X6.8876 Y23.0014
G01 X7.1488 Y23.3446
G01 X7.4182 Y23.6813
G01 X7.6958 Y24.0112
G01 X7.9815 Y24.3343
G01 X8.2750 Y24.6502
G01 X8.4455 Y24.8250
G01 X8.6411 Y24.8250
G01 X8.3764 Y24.5537
G01 X8.0852 Y24.2403
G01 X7.8018 Y23.9198
G01 X7.5264 Y23.5925
G01 X7.2591 Y23.2585
G01 X7.0001 Y22.9180
G01 X6.7495 Y22.5713
G01 X6.5075 Y22.2186
G01 X6.2771 Y21.8644
G01 X6.3787 Y21.7628
G01 X6.3925 Y21.7851
G01 X6.6239 Y22.1408
G01 X6.8640 Y22.4907
G01 X7.1125 Y22.8346
G01 X7.3695 Y23.1724
G01 X7.6346 Y23.5037
G01 X7.9079 Y23.8284
G01 X8.1890 Y24.1463
G01 X8.4778 Y24.4572
G01 X8.7741 Y24.7609
G01 X8.8398 Y24.8250
G01 X9.0403 Y24.8250
G01 X8.8731 Y24.6619
G01 X8.5792 Y24.3606
G01 X8.2927 Y24.0522
G01 X8.0139 Y23.7369
G01 X7.7429 Y23.4148
G01 X7.4799 Y23.0862
G01 X7.2250 Y22.7512
G01 X6.9784 Y22.4101
G01 X6.7403 Y22.0630
G01 X6.5108 Y21.7102
G01 X6.4805 Y21.6610
G01 X6.6073 Y21.6001
G01 X6.6290 Y21.6353
G01 X6.8567 Y21.9853
G01 X7.0929 Y22.3295
G01 X7.3374 Y22.6678
G01 X7.5902 Y23.0001
G01 X7.8511 Y23.3260
G01 X8.1199 Y23.6455
G01 X8.3964 Y23.9582
G01 X8.6806 Y24.2641
G01 X8.9721 Y24.5629
G01 X9.2407 Y24.8250
G01 X9.4449 Y24.8250
G01 X9.3675 Y24.7530
G01 X9.0711 Y24.4639
G01 X8.7820 Y24.1676
G01 X8.5002 Y23.8642
G01 X8.2259 Y23.5540
G01 X7.9593 Y23.2372
G01 X7.7006 Y22.9140
G01 X7.4499 Y22.5844
G01 X7.2073 Y22.2489
G01 X6.9731 Y21.9075
G01 X6.7731 Y21.6001
G01 X6.9401 Y21.6001
G01 X7.0895 Y21.8297
G01 X7.3218 Y22.1683
G01 X7.5623 Y22.5011
G01 X7.8110 Y22.8278
G01 X8.0675 Y23.1484
G01 X8.3319 Y23.4626
G01 X8.6039 Y23.7702
G01 X8.8833 Y24.0710
G01 X9.1701 Y24.3649
G01 X9.4640 Y24.6517
G01 X9.6505 Y24.8250
G01 X9.8562 Y24.8250
G01 X9.5605 Y24.5503
G01 X9.2691 Y24.2659
G01 X8.9847 Y23.9745
G01 X8.7076 Y23.6762
G01 X8.4379 Y23.3711
G01 X8.1758 Y23.0596
G01 X7.9213 Y22.7417
G01 X7.6748 Y22.4177
G01 X7.4363 Y22.0877
G01 X7.2059 Y21.7519
G01 X7.1071 Y21.6001
G01 X7.2741 Y21.6001
G01 X7.3223 Y21.6741
