(G-CODE GENERATED BY FLATCAM v8.994 - www.flatcam.org - Version Date: 2020/11/7)

(Name: doorbell-Edge_Cuts.gbr_cutout_1_cnc)
(Type: G-code from Geometry)
(Units: MM)

(Created on Dimanche, 01 août 2021 at 12:07)

(This preprocessor is the default preprocessor used by FlatCAM.)
(It is made to work with MACH3 compatible motion controllers.)

(TOOL DIAMETER: 2.0 mm)
(Feedrate_XY: 100.0 mm/min)
(Feedrate_Z: 30.0 mm/min)
(Feedrate rapids 1500.0 mm/min)

(Z_Cut: -1.8 mm)
(DepthPerCut: 0.2 mm <=>9 passes)
(Z_Move: 1.0 mm)
(Z Start: None mm)
(Z End: 5.0 mm)
(X,Y End: None mm)
(Steps per circle: 64)
(Preprocessor Geometry: default)

(X range:   -1.1750 ...   44.1750  mm)
(Y range:   -1.1750 ...   26.1750  mm)

(Spindle Speed: 12000.0 RPM)
G21
G90
G94

G01 F100.00

M5
G00 Z5.0000
G00 X0.0000 Y0.0000
T1
M6    
(MSG, Change to Tool Dia = 2.0000)
M0
G00 Z5.0000
M03 S500
G4 P0.5
M03 S1000
G4 P0.5
M03 S5000
G4 P0.5
M03 S10000
G4 P0.5
M03 S12000.0
G01 F100.00
G00 X-1.1750 Y10.6000
G01 F30.00
G01 Z-0.2000
G01 F100.00
G01 X-1.1750 Y-0.0750
G01 X-1.1697 Y-0.1829
G01 X-1.1539 Y-0.2896
G01 X-1.1277 Y-0.3944
G01 X-1.0913 Y-0.4960
G01 X-1.0452 Y-0.5936
G01 X-0.9897 Y-0.6862
G01 X-0.9253 Y-0.7729
G01 X-0.8529 Y-0.8529
G01 X-0.7729 Y-0.9253
G01 X-0.6862 Y-0.9897
G01 X-0.5936 Y-1.0452
G01 X-0.4960 Y-1.0913
G01 X-0.3944 Y-1.1277
G01 X-0.2896 Y-1.1539
G01 X-0.1829 Y-1.1697
G01 X-0.0750 Y-1.1750
G01 X19.6000 Y-1.1750
G00 X19.6000 Y-1.1750
G01 F30.00
G01 Z-0.4000
G01 F100.00
G01 X-0.0750 Y-1.1750
G01 X-0.1829 Y-1.1697
G01 X-0.2896 Y-1.1539
G01 X-0.3944 Y-1.1277
G01 X-0.4960 Y-1.0913
G01 X-0.5936 Y-1.0452
G01 X-0.6862 Y-0.9897
G01 X-0.7729 Y-0.9253
G01 X-0.8529 Y-0.8529
G01 X-0.9253 Y-0.7729
G01 X-0.9897 Y-0.6862
G01 X-1.0452 Y-0.5936
G01 X-1.0913 Y-0.4960
G01 X-1.1277 Y-0.3944
G01 X-1.1539 Y-0.2896
G01 X-1.1697 Y-0.1829
G01 X-1.1750 Y-0.0750
G01 X-1.1750 Y10.6000
G00 X-1.1750 Y10.6000
G01 F30.00
G01 Z-0.6000
G01 F100.00
G01 X-1.1750 Y-0.0750
G01 X-1.1697 Y-0.1829
G01 X-1.1539 Y-0.2896
G01 X-1.1277 Y-0.3944
G01 X-1.0913 Y-0.4960
G01 X-1.0452 Y-0.5936
G01 X-0.9897 Y-0.6862
G01 X-0.9253 Y-0.7729
G01 X-0.8529 Y-0.8529
G01 X-0.7729 Y-0.9253
G01 X-0.6862 Y-0.9897
G01 X-0.5936 Y-1.0452
G01 X-0.4960 Y-1.0913
G01 X-0.3944 Y-1.1277
G01 X-0.2896 Y-1.1539
G01 X-0.1829 Y-1.1697
G01 X-0.0750 Y-1.1750
G01 X19.6000 Y-1.1750
G00 X19.6000 Y-1.1750
G01 F30.00
G01 Z-0.8000
G01 F100.00
G01 X-0.0750 Y-1.1750
G01 X-0.1829 Y-1.1697
G01 X-0.2896 Y-1.1539
G01 X-0.3944 Y-1.1277
G01 X-0.4960 Y-1.0913
G01 X-0.5936 Y-1.0452
G01 X-0.6862 Y-0.9897
G01 X-0.7729 Y-0.9253
G01 X-0.8529 Y-0.8529
G01 X-0.9253 Y-0.7729
G01 X-0.9897 Y-0.6862
G01 X-1.0452 Y-0.5936
G01 X-1.0913 Y-0.4960
G01 X-1.1277 Y-0.3944
G01 X-1.1539 Y-0.2896
G01 X-1.1697 Y-0.1829
G01 X-1.1750 Y-0.0750
G01 X-1.1750 Y10.6000
G00 X-1.1750 Y10.6000
G01 F30.00
G01 Z-1.0000
G01 F100.00
G01 X-1.1750 Y-0.0750
G01 X-1.1697 Y-0.1829
G01 X-1.1539 Y-0.2896
G01 X-1.1277 Y-0.3944
G01 X-1.0913 Y-0.4960
G01 X-1.0452 Y-0.5936
G01 X-0.9897 Y-0.6862
G01 X-0.9253 Y-0.7729
G01 X-0.8529 Y-0.8529
G01 X-0.7729 Y-0.9253
G01 X-0.6862 Y-0.9897
G01 X-0.5936 Y-1.0452
G01 X-0.4960 Y-1.0913
G01 X-0.3944 Y-1.1277
G01 X-0.2896 Y-1.1539
G01 X-0.1829 Y-1.1697
G01 X-0.0750 Y-1.1750
G01 X19.6000 Y-1.1750
G00 X19.6000 Y-1.1750
G01 F30.00
G01 Z-1.2000
G01 F100.00
G01 X-0.0750 Y-1.1750
G01 X-0.1829 Y-1.1697
G01 X-0.2896 Y-1.1539
G01 X-0.3944 Y-1.1277
G01 X-0.4960 Y-1.0913
G01 X-0.5936 Y-1.0452
G01 X-0.6862 Y-0.9897
G01 X-0.7729 Y-0.9253
G01 X-0.8529 Y-0.8529
G01 X-0.9253 Y-0.7729
G01 X-0.9897 Y-0.6862
G01 X-1.0452 Y-0.5936
G01 X-1.0913 Y-0.4960
G01 X-1.1277 Y-0.3944
G01 X-1.1539 Y-0.2896
G01 X-1.1697 Y-0.1829
G01 X-1.1750 Y-0.0750
G01 X-1.1750 Y10.6000
G00 X-1.1750 Y10.6000
G01 F30.00
G01 Z-1.4000
G01 F100.00
G01 X-1.1750 Y-0.0750
G01 X-1.1697 Y-0.1829
G01 X-1.1539 Y-0.2896
G01 X-1.1277 Y-0.3944
G01 X-1.0913 Y-0.4960
G01 X-1.0452 Y-0.5936
G01 X-0.9897 Y-0.6862
G01 X-0.9253 Y-0.7729
G01 X-0.8529 Y-0.8529
G01 X-0.7729 Y-0.9253
G01 X-0.6862 Y-0.9897
G01 X-0.5936 Y-1.0452
G01 X-0.4960 Y-1.0913
G01 X-0.3944 Y-1.1277
G01 X-0.2896 Y-1.1539
G01 X-0.1829 Y-1.1697
G01 X-0.0750 Y-1.1750
G01 X19.6000 Y-1.1750
G00 X19.6000 Y-1.1750
G01 F30.00
G01 Z-1.6000
G01 F100.00
G01 X-0.0750 Y-1.1750
G01 X-0.1829 Y-1.1697
G01 X-0.2896 Y-1.1539
G01 X-0.3944 Y-1.1277
G01 X-0.4960 Y-1.0913
G01 X-0.5936 Y-1.0452
G01 X-0.6862 Y-0.9897
G01 X-0.7729 Y-0.9253
G01 X-0.8529 Y-0.8529
G01 X-0.9253 Y-0.7729
G01 X-0.9897 Y-0.6862
G01 X-1.0452 Y-0.5936
G01 X-1.0913 Y-0.4960
G01 X-1.1277 Y-0.3944
G01 X-1.1539 Y-0.2896
G01 X-1.1697 Y-0.1829
G01 X-1.1750 Y-0.0750
G01 X-1.1750 Y10.6000
G00 X-1.1750 Y10.6000
G01 F30.00
G01 Z-1.8000
G01 F100.00
G01 X-1.1750 Y-0.0750
G01 X-1.1697 Y-0.1829
G01 X-1.1539 Y-0.2896
G01 X-1.1277 Y-0.3944
G01 X-1.0913 Y-0.4960
G01 X-1.0452 Y-0.5936
G01 X-0.9897 Y-0.6862
G01 X-0.9253 Y-0.7729
G01 X-0.8529 Y-0.8529
G01 X-0.7729 Y-0.9253
G01 X-0.6862 Y-0.9897
G01 X-0.5936 Y-1.0452
G01 X-0.4960 Y-1.0913
G01 X-0.3944 Y-1.1277
G01 X-0.2896 Y-1.1539
G01 X-0.1829 Y-1.1697
G01 X-0.0750 Y-1.1750
G01 X19.6000 Y-1.1750
G00 Z1.0000
G00 X-1.1750 Y14.6000
G01 F30.00
G01 Z-0.2000
G01 F100.00
G01 X-1.1750 Y25.0750
G01 X-1.1697 Y25.1829
G01 X-1.1539 Y25.2896
G01 X-1.1277 Y25.3944
G01 X-1.0913 Y25.4960
G01 X-1.0452 Y25.5936
G01 X-0.9897 Y25.6862
G01 X-0.9253 Y25.7729
G01 X-0.8529 Y25.8529
G01 X-0.7729 Y25.9253
G01 X-0.6862 Y25.9897
G01 X-0.5936 Y26.0452
G01 X-0.4960 Y26.0913
G01 X-0.3944 Y26.1277
G01 X-0.2896 Y26.1539
G01 X-0.1829 Y26.1697
G01 X-0.0750 Y26.1750
G01 X19.6000 Y26.1750
G00 X19.6000 Y26.1750
G01 F30.00
G01 Z-0.4000
G01 F100.00
G01 X-0.0750 Y26.1750
G01 X-0.1829 Y26.1697
G01 X-0.2896 Y26.1539
G01 X-0.3944 Y26.1277
G01 X-0.4960 Y26.0913
G01 X-0.5936 Y26.0452
G01 X-0.6862 Y25.9897
G01 X-0.7729 Y25.9253
G01 X-0.8529 Y25.8529
G01 X-0.9253 Y25.7729
G01 X-0.9897 Y25.6862
G01 X-1.0452 Y25.5936
G01 X-1.0913 Y25.4960
G01 X-1.1277 Y25.3944
G01 X-1.1539 Y25.2896
G01 X-1.1697 Y25.1829
G01 X-1.1750 Y25.0750
G01 X-1.1750 Y14.6000
G00 X-1.1750 Y14.6000
G01 F30.00
G01 Z-0.6000
G01 F100.00
G01 X-1.1750 Y25.0750
G01 X-1.1697 Y25.1829
G01 X-1.1539 Y25.2896
G01 X-1.1277 Y25.3944
G01 X-1.0913 Y25.4960
G01 X-1.0452 Y25.5936
G01 X-0.9897 Y25.6862
G01 X-0.9253 Y25.7729
G01 X-0.8529 Y25.8529
G01 X-0.7729 Y25.9253
G01 X-0.6862 Y25.9897
G01 X-0.5936 Y26.0452
G01 X-0.4960 Y26.0913
G01 X-0.3944 Y26.1277
G01 X-0.2896 Y26.1539
G01 X-0.1829 Y26.1697
G01 X-0.0750 Y26.1750
G01 X19.6000 Y26.1750
G00 X19.6000 Y26.1750
G01 F30.00
G01 Z-0.8000
G01 F100.00
G01 X-0.0750 Y26.1750
G01 X-0.1829 Y26.1697
G01 X-0.2896 Y26.1539
G01 X-0.3944 Y26.1277
G01 X-0.4960 Y26.0913
G01 X-0.5936 Y26.0452
G01 X-0.6862 Y25.9897
G01 X-0.7729 Y25.9253
G01 X-0.8529 Y25.8529
G01 X-0.9253 Y25.7729
G01 X-0.9897 Y25.6862
G01 X-1.0452 Y25.5936
G01 X-1.0913 Y25.4960
G01 X-1.1277 Y25.3944
G01 X-1.1539 Y25.2896
G01 X-1.1697 Y25.1829
G01 X-1.1750 Y25.0750
G01 X-1.1750 Y14.6000
G00 X-1.1750 Y14.6000
G01 F30.00
G01 Z-1.0000
G01 F100.00
G01 X-1.1750 Y25.0750
G01 X-1.1697 Y25.1829
G01 X-1.1539 Y25.2896
G01 X-1.1277 Y25.3944
G01 X-1.0913 Y25.4960
G01 X-1.0452 Y25.5936
G01 X-0.9897 Y25.6862
G01 X-0.9253 Y25.7729
G01 X-0.8529 Y25.8529
G01 X-0.7729 Y25.9253
G01 X-0.6862 Y25.9897
G01 X-0.5936 Y26.0452
G01 X-0.4960 Y26.0913
G01 X-0.3944 Y26.1277
G01 X-0.2896 Y26.1539
G01 X-0.1829 Y26.1697
G01 X-0.0750 Y26.1750
G01 X19.6000 Y26.1750
G00 X19.6000 Y26.1750
G01 F30.00
G01 Z-1.2000
G01 F100.00
G01 X-0.0750 Y26.1750
G01 X-0.1829 Y26.1697
G01 X-0.2896 Y26.1539
G01 X-0.3944 Y26.1277
G01 X-0.4960 Y26.0913
G01 X-0.5936 Y26.0452
G01 X-0.6862 Y25.9897
G01 X-0.7729 Y25.9253
G01 X-0.8529 Y25.8529
G01 X-0.9253 Y25.7729
G01 X-0.9897 Y25.6862
G01 X-1.0452 Y25.5936
G01 X-1.0913 Y25.4960
G01 X-1.1277 Y25.3944
G01 X-1.1539 Y25.2896
G01 X-1.1697 Y25.1829
G01 X-1.1750 Y25.0750
G01 X-1.1750 Y14.6000
G00 X-1.1750 Y14.6000
G01 F30.00
G01 Z-1.4000
G01 F100.00
G01 X-1.1750 Y25.0750
G01 X-1.1697 Y25.1829
G01 X-1.1539 Y25.2896
G01 X-1.1277 Y25.3944
G01 X-1.0913 Y25.4960
G01 X-1.0452 Y25.5936
G01 X-0.9897 Y25.6862
G01 X-0.9253 Y25.7729
G01 X-0.8529 Y25.8529
G01 X-0.7729 Y25.9253
G01 X-0.6862 Y25.9897
G01 X-0.5936 Y26.0452
G01 X-0.4960 Y26.0913
G01 X-0.3944 Y26.1277
G01 X-0.2896 Y26.1539
G01 X-0.1829 Y26.1697
G01 X-0.0750 Y26.1750
G01 X19.6000 Y26.1750
G00 X19.6000 Y26.1750
G01 F30.00
G01 Z-1.6000
G01 F100.00
G01 X-0.0750 Y26.1750
G01 X-0.1829 Y26.1697
G01 X-0.2896 Y26.1539
G01 X-0.3944 Y26.1277
G01 X-0.4960 Y26.0913
G01 X-0.5936 Y26.0452
G01 X-0.6862 Y25.9897
G01 X-0.7729 Y25.9253
G01 X-0.8529 Y25.8529
G01 X-0.9253 Y25.7729
G01 X-0.9897 Y25.6862
G01 X-1.0452 Y25.5936
G01 X-1.0913 Y25.4960
G01 X-1.1277 Y25.3944
G01 X-1.1539 Y25.2896
G01 X-1.1697 Y25.1829
G01 X-1.1750 Y25.0750
G01 X-1.1750 Y14.6000
G00 X-1.1750 Y14.6000
G01 F30.00
G01 Z-1.8000
G01 F100.00
G01 X-1.1750 Y25.0750
G01 X-1.1697 Y25.1829
G01 X-1.1539 Y25.2896
G01 X-1.1277 Y25.3944
G01 X-1.0913 Y25.4960
G01 X-1.0452 Y25.5936
G01 X-0.9897 Y25.6862
G01 X-0.9253 Y25.7729
G01 X-0.8529 Y25.8529
G01 X-0.7729 Y25.9253
G01 X-0.6862 Y25.9897
G01 X-0.5936 Y26.0452
G01 X-0.4960 Y26.0913
G01 X-0.3944 Y26.1277
G01 X-0.2896 Y26.1539
G01 X-0.1829 Y26.1697
G01 X-0.0750 Y26.1750
G01 X19.6000 Y26.1750
G00 Z1.0000
G00 X23.6000 Y26.1750
G01 F30.00
G01 Z-0.2000
G01 F100.00
G01 X43.0750 Y26.1750
G01 X43.1829 Y26.1697
G01 X43.2896 Y26.1539
G01 X43.3944 Y26.1277
G01 X43.4960 Y26.0913
G01 X43.5936 Y26.0452
G01 X43.6862 Y25.9897
G01 X43.7729 Y25.9253
G01 X43.8529 Y25.8529
G01 X43.9253 Y25.7729
G01 X43.9897 Y25.6862
G01 X44.0452 Y25.5936
G01 X44.0913 Y25.4960
G01 X44.1277 Y25.3944
G01 X44.1539 Y25.2896
G01 X44.1697 Y25.1829
G01 X44.1750 Y25.0750
G01 X44.1750 Y14.6000
G00 X44.1750 Y14.6000
G01 F30.00
G01 Z-0.4000
G01 F100.00
G01 X44.1750 Y25.0750
G01 X44.1697 Y25.1829
G01 X44.1539 Y25.2896
G01 X44.1277 Y25.3944
G01 X44.0913 Y25.4960
G01 X44.0452 Y25.5936
G01 X43.9897 Y25.6862
G01 X43.9253 Y25.7729
G01 X43.8529 Y25.8529
G01 X43.7729 Y25.9253
G01 X43.6862 Y25.9897
G01 X43.5936 Y26.0452
G01 X43.4960 Y26.0913
G01 X43.3944 Y26.1277
G01 X43.2896 Y26.1539
G01 X43.1829 Y26.1697
G01 X43.0750 Y26.1750
G01 X23.6000 Y26.1750
G00 X23.6000 Y26.1750
G01 F30.00
G01 Z-0.6000
G01 F100.00
G01 X43.0750 Y26.1750
G01 X43.1829 Y26.1697
G01 X43.2896 Y26.1539
G01 X43.3944 Y26.1277
G01 X43.4960 Y26.0913
G01 X43.5936 Y26.0452
G01 X43.6862 Y25.9897
G01 X43.7729 Y25.9253
G01 X43.8529 Y25.8529
G01 X43.9253 Y25.7729
G01 X43.9897 Y25.6862
G01 X44.0452 Y25.5936
G01 X44.0913 Y25.4960
G01 X44.1277 Y25.3944
G01 X44.1539 Y25.2896
G01 X44.1697 Y25.1829
G01 X44.1750 Y25.0750
G01 X44.1750 Y14.6000
G00 X44.1750 Y14.6000
G01 F30.00
G01 Z-0.8000
G01 F100.00
G01 X44.1750 Y25.0750
G01 X44.1697 Y25.1829
G01 X44.1539 Y25.2896
G01 X44.1277 Y25.3944
G01 X44.0913 Y25.4960
G01 X44.0452 Y25.5936
G01 X43.9897 Y25.6862
G01 X43.9253 Y25.7729
G01 X43.8529 Y25.8529
G01 X43.7729 Y25.9253
G01 X43.6862 Y25.9897
G01 X43.5936 Y26.0452
G01 X43.4960 Y26.0913
G01 X43.3944 Y26.1277
G01 X43.2896 Y26.1539
G01 X43.1829 Y26.1697
G01 X43.0750 Y26.1750
G01 X23.6000 Y26.1750
G00 X23.6000 Y26.1750
G01 F30.00
G01 Z-1.0000
G01 F100.00
G01 X43.0750 Y26.1750
G01 X43.1829 Y26.1697
G01 X43.2896 Y26.1539
G01 X43.3944 Y26.1277
G01 X43.4960 Y26.0913
G01 X43.5936 Y26.0452
G01 X43.6862 Y25.9897
G01 X43.7729 Y25.9253
G01 X43.8529 Y25.8529
G01 X43.9253 Y25.7729
G01 X43.9897 Y25.6862
G01 X44.0452 Y25.5936
G01 X44.0913 Y25.4960
G01 X44.1277 Y25.3944
G01 X44.1539 Y25.2896
G01 X44.1697 Y25.1829
G01 X44.1750 Y25.0750
G01 X44.1750 Y14.6000
G00 X44.1750 Y14.6000
G01 F30.00
G01 Z-1.2000
G01 F100.00
G01 X44.1750 Y25.0750
G01 X44.1697 Y25.1829
G01 X44.1539 Y25.2896
G01 X44.1277 Y25.3944
G01 X44.0913 Y25.4960
G01 X44.0452 Y25.5936
G01 X43.9897 Y25.6862
G01 X43.9253 Y25.7729
G01 X43.8529 Y25.8529
G01 X43.7729 Y25.9253
G01 X43.6862 Y25.9897
G01 X43.5936 Y26.0452
G01 X43.4960 Y26.0913
G01 X43.3944 Y26.1277
G01 X43.2896 Y26.1539
G01 X43.1829 Y26.1697
G01 X43.0750 Y26.1750
G01 X23.6000 Y26.1750
G00 X23.6000 Y26.1750
G01 F30.00
G01 Z-1.4000
G01 F100.00
G01 X43.0750 Y26.1750
G01 X43.1829 Y26.1697
G01 X43.2896 Y26.1539
G01 X43.3944 Y26.1277
G01 X43.4960 Y26.0913
G01 X43.5936 Y26.0452
G01 X43.6862 Y25.9897
G01 X43.7729 Y25.9253
G01 X43.8529 Y25.8529
G01 X43.9253 Y25.7729
G01 X43.9897 Y25.6862
G01 X44.0452 Y25.5936
G01 X44.0913 Y25.4960
G01 X44.1277 Y25.3944
G01 X44.1539 Y25.2896
G01 X44.1697 Y25.1829
G01 X44.1750 Y25.0750
G01 X44.1750 Y14.6000
G00 X44.1750 Y14.6000
G01 F30.00
G01 Z-1.6000
G01 F100.00
G01 X44.1750 Y25.0750
G01 X44.1697 Y25.1829
G01 X44.1539 Y25.2896
G01 X44.1277 Y25.3944
G01 X44.0913 Y25.4960
G01 X44.0452 Y25.5936
G01 X43.9897 Y25.6862
G01 X43.9253 Y25.7729
G01 X43.8529 Y25.8529
G01 X43.7729 Y25.9253
G01 X43.6862 Y25.9897
G01 X43.5936 Y26.0452
G01 X43.4960 Y26.0913
G01 X43.3944 Y26.1277
G01 X43.2896 Y26.1539
G01 X43.1829 Y26.1697
G01 X43.0750 Y26.1750
G01 X23.6000 Y26.1750
G00 X23.6000 Y26.1750
G01 F30.00
G01 Z-1.8000
G01 F100.00
G01 X43.0750 Y26.1750
G01 X43.1829 Y26.1697
G01 X43.2896 Y26.1539
G01 X43.3944 Y26.1277
G01 X43.4960 Y26.0913
G01 X43.5936 Y26.0452
G01 X43.6862 Y25.9897
G01 X43.7729 Y25.9253
G01 X43.8529 Y25.8529
G01 X43.9253 Y25.7729
G01 X43.9897 Y25.6862
G01 X44.0452 Y25.5936
G01 X44.0913 Y25.4960
G01 X44.1277 Y25.3944
G01 X44.1539 Y25.2896
G01 X44.1697 Y25.1829
G01 X44.1750 Y25.0750
G01 X44.1750 Y14.6000
G00 Z1.0000
G00 X44.1750 Y10.6000
G01 F30.00
G01 Z-0.2000
G01 F100.00
G01 X44.1750 Y-0.0750
G01 X44.1697 Y-0.1829
G01 X44.1539 Y-0.2896
G01 X44.1277 Y-0.3944
G01 X44.0913 Y-0.4960
G01 X44.0452 Y-0.5936
G01 X43.9897 Y-0.6862
G01 X43.9253 Y-0.7729
G01 X43.8529 Y-0.8529
G01 X43.7729 Y-0.9253
G01 X43.6862 Y-0.9897
G01 X43.5936 Y-1.0452
G01 X43.4960 Y-1.0913
G01 X43.3944 Y-1.1277
G01 X43.2896 Y-1.1539
G01 X43.1829 Y-1.1697
G01 X43.0750 Y-1.1750
G01 X23.6000 Y-1.1750
G00 X23.6000 Y-1.1750
G01 F30.00
G01 Z-0.4000
G01 F100.00
G01 X43.0750 Y-1.1750
G01 X43.1829 Y-1.1697
G01 X43.2896 Y-1.1539
G01 X43.3944 Y-1.1277
G01 X43.4960 Y-1.0913
G01 X43.5936 Y-1.0452
G01 X43.6862 Y-0.9897
G01 X43.7729 Y-0.9253
G01 X43.8529 Y-0.8529
G01 X43.9253 Y-0.7729
G01 X43.9897 Y-0.6862
G01 X44.0452 Y-0.5936
G01 X44.0913 Y-0.4960
G01 X44.1277 Y-0.3944
G01 X44.1539 Y-0.2896
G01 X44.1697 Y-0.1829
G01 X44.1750 Y-0.0750
G01 X44.1750 Y10.6000
G00 X44.1750 Y10.6000
G01 F30.00
G01 Z-0.6000
G01 F100.00
G01 X44.1750 Y-0.0750
G01 X44.1697 Y-0.1829
G01 X44.1539 Y-0.2896
G01 X44.1277 Y-0.3944
G01 X44.0913 Y-0.4960
G01 X44.0452 Y-0.5936
G01 X43.9897 Y-0.6862
G01 X43.9253 Y-0.7729
G01 X43.8529 Y-0.8529
G01 X43.7729 Y-0.9253
G01 X43.6862 Y-0.9897
G01 X43.5936 Y-1.0452
G01 X43.4960 Y-1.0913
G01 X43.3944 Y-1.1277
G01 X43.2896 Y-1.1539
G01 X43.1829 Y-1.1697
G01 X43.0750 Y-1.1750
G01 X23.6000 Y-1.1750
G00 X23.6000 Y-1.1750
G01 F30.00
G01 Z-0.8000
G01 F100.00
G01 X43.0750 Y-1.1750
G01 X43.1829 Y-1.1697
G01 X43.2896 Y-1.1539
G01 X43.3944 Y-1.1277
G01 X43.4960 Y-1.0913
G01 X43.5936 Y-1.0452
G01 X43.6862 Y-0.9897
G01 X43.7729 Y-0.9253
G01 X43.8529 Y-0.8529
G01 X43.9253 Y-0.7729
G01 X43.9897 Y-0.6862
G01 X44.0452 Y-0.5936
G01 X44.0913 Y-0.4960
G01 X44.1277 Y-0.3944
G01 X44.1539 Y-0.2896
G01 X44.1697 Y-0.1829
G01 X44.1750 Y-0.0750
G01 X44.1750 Y10.6000
G00 X44.1750 Y10.6000
G01 F30.00
G01 Z-1.0000
G01 F100.00
G01 X44.1750 Y-0.0750
G01 X44.1697 Y-0.1829
G01 X44.1539 Y-0.2896
G01 X44.1277 Y-0.3944
G01 X44.0913 Y-0.4960
G01 X44.0452 Y-0.5936
G01 X43.9897 Y-0.6862
G01 X43.9253 Y-0.7729
G01 X43.8529 Y-0.8529
G01 X43.7729 Y-0.9253
G01 X43.6862 Y-0.9897
G01 X43.5936 Y-1.0452
G01 X43.4960 Y-1.0913
G01 X43.3944 Y-1.1277
G01 X43.2896 Y-1.1539
G01 X43.1829 Y-1.1697
G01 X43.0750 Y-1.1750
G01 X23.6000 Y-1.1750
G00 X23.6000 Y-1.1750
G01 F30.00
G01 Z-1.2000
G01 F100.00
G01 X43.0750 Y-1.1750
G01 X43.1829 Y-1.1697
G01 X43.2896 Y-1.1539
G01 X43.3944 Y-1.1277
G01 X43.4960 Y-1.0913
G01 X43.5936 Y-1.0452
G01 X43.6862 Y-0.9897
G01 X43.7729 Y-0.9253
G01 X43.8529 Y-0.8529
G01 X43.9253 Y-0.7729
G01 X43.9897 Y-0.6862
G01 X44.0452 Y-0.5936
G01 X44.0913 Y-0.4960
G01 X44.1277 Y-0.3944
G01 X44.1539 Y-0.2896
G01 X44.1697 Y-0.1829
G01 X44.1750 Y-0.0750
G01 X44.1750 Y10.6000
G00 X44.1750 Y10.6000
G01 F30.00
G01 Z-1.4000
G01 F100.00
G01 X44.1750 Y-0.0750
G01 X44.1697 Y-0.1829
G01 X44.1539 Y-0.2896
G01 X44.1277 Y-0.3944
G01 X44.0913 Y-0.4960
G01 X44.0452 Y-0.5936
G01 X43.9897 Y-0.6862
G01 X43.9253 Y-0.7729
G01 X43.8529 Y-0.8529
G01 X43.7729 Y-0.9253
G01 X43.6862 Y-0.9897
G01 X43.5936 Y-1.0452
G01 X43.4960 Y-1.0913
G01 X43.3944 Y-1.1277
G01 X43.2896 Y-1.1539
G01 X43.1829 Y-1.1697
G01 X43.0750 Y-1.1750
G01 X23.6000 Y-1.1750
G00 X23.6000 Y-1.1750
G01 F30.00
G01 Z-1.6000
G01 F100.00
G01 X43.0750 Y-1.1750
G01 X43.1829 Y-1.1697
G01 X43.2896 Y-1.1539
G01 X43.3944 Y-1.1277
G01 X43.4960 Y-1.0913
G01 X43.5936 Y-1.0452
G01 X43.6862 Y-0.9897
G01 X43.7729 Y-0.9253
G01 X43.8529 Y-0.8529
G01 X43.9253 Y-0.7729
G01 X43.9897 Y-0.6862
G01 X44.0452 Y-0.5936
G01 X44.0913 Y-0.4960
G01 X44.1277 Y-0.3944
G01 X44.1539 Y-0.2896
G01 X44.1697 Y-0.1829
G01 X44.1750 Y-0.0750
G01 X44.1750 Y10.6000
G00 X44.1750 Y10.6000
G01 F30.00
G01 Z-1.8000
G01 F100.00
G01 X44.1750 Y-0.0750
G01 X44.1697 Y-0.1829
G01 X44.1539 Y-0.2896
G01 X44.1277 Y-0.3944
G01 X44.0913 Y-0.4960
G01 X44.0452 Y-0.5936
G01 X43.9897 Y-0.6862
G01 X43.9253 Y-0.7729
G01 X43.8529 Y-0.8529
G01 X43.7729 Y-0.9253
G01 X43.6862 Y-0.9897
G01 X43.5936 Y-1.0452
G01 X43.4960 Y-1.0913
G01 X43.3944 Y-1.1277
G01 X43.2896 Y-1.1539
G01 X43.1829 Y-1.1697
G01 X43.0750 Y-1.1750
G01 X23.6000 Y-1.1750
G00 Z1.0000
M05
G00 Z1.0000
G00 Z5.00


