(G-CODE GENERATED BY FLATCAM v8.994 - www.flatcam.org - Version Date: 2020/11/7)

(Name: doorbell-F_Cu.gbr_cutout_cnc)
(Type: G-code from Geometry)
(Units: MM)

(Created on Jeudi, 05 août 2021 at 20:07)

(This preprocessor is the default preprocessor used by FlatCAM.)
(It is made to work with MACH3 compatible motion controllers.)

(TOOL DIAMETER: 2.0 mm)
(Feedrate_XY: 80.0 mm/min)
(Feedrate_Z: 50.0 mm/min)
(Feedrate rapids 1500.0 mm/min)

(Z_Cut: -1.8 mm)
(DepthPerCut: 0.4 mm <=>5 passes)
(Z_Move: 1.0 mm)
(Z Start: None mm)
(Z End: 5.0 mm)
(X,Y End: None mm)
(Steps per circle: 64)
(Preprocessor Geometry: default)

(X range:   -1.1750 ...   46.1750  mm)
(Y range:   -1.1750 ...   26.1750  mm)

(Spindle Speed: 20000.0 RPM)
G21
G90
G94

G01 F80.00

M5
G00 Z5.0000
G00 X0.0000 Y0.0000
T1
M6    
(MSG, Change to Tool Dia = 2.0000)
M0
G00 Z5.0000
M03 S500
G4 P0.5
M03 S1000
G4 P0.5
M03 S5000
G4 P0.5
M03 S10000
G4 P0.5
M03 S15000.0
G4 P0.5
M03 S20000.0
G01 F80.00
G00 X-1.1750 Y11.1000
G01 F50.00
G01 Z-0.4000
G01 F80.00
G01 X-1.1750 Y-0.0750
G01 X-1.1697 Y-0.1829
G01 X-1.1539 Y-0.2896
G01 X-1.1277 Y-0.3944
G01 X-1.0913 Y-0.4960
G01 X-1.0452 Y-0.5936
G01 X-0.9897 Y-0.6862
G01 X-0.9253 Y-0.7729
G01 X-0.8529 Y-0.8529
G01 X-0.7729 Y-0.9253
G01 X-0.6862 Y-0.9897
G01 X-0.5936 Y-1.0452
G01 X-0.4960 Y-1.0913
G01 X-0.3944 Y-1.1277
G01 X-0.2896 Y-1.1539
G01 X-0.1829 Y-1.1697
G01 X-0.0750 Y-1.1750
G01 X21.1000 Y-1.1750
G00 X21.1000 Y-1.1750
G01 F50.00
G01 Z-0.8000
G01 F80.00
G01 X-0.0750 Y-1.1750
G01 X-0.1829 Y-1.1697
G01 X-0.2896 Y-1.1539
G01 X-0.3944 Y-1.1277
G01 X-0.4960 Y-1.0913
G01 X-0.5936 Y-1.0452
G01 X-0.6862 Y-0.9897
G01 X-0.7729 Y-0.9253
G01 X-0.8529 Y-0.8529
G01 X-0.9253 Y-0.7729
G01 X-0.9897 Y-0.6862
G01 X-1.0452 Y-0.5936
G01 X-1.0913 Y-0.4960
G01 X-1.1277 Y-0.3944
G01 X-1.1539 Y-0.2896
G01 X-1.1697 Y-0.1829
G01 X-1.1750 Y-0.0750
G01 X-1.1750 Y11.1000
G00 X-1.1750 Y11.1000
G01 F50.00
G01 Z-1.2000
G01 F80.00
G01 X-1.1750 Y-0.0750
G01 X-1.1697 Y-0.1829
G01 X-1.1539 Y-0.2896
G01 X-1.1277 Y-0.3944
G01 X-1.0913 Y-0.4960
G01 X-1.0452 Y-0.5936
G01 X-0.9897 Y-0.6862
G01 X-0.9253 Y-0.7729
G01 X-0.8529 Y-0.8529
G01 X-0.7729 Y-0.9253
G01 X-0.6862 Y-0.9897
G01 X-0.5936 Y-1.0452
G01 X-0.4960 Y-1.0913
G01 X-0.3944 Y-1.1277
G01 X-0.2896 Y-1.1539
G01 X-0.1829 Y-1.1697
G01 X-0.0750 Y-1.1750
G01 X21.1000 Y-1.1750
G00 X21.1000 Y-1.1750
G01 F50.00
G01 Z-1.6000
G01 F80.00
G01 X-0.0750 Y-1.1750
G01 X-0.1829 Y-1.1697
G01 X-0.2896 Y-1.1539
G01 X-0.3944 Y-1.1277
G01 X-0.4960 Y-1.0913
G01 X-0.5936 Y-1.0452
G01 X-0.6862 Y-0.9897
G01 X-0.7729 Y-0.9253
G01 X-0.8529 Y-0.8529
G01 X-0.9253 Y-0.7729
G01 X-0.9897 Y-0.6862
G01 X-1.0452 Y-0.5936
G01 X-1.0913 Y-0.4960
G01 X-1.1277 Y-0.3944
G01 X-1.1539 Y-0.2896
G01 X-1.1697 Y-0.1829
G01 X-1.1750 Y-0.0750
G01 X-1.1750 Y11.1000
G00 X-1.1750 Y11.1000
G01 F50.00
G01 Z-1.8000
G01 F80.00
G01 X-1.1750 Y-0.0750
G01 X-1.1697 Y-0.1829
G01 X-1.1539 Y-0.2896
G01 X-1.1277 Y-0.3944
G01 X-1.0913 Y-0.4960
G01 X-1.0452 Y-0.5936
G01 X-0.9897 Y-0.6862
G01 X-0.9253 Y-0.7729
G01 X-0.8529 Y-0.8529
G01 X-0.7729 Y-0.9253
G01 X-0.6862 Y-0.9897
G01 X-0.5936 Y-1.0452
G01 X-0.4960 Y-1.0913
G01 X-0.3944 Y-1.1277
G01 X-0.2896 Y-1.1539
G01 X-0.1829 Y-1.1697
G01 X-0.0750 Y-1.1750
G01 X21.1000 Y-1.1750
G00 Z1.0000
G00 X-1.1750 Y14.1000
G01 F50.00
G01 Z-0.4000
G01 F80.00
G01 X-1.1750 Y25.0750
G01 X-1.1697 Y25.1829
G01 X-1.1539 Y25.2896
G01 X-1.1277 Y25.3944
G01 X-1.0913 Y25.4960
G01 X-1.0452 Y25.5936
G01 X-0.9897 Y25.6862
G01 X-0.9253 Y25.7729
G01 X-0.8529 Y25.8529
G01 X-0.7729 Y25.9253
G01 X-0.6862 Y25.9897
G01 X-0.5936 Y26.0452
G01 X-0.4960 Y26.0913
G01 X-0.3944 Y26.1277
G01 X-0.2896 Y26.1539
G01 X-0.1829 Y26.1697
G01 X-0.0750 Y26.1750
G01 X21.1000 Y26.1750
G00 X21.1000 Y26.1750
G01 F50.00
G01 Z-0.8000
G01 F80.00
G01 X-0.0750 Y26.1750
G01 X-0.1829 Y26.1697
G01 X-0.2896 Y26.1539
G01 X-0.3944 Y26.1277
G01 X-0.4960 Y26.0913
G01 X-0.5936 Y26.0452
G01 X-0.6862 Y25.9897
G01 X-0.7729 Y25.9253
G01 X-0.8529 Y25.8529
G01 X-0.9253 Y25.7729
G01 X-0.9897 Y25.6862
G01 X-1.0452 Y25.5936
G01 X-1.0913 Y25.4960
G01 X-1.1277 Y25.3944
G01 X-1.1539 Y25.2896
G01 X-1.1697 Y25.1829
G01 X-1.1750 Y25.0750
G01 X-1.1750 Y14.1000
G00 X-1.1750 Y14.1000
G01 F50.00
G01 Z-1.2000
G01 F80.00
G01 X-1.1750 Y25.0750
G01 X-1.1697 Y25.1829
G01 X-1.1539 Y25.2896
G01 X-1.1277 Y25.3944
G01 X-1.0913 Y25.4960
G01 X-1.0452 Y25.5936
G01 X-0.9897 Y25.6862
G01 X-0.9253 Y25.7729
G01 X-0.8529 Y25.8529
G01 X-0.7729 Y25.9253
G01 X-0.6862 Y25.9897
G01 X-0.5936 Y26.0452
G01 X-0.4960 Y26.0913
G01 X-0.3944 Y26.1277
G01 X-0.2896 Y26.1539
G01 X-0.1829 Y26.1697
G01 X-0.0750 Y26.1750
G01 X21.1000 Y26.1750
G00 X21.1000 Y26.1750
G01 F50.00
G01 Z-1.6000
G01 F80.00
G01 X-0.0750 Y26.1750
G01 X-0.1829 Y26.1697
G01 X-0.2896 Y26.1539
G01 X-0.3944 Y26.1277
G01 X-0.4960 Y26.0913
G01 X-0.5936 Y26.0452
G01 X-0.6862 Y25.9897
G01 X-0.7729 Y25.9253
G01 X-0.8529 Y25.8529
G01 X-0.9253 Y25.7729
G01 X-0.9897 Y25.6862
G01 X-1.0452 Y25.5936
G01 X-1.0913 Y25.4960
G01 X-1.1277 Y25.3944
G01 X-1.1539 Y25.2896
G01 X-1.1697 Y25.1829
G01 X-1.1750 Y25.0750
G01 X-1.1750 Y14.1000
G00 X-1.1750 Y14.1000
G01 F50.00
G01 Z-1.8000
G01 F80.00
G01 X-1.1750 Y25.0750
G01 X-1.1697 Y25.1829
G01 X-1.1539 Y25.2896
G01 X-1.1277 Y25.3944
G01 X-1.0913 Y25.4960
G01 X-1.0452 Y25.5936
G01 X-0.9897 Y25.6862
G01 X-0.9253 Y25.7729
G01 X-0.8529 Y25.8529
G01 X-0.7729 Y25.9253
G01 X-0.6862 Y25.9897
G01 X-0.5936 Y26.0452
G01 X-0.4960 Y26.0913
G01 X-0.3944 Y26.1277
G01 X-0.2896 Y26.1539
G01 X-0.1829 Y26.1697
G01 X-0.0750 Y26.1750
G01 X21.1000 Y26.1750
G00 Z1.0000
G00 X24.1000 Y26.1750
G01 F50.00
G01 Z-0.4000
G01 F80.00
G01 X45.0750 Y26.1750
G01 X45.1829 Y26.1697
G01 X45.2896 Y26.1539
G01 X45.3944 Y26.1277
G01 X45.4960 Y26.0913
G01 X45.5936 Y26.0452
G01 X45.6862 Y25.9897
G01 X45.7729 Y25.9253
G01 X45.8529 Y25.8529
G01 X45.9253 Y25.7729
G01 X45.9897 Y25.6862
G01 X46.0452 Y25.5936
G01 X46.0913 Y25.4960
G01 X46.1277 Y25.3944
G01 X46.1539 Y25.2896
G01 X46.1697 Y25.1829
G01 X46.1750 Y25.0750
G01 X46.1750 Y14.1000
G00 X46.1750 Y14.1000
G01 F50.00
G01 Z-0.8000
G01 F80.00
G01 X46.1750 Y25.0750
G01 X46.1697 Y25.1829
G01 X46.1539 Y25.2896
G01 X46.1277 Y25.3944
G01 X46.0913 Y25.4960
G01 X46.0452 Y25.5936
G01 X45.9897 Y25.6862
G01 X45.9253 Y25.7729
G01 X45.8529 Y25.8529
G01 X45.7729 Y25.9253
G01 X45.6862 Y25.9897
G01 X45.5936 Y26.0452
G01 X45.4960 Y26.0913
G01 X45.3944 Y26.1277
G01 X45.2896 Y26.1539
G01 X45.1829 Y26.1697
G01 X45.0750 Y26.1750
G01 X24.1000 Y26.1750
G00 X24.1000 Y26.1750
G01 F50.00
G01 Z-1.2000
G01 F80.00
G01 X45.0750 Y26.1750
G01 X45.1829 Y26.1697
G01 X45.2896 Y26.1539
G01 X45.3944 Y26.1277
G01 X45.4960 Y26.0913
G01 X45.5936 Y26.0452
G01 X45.6862 Y25.9897
G01 X45.7729 Y25.9253
G01 X45.8529 Y25.8529
G01 X45.9253 Y25.7729
G01 X45.9897 Y25.6862
G01 X46.0452 Y25.5936
G01 X46.0913 Y25.4960
G01 X46.1277 Y25.3944
G01 X46.1539 Y25.2896
G01 X46.1697 Y25.1829
G01 X46.1750 Y25.0750
G01 X46.1750 Y14.1000
G00 X46.1750 Y14.1000
G01 F50.00
G01 Z-1.6000
G01 F80.00
G01 X46.1750 Y25.0750
G01 X46.1697 Y25.1829
G01 X46.1539 Y25.2896
G01 X46.1277 Y25.3944
G01 X46.0913 Y25.4960
G01 X46.0452 Y25.5936
G01 X45.9897 Y25.6862
G01 X45.9253 Y25.7729
G01 X45.8529 Y25.8529
G01 X45.7729 Y25.9253
G01 X45.6862 Y25.9897
G01 X45.5936 Y26.0452
G01 X45.4960 Y26.0913
G01 X45.3944 Y26.1277
G01 X45.2896 Y26.1539
G01 X45.1829 Y26.1697
G01 X45.0750 Y26.1750
G01 X24.1000 Y26.1750
G00 X24.1000 Y26.1750
G01 F50.00
G01 Z-1.8000
G01 F80.00
G01 X45.0750 Y26.1750
G01 X45.1829 Y26.1697
G01 X45.2896 Y26.1539
G01 X45.3944 Y26.1277
G01 X45.4960 Y26.0913
G01 X45.5936 Y26.0452
G01 X45.6862 Y25.9897
G01 X45.7729 Y25.9253
G01 X45.8529 Y25.8529
G01 X45.9253 Y25.7729
G01 X45.9897 Y25.6862
G01 X46.0452 Y25.5936
G01 X46.0913 Y25.4960
G01 X46.1277 Y25.3944
G01 X46.1539 Y25.2896
G01 X46.1697 Y25.1829
G01 X46.1750 Y25.0750
G01 X46.1750 Y14.1000
G00 Z1.0000
G00 X46.1750 Y11.1000
G01 F50.00
G01 Z-0.4000
G01 F80.00
G01 X46.1750 Y-0.0750
G01 X46.1697 Y-0.1829
G01 X46.1539 Y-0.2896
G01 X46.1277 Y-0.3944
G01 X46.0913 Y-0.4960
G01 X46.0452 Y-0.5936
G01 X45.9897 Y-0.6862
G01 X45.9253 Y-0.7729
G01 X45.8529 Y-0.8529
G01 X45.7729 Y-0.9253
G01 X45.6862 Y-0.9897
G01 X45.5936 Y-1.0452
G01 X45.4960 Y-1.0913
G01 X45.3944 Y-1.1277
G01 X45.2896 Y-1.1539
G01 X45.1829 Y-1.1697
G01 X45.0750 Y-1.1750
G01 X24.1000 Y-1.1750
G00 X24.1000 Y-1.1750
G01 F50.00
G01 Z-0.8000
G01 F80.00
G01 X45.0750 Y-1.1750
G01 X45.1829 Y-1.1697
G01 X45.2896 Y-1.1539
G01 X45.3944 Y-1.1277
G01 X45.4960 Y-1.0913
G01 X45.5936 Y-1.0452
G01 X45.6862 Y-0.9897
G01 X45.7729 Y-0.9253
G01 X45.8529 Y-0.8529
G01 X45.9253 Y-0.7729
G01 X45.9897 Y-0.6862
G01 X46.0452 Y-0.5936
G01 X46.0913 Y-0.4960
G01 X46.1277 Y-0.3944
G01 X46.1539 Y-0.2896
G01 X46.1697 Y-0.1829
G01 X46.1750 Y-0.0750
G01 X46.1750 Y11.1000
G00 X46.1750 Y11.1000
G01 F50.00
G01 Z-1.2000
G01 F80.00
G01 X46.1750 Y-0.0750
G01 X46.1697 Y-0.1829
G01 X46.1539 Y-0.2896
G01 X46.1277 Y-0.3944
G01 X46.0913 Y-0.4960
G01 X46.0452 Y-0.5936
G01 X45.9897 Y-0.6862
G01 X45.9253 Y-0.7729
G01 X45.8529 Y-0.8529
G01 X45.7729 Y-0.9253
G01 X45.6862 Y-0.9897
G01 X45.5936 Y-1.0452
G01 X45.4960 Y-1.0913
G01 X45.3944 Y-1.1277
G01 X45.2896 Y-1.1539
G01 X45.1829 Y-1.1697
G01 X45.0750 Y-1.1750
G01 X24.1000 Y-1.1750
G00 X24.1000 Y-1.1750
G01 F50.00
G01 Z-1.6000
G01 F80.00
G01 X45.0750 Y-1.1750
G01 X45.1829 Y-1.1697
G01 X45.2896 Y-1.1539
G01 X45.3944 Y-1.1277
G01 X45.4960 Y-1.0913
G01 X45.5936 Y-1.0452
G01 X45.6862 Y-0.9897
G01 X45.7729 Y-0.9253
G01 X45.8529 Y-0.8529
G01 X45.9253 Y-0.7729
G01 X45.9897 Y-0.6862
G01 X46.0452 Y-0.5936
G01 X46.0913 Y-0.4960
G01 X46.1277 Y-0.3944
G01 X46.1539 Y-0.2896
G01 X46.1697 Y-0.1829
G01 X46.1750 Y-0.0750
G01 X46.1750 Y11.1000
G00 X46.1750 Y11.1000
G01 F50.00
G01 Z-1.8000
G01 F80.00
G01 X46.1750 Y-0.0750
G01 X46.1697 Y-0.1829
G01 X46.1539 Y-0.2896
G01 X46.1277 Y-0.3944
G01 X46.0913 Y-0.4960
G01 X46.0452 Y-0.5936
G01 X45.9897 Y-0.6862
G01 X45.9253 Y-0.7729
G01 X45.8529 Y-0.8529
G01 X45.7729 Y-0.9253
G01 X45.6862 Y-0.9897
G01 X45.5936 Y-1.0452
G01 X45.4960 Y-1.0913
G01 X45.3944 Y-1.1277
G01 X45.2896 Y-1.1539
G01 X45.1829 Y-1.1697
G01 X45.0750 Y-1.1750
G01 X24.1000 Y-1.1750
G00 Z1.0000
M05
G00 Z1.0000
G00 Z5.00


