(G-CODE GENERATED BY FLATCAM v8.994 - www.flatcam.org - Version Date: 2020/11/7)

(Name: doorbell-PTH.drl_cnc)
(Type: G-code from Geometry)
(Units: MM)

(Created on Dimanche, 08 août 2021 at 16:07)

(This preprocessor is the default preprocessor used by FlatCAM.)
(It is made to work with MACH3 compatible motion controllers.)


(TOOLS DIAMETER: )
(Tool: 1 -> Dia: 0.6)
(Tool: 2 -> Dia: 1.0)

(FEEDRATE Z: )
(Tool: 1 -> Feedrate: 50.0)
(Tool: 2 -> Feedrate: 50.0)

(FEEDRATE RAPIDS: )
(Tool: 1 -> Feedrate Rapids: 1500)
(Tool: 2 -> Feedrate Rapids: 1500)

(Z_CUT: )
(Tool: 1 -> Z_Cut: -1.8)
(Tool: 2 -> Z_Cut: -1.8)

(Tools Offset: )
(Tool: 1 -> Offset Z: 0.0)
(Tool: 2 -> Offset Z: 0.0)

(Z_MOVE: )
(Tool: 1 -> Z_Move: 1.0)
(Tool: 2 -> Z_Move: 1.0)

(Z Toolchange: 5.0 mm)
(X,Y Toolchange: 0.0000, 0.0000 mm)
(Z Start: None mm)
(Z End: 5.0 mm)
(X,Y End: None mm)
(Steps per circle: 64)
(Preprocessor Excellon: default)

(X range:    1.7000 ...   43.6000  mm)
(Y range:    3.2500 ...   22.8000  mm)

(Spindle Speed: 2000 RPM)
G21
G90
G94

G01 F50.00

M5
G00 Z5.0000
T1
G00 X0.0000 Y0.0000                
M6
(MSG, Change to Tool Dia = 0.6000 ||| Total drills for tool T1 = 19)
M0
G00 Z5.0000

S500 M3
G4 P0.5
S1000 M3
G4 P0.5
S2000 M3
G01 F50.00
G00 X2.0000 Y7.5000
G01 Z-1.8000
G01 Z0
G00 Z1.0000
G00 X6.7500 Y5.2500
G01 Z-1.8000
G01 Z0
G00 Z1.0000
G00 X11.4000 Y7.0000
G01 Z-1.8000
G01 Z0
G00 Z1.0000
G00 X15.9000 Y9.4000
G01 Z-1.8000
G01 Z0
G00 Z1.0000
G00 X18.8000 Y7.7000
G01 Z-1.8000
G01 Z0
G00 Z1.0000
G00 X21.9000 Y7.8000
G01 Z-1.8000
G01 Z0
G00 Z1.0000
G00 X33.7500 Y3.7500
G01 Z-1.8000
G01 Z0
G00 Z1.0000
G00 X36.2900 Y3.7500
G01 Z-1.8000
G01 Z0
G00 Z1.0000
G00 X38.8300 Y3.7500
G01 Z-1.8000
G01 Z0
G00 Z1.0000
G00 X41.3700 Y3.7500
G01 Z-1.8000
G01 Z0
G00 Z1.0000
G00 X43.3000 Y15.1000
G01 Z-1.8000
G01 Z0
G00 Z1.0000
G00 X23.0000 Y17.6000
G01 Z-1.8000
G01 Z0
G00 Z1.0000
G00 X23.0000 Y22.5000
G01 Z-1.8000
G01 Z0
G00 Z1.0000
G00 X19.2500 Y20.7500
G01 Z-1.8000
G01 Z0
G00 Z1.0000
G00 X18.4000 Y16.9000
G01 Z-1.8000
G01 Z0
G00 Z1.0000
G00 X17.6000 Y13.9000
G01 Z-1.8000
G01 Z0
G00 Z1.0000
G00 X7.3300 Y22.2500
G01 Z-1.8000
G01 Z0
G00 Z1.0000
G00 X4.7900 Y22.2500
G01 Z-1.8000
G01 Z0
G00 Z1.0000
G00 X2.2500 Y22.2500
G01 Z-1.8000
G01 Z0
G00 Z1.0000
M05
G00 Z5.00


