(G-CODE GENERATED BY FLATCAM v8.994 - www.flatcam.org - Version Date: 2020/11/7)

(Name: doorbell-PTH.drl_cnc)
(Type: G-code from Geometry)
(Units: MM)

(Created on Samedi, 31 juillet 2021 at 10:28)

(This preprocessor is the default preprocessor used by FlatCAM.)
(It is made to work with MACH3 compatible motion controllers.)


(TOOLS DIAMETER: )
(Tool: 1 -> Dia: 0.6)

(FEEDRATE Z: )
(Tool: 1 -> Feedrate: 50.0)

(FEEDRATE RAPIDS: )
(Tool: 1 -> Feedrate Rapids: 1500)

(Z_CUT: )
(Tool: 1 -> Z_Cut: -2.0)

(Tools Offset: )
(Tool: 1 -> Offset Z: 0.0)

(Z_MOVE: )
(Tool: 1 -> Z_Move: 1.0)

(Z Toolchange: 10.0 mm)
(X,Y Toolchange: 0.0000, 0.0000 mm)
(Z Start: None mm)
(Z End: 10.0 mm)
(X,Y End: None mm)
(Steps per circle: 64)
(Preprocessor Excellon: default)

(X range:    1.2000 ...   41.6000  mm)
(Y range:    2.2790 ...   22.8000  mm)

(Spindle Speed: 8000 RPM)
G21
G90
G94

G01 F50.00

M5
G00 Z10.0000
T1
G00 X0.0000 Y0.0000                
M6
(MSG, Change to Tool Dia = 0.6000 ||| Total drills for tool T1 = 11)
M0
G00 Z10.0000

G01 F50.00
M03 S500
G4 P0.5
M03 S1000
G4 P0.5
M03 S5000
G4 P0.5
M03 S8000
G00 X1.5000 Y9.7000
G01 Z-2.0000
G01 Z0
G00 Z1.0000
G00 X6.7000 Y10.8000
G01 Z-2.0000
G01 Z0
G00 Z1.0000
G00 X16.5790 Y2.5790
G01 Z-2.0000
G01 Z0
G00 Z1.0000
G00 X19.0000 Y7.0000
G01 Z-2.0000
G01 Z0
G00 Z1.0000
G00 X36.6000 Y6.2000
G01 Z-2.0000
G01 Z0
G00 Z1.0000
G00 X41.3000 Y6.2000
G01 Z-2.0000
G01 Z0
G00 Z1.0000
G00 X24.5000 Y22.5000
G01 Z-2.0000
G01 Z0
G00 Z1.0000
G00 X19.0000 Y22.5000
G01 Z-2.0000
G01 Z0
G00 Z1.0000
G00 X16.4000 Y15.9000
G01 Z-2.0000
G01 Z0
G00 Z1.0000
G00 X6.3500 Y18.1500
G01 Z-2.0000
G01 Z0
G00 Z1.0000
G00 X6.7000 Y14.2000
G01 Z-2.0000
G01 Z0
G00 Z1.0000
M05
G00 Z10.00


