(G-CODE GENERATED BY FLATCAM v8.994 - www.flatcam.org - Version Date: 2020/11/7)

(Name: F_Cu_Space06_cnc)
(Type: G-code from Geometry)
(Units: MM)

(Created on Dimanche, 01 août 2021 at 10:30)

(This preprocessor is the default preprocessor used by FlatCAM.)
(It is made to work with MACH3 compatible motion controllers.)

(TOOL DIAMETER: 0.1 mm)
(Feedrate_XY: 100.0 mm/min)
(Feedrate_Z: 50.0 mm/min)
(Feedrate rapids 1500.0 mm/min)

(Z_Cut: -0.05 mm)
(Z_Move: 1.0 mm)
(Z Start: None mm)
(Z End: 5.0 mm)
(X,Y End: None mm)
(Steps per circle: 64)
(Preprocessor Geometry: default)

(X range:    0.2500 ...   42.3751  mm)
(Y range:    0.6249 ...   24.6500  mm)

(Spindle Speed: 10000.0 RPM)
G21
G90
G94

G01 F100.00

M5
G00 Z5.0000
G00 X0.0000 Y0.0000
T1
M6    
(MSG, Change to Tool Dia = 0.1000)
M0
G00 Z5.0000

M03 S500
G4 P0.5
M03 S1000
G4 P0.5
M03 S1500
G4 P0.5
M03 S2000
G01 F100.00
G00 X2.1157 Y5.3999
G01 F50.00
G01 Z-0.0500
G01 F100.00
G01 X2.0914 Y5.3854
G01 X2.0648 Y5.3728
G01 X2.0371 Y5.3629
G01 X2.0085 Y5.3558
G01 X1.9794 Y5.3514
G01 X1.9512 Y5.3500
G01 X1.8501 Y5.3500
G01 X1.8501 Y4.9281
G01 X1.9288 Y4.8493
G01 X2.1922 Y4.8466
G01 X2.3078 Y4.8580
G01 X2.3228 Y4.8625
G01 X2.3373 Y4.8662
G01 X2.3569 Y4.8691
G01 X2.3730 Y4.8698
G01 X2.3904 Y4.8690
G01 X2.4075 Y4.8664
G01 X2.4232 Y4.8625
G01 X2.4408 Y4.8564
G01 X2.4586 Y4.8477
G01 X2.4714 Y4.8400
G01 X2.4834 Y4.8311
G01 X2.4982 Y4.8180
G01 X2.5114 Y4.8032
G01 X2.5202 Y4.7911
G01 X2.5279 Y4.7784
G01 X2.5366 Y4.7605
G01 X2.5428 Y4.7430
G01 X2.5467 Y4.7273
G01 X2.5489 Y4.7126
G01 X2.5501 Y4.6928
G01 X2.5501 Y3.5107
G01 X2.5493 Y3.4946
G01 X2.5468 Y3.4689
G01 X2.5501 Y3.3547
G01 X2.5501 Y2.6453
G01 X2.5468 Y2.5311
G01 X2.5580 Y2.4172
G01 X2.5895 Y2.3135
G01 X2.6405 Y2.2180
G01 X2.7093 Y2.1343
G01 X2.7930 Y2.0655
G01 X2.8885 Y2.0145
G01 X2.9922 Y1.9830
G01 X3.1069 Y1.9717
G01 X3.1954 Y1.9736
G01 X3.2749 Y2.0531
G01 X3.2749 Y2.4730
G01 X3.2753 Y2.4820
G01 X3.2540 Y2.4874
G01 X3.2275 Y2.4969
G01 X3.2020 Y2.5089
G01 X3.1798 Y2.5221
G01 X3.1533 Y2.5419
G01 X3.1342 Y2.5592
G01 X3.1153 Y2.5801
G01 X3.0985 Y2.6028
G01 X3.0839 Y2.6270
G01 X3.0719 Y2.6525
G01 X3.0631 Y2.6767
G01 X3.0551 Y2.7088
G01 X3.0514 Y2.7343
G01 X3.0500 Y2.7625
G01 X3.0500 Y3.2387
G01 X3.0512 Y3.2640
G01 X3.0545 Y3.2880
G01 X3.0617 Y3.3184
G01 X3.0694 Y3.3414
G01 X3.0792 Y3.3636
G01 X3.0931 Y3.3888
G01 X3.1081 Y3.4108
G01 X3.1235 Y3.4294
G01 X3.1447 Y3.4507
G01 X3.1642 Y3.4669
G01 X3.1842 Y3.4807
G01 X3.2104 Y3.4954
G01 X3.2336 Y3.5056
G01 X3.2577 Y3.5137
G01 X3.2835 Y3.5199
G01 X3.2999 Y3.5223
G01 X3.2999 Y4.8200
G01 X3.2238 Y4.8200
G01 X3.2177 Y4.8205
G01 X3.2105 Y4.8222
G01 X3.2047 Y4.8243
G01 X3.1993 Y4.8271
G01 X3.1942 Y4.8306
G01 X3.1888 Y4.8355
G01 X3.1848 Y4.8402
G01 X3.1809 Y4.8464
G01 X3.1779 Y4.8532
G01 X3.1762 Y4.8590
G01 X3.1754 Y4.8639
G01 X3.1750 Y4.8700
G01 X3.1750 Y5.3999
G01 X2.1157 Y5.3999
G00 Z1.0000
G00 X0.7621 Y7.6157
G01 F50.00
G01 Z-0.0500
G01 F100.00
G01 X0.7703 Y7.5916
G01 X0.7805 Y7.5684
G01 X0.7949 Y7.5421
G01 X0.8120 Y7.5174
G01 X0.8283 Y7.4979
G01 X0.8479 Y7.4783
G01 X0.8711 Y7.4592
G01 X0.8921 Y7.4449
G01 X0.9163 Y7.4315
G01 X0.9416 Y7.4203
G01 X0.9657 Y7.4121
G01 X0.9960 Y7.4049
G01 X1.0223 Y7.4013
G01 X1.0500 Y7.4000
G01 X1.9500 Y7.4000
G01 X1.9794 Y7.4014
G01 X2.0085 Y7.4058
G01 X2.0394 Y7.4137
G01 X2.0648 Y7.4228
G01 X2.0892 Y7.4343
G01 X2.1167 Y7.4506
G01 X2.1422 Y7.4697
G01 X2.1621 Y7.4879
G01 X2.1803 Y7.5078
G01 X2.1994 Y7.5333
G01 X2.2157 Y7.5608
G01 X2.2272 Y7.5852
G01 X2.2363 Y7.6106
G01 X2.2447 Y7.6439
G01 X2.2486 Y7.6706
G01 X2.2500 Y7.6988
G01 X2.2500 Y8.0999
G01 X3.1750 Y8.0999
G01 X3.1750 Y7.5688
G01 X3.1754 Y7.5639
G01 X3.1765 Y7.5579
G01 X3.1779 Y7.5532
G01 X3.1803 Y7.5475
G01 X3.1828 Y7.5433
G01 X3.1863 Y7.5383
G01 X3.1896 Y7.5346
G01 X3.1942 Y7.5306
G01 X3.2014 Y7.5259
G01 X3.2082 Y7.5229
G01 X3.2165 Y7.5207
G01 X3.2250 Y7.5200
G01 X3.8750 Y7.5200
G01 X3.8799 Y7.5202
G01 X3.8860 Y7.5212
G01 X3.8918 Y7.5229
G01 X3.8964 Y7.5248
G01 X3.9017 Y7.5278
G01 X3.9077 Y7.5321
G01 X3.9120 Y7.5364
G01 X3.9166 Y7.5422
G01 X3.9202 Y7.5486
G01 X3.9225 Y7.5543
G01 X3.9243 Y7.5615
G01 X3.9250 Y7.5688
G01 X3.9250 Y9.1300
G01 X3.9248 Y9.1349
G01 X3.9238 Y9.1410
G01 X3.9225 Y9.1457
G01 X3.9202 Y9.1514
G01 X3.9166 Y9.1578
G01 X3.9129 Y9.1627
G01 X3.9077 Y9.1679
G01 X3.9017 Y9.1722
G01 X3.8964 Y9.1752
G01 X3.8895 Y9.1778
G01 X3.8823 Y9.1795
G01 X3.8762 Y9.1800
G01 X3.2238 Y9.1800
G01 X3.2165 Y9.1793
G01 X3.2093 Y9.1775
G01 X3.2014 Y9.1741
G01 X3.1952 Y9.1702
G01 X3.1905 Y9.1662
G01 X3.1863 Y9.1617
G01 X3.1828 Y9.1567
G01 X3.1803 Y9.1525
G01 X3.1779 Y9.1468
G01 X3.1765 Y9.1421
G01 X3.1754 Y9.1361
G01 X3.1750 Y9.1312
G01 X3.1750 Y8.6001
G01 X2.1157 Y8.6001
G01 X2.0914 Y8.6146
G01 X2.0648 Y8.6272
G01 X2.0371 Y8.6371
G01 X2.0085 Y8.6442
G01 X1.9794 Y8.6486
G01 X1.9512 Y8.6500
G01 X1.8501 Y8.6500
G01 X1.8502 Y8.9264
G01 X1.9007 Y8.9504
G01 X1.9702 Y8.9919
G01 X2.0383 Y9.0422
G01 X2.1010 Y9.0990
G01 X2.1563 Y9.1598
G01 X2.2067 Y9.2278
G01 X2.2496 Y9.2993
G01 X2.2853 Y9.3747
G01 X2.3134 Y9.4533
G01 X2.3337 Y9.5342
G01 X2.3456 Y9.6142
G01 X2.3499 Y9.7025
G01 X2.3459 Y9.7833
G01 X2.3337 Y9.8658
G01 X2.3134 Y9.9467
G01 X2.2853 Y10.0253
G01 X2.2496 Y10.1007
G01 X2.2067 Y10.1722
G01 X2.1571 Y10.2392
G01 X2.1010 Y10.3010
G01 X2.0392 Y10.3571
G01 X1.9722 Y10.4067
G01 X1.9007 Y10.4496
G01 X1.8230 Y10.4862
G01 X1.7467 Y10.5134
G01 X1.6658 Y10.5337
G01 X1.5833 Y10.5459
G01 X1.4975 Y10.5499
G01 X1.4167 Y10.5459
G01 X1.3366 Y10.5341
G01 X1.2556 Y10.5141
G01 X1.1747 Y10.4853
G01 X1.1015 Y10.4507
G01 X1.0278 Y10.4067
G01 X0.9589 Y10.3555
G01 X0.8990 Y10.3010
G01 X0.8445 Y10.2411
G01 X0.7933 Y10.1722
G01 X0.7504 Y10.1007
G01 X0.7138 Y10.0230
G01 X0.6866 Y9.9467
G01 X0.6669 Y9.8682
G01 X0.6542 Y9.7845
G01 X0.6501 Y9.6975
G01 X0.6541 Y9.6167
G01 X0.6663 Y9.5342
G01 X0.6866 Y9.4533
G01 X0.7138 Y9.3770
G01 X0.7510 Y9.2982
G01 X0.7933 Y9.2278
G01 X0.8414 Y9.1627
G01 X0.8998 Y9.0981
G01 X0.9608 Y9.0429
G01 X1.0268 Y8.9939
G01 X1.0993 Y8.9504
G01 X1.1499 Y8.9264
G01 X1.1498 Y8.6500
G01 X1.0488 Y8.6500
G01 X1.0182 Y8.6483
G01 X0.9915 Y8.6442
G01 X0.9629 Y8.6371
G01 X0.9352 Y8.6272
G01 X0.9086 Y8.6146
G01 X0.8833 Y8.5994
G01 X0.8597 Y8.5819
G01 X0.8379 Y8.5621
G01 X0.8181 Y8.5403
G01 X0.8006 Y8.5167
G01 X0.7854 Y8.4914
G01 X0.7728 Y8.4648
G01 X0.7629 Y8.4371
G01 X0.7558 Y8.4085
G01 X0.7517 Y8.3818
G01 X0.7500 Y8.3500
G01 X0.7500 Y7.6988
G01 X0.7513 Y7.6723
G01 X0.7547 Y7.6472
G01 X0.7621 Y7.6157
G00 Z1.0000
G00 X4.1498 Y9.1732
G01 F50.00
G01 Z-0.0500
G01 F100.00
G01 X4.1442 Y9.1694
G01 X4.1396 Y9.1654
G01 X4.1356 Y9.1608
G01 X4.1321 Y9.1557
G01 X4.1293 Y9.1503
G01 X4.1272 Y9.1445
G01 X4.1257 Y9.1385
G01 X4.1250 Y9.1312
G01 X4.1250 Y7.5700
G01 X4.1257 Y7.5615
G01 X4.1279 Y7.5532
G01 X4.1298 Y7.5486
G01 X4.1328 Y7.5433
G01 X4.1363 Y7.5383
G01 X4.1405 Y7.5338
G01 X4.1452 Y7.5298
G01 X4.1504 Y7.5265
G01 X4.1559 Y7.5238
G01 X4.1617 Y7.5218
G01 X4.1677 Y7.5205
G01 X4.1738 Y7.5200
G01 X4.2499 Y7.5200
G01 X4.2499 Y7.3988
G01 X4.2511 Y7.3755
G01 X4.2547 Y7.3512
G01 X4.2614 Y7.3251
G01 X4.2689 Y7.3043
G01 X4.2783 Y7.2843
G01 X4.2920 Y7.2611
G01 X4.3075 Y7.2404
G01 X4.3232 Y7.2232
G01 X5.0856 Y6.4607
G01 X5.0809 Y6.4536
G01 X5.0775 Y6.4457
G01 X5.0757 Y6.4385
G01 X5.0750 Y6.4300
G01 X5.0751 Y4.8675
G01 X5.0760 Y4.8602
G01 X5.0775 Y4.8543
G01 X5.0803 Y4.8475
G01 X5.0841 Y4.8412
G01 X5.0888 Y4.8355
G01 X5.0942 Y4.8306
G01 X5.1004 Y4.8265
G01 X5.1070 Y4.8234
G01 X5.1152 Y4.8210
G01 X5.1238 Y4.8200
G01 X5.1999 Y4.8200
G01 X5.1999 Y3.5250
G01 X5.0875 Y3.5250
G01 X5.0593 Y3.5236
G01 X5.0290 Y3.5189
G01 X5.0040 Y3.5126
G01 X4.9775 Y3.5031
G01 X4.9520 Y3.4911
G01 X4.9278 Y3.4765
G01 X4.9051 Y3.4597
G01 X4.8860 Y3.4425
G01 X4.8637 Y3.4180
G01 X4.8485 Y3.3972
G01 X4.8328 Y3.3708
G01 X4.8210 Y3.3452
G01 X4.8124 Y3.3210
G01 X4.8061 Y3.2960
G01 X4.8014 Y3.2657
G01 X4.8001 Y3.2400
G01 X4.8000 Y2.7625
G01 X4.8014 Y2.7343
G01 X4.8058 Y2.7052
G01 X4.8124 Y2.6790
G01 X4.8210 Y2.6548
G01 X4.8339 Y2.6270
G01 X4.8485 Y2.6028
G01 X4.8637 Y2.5820
G01 X4.8842 Y2.5592
G01 X4.9070 Y2.5387
G01 X4.9278 Y2.5235
G01 X4.9520 Y2.5089
G01 X4.9798 Y2.4960
G01 X5.0040 Y2.4874
G01 X5.0290 Y2.4811
G01 X5.0593 Y2.4764
G01 X5.0875 Y2.4750
G01 X5.6625 Y2.4750
G01 X5.6907 Y2.4764
G01 X5.7198 Y2.4808
G01 X5.7460 Y2.4874
G01 X5.7725 Y2.4969
G01 X5.7980 Y2.5089
G01 X5.8202 Y2.5221
G01 X5.8467 Y2.5419
G01 X5.8658 Y2.5592
G01 X5.8847 Y2.5801
G01 X5.9015 Y2.6028
G01 X5.9148 Y2.6248
G01 X5.9290 Y2.6548
G01 X5.9376 Y2.6790
G01 X5.9445 Y2.7064
G01 X5.9486 Y2.7343
G01 X5.9500 Y2.7613
G01 X5.9500 Y3.2387
G01 X5.9486 Y3.2657
G01 X5.9449 Y3.2912
G01 X5.9372 Y3.3221
G01 X5.9281 Y3.3475
G01 X5.9172 Y3.3708
G01 X5.9015 Y3.3972
G01 X5.8831 Y3.4217
G01 X5.8658 Y3.4408
G01 X5.8458 Y3.4590
G01 X5.8202 Y3.4779
G01 X5.7980 Y3.4911
G01 X5.7736 Y3.5026
G01 X5.7448 Y3.5130
G01 X5.7186 Y3.5195
G01 X5.7001 Y3.5223
G01 X5.7001 Y4.8200
G01 X5.7762 Y4.8200
G01 X5.7848 Y4.8210
G01 X5.7930 Y4.8234
G01 X5.7996 Y4.8265
G01 X5.8048 Y4.8298
G01 X5.8104 Y4.8346
G01 X5.8152 Y4.8402
G01 X5.8191 Y4.8464
G01 X5.8221 Y4.8532
G01 X5.8240 Y4.8602
G01 X5.8249 Y4.8675
G01 X5.8250 Y6.4300
G01 X5.8246 Y6.4361
G01 X5.8232 Y6.4433
G01 X5.8207 Y6.4503
G01 X5.8179 Y6.4557
G01 X5.8137 Y6.4617
G01 X5.8095 Y6.4662
G01 X5.8038 Y6.4709
G01 X5.7975 Y6.4747
G01 X5.7918 Y6.4771
G01 X5.7835 Y6.4793
G01 X5.7762 Y6.4800
G01 X5.6981 Y6.4800
G01 X5.6953 Y6.4988
G01 X5.6893 Y6.5226
G01 X5.6811 Y6.5457
G01 X5.6717 Y6.5657
G01 X5.6565 Y6.5910
G01 X5.6433 Y6.6087
G01 X5.6285 Y6.6251
G01 X4.7501 Y7.5036
G01 X4.7501 Y7.5200
G01 X4.8275 Y7.5201
G01 X4.8335 Y7.5207
G01 X4.8383 Y7.5218
G01 X4.8475 Y7.5253
G01 X4.8528 Y7.5284
G01 X4.8586 Y7.5330
G01 X4.8629 Y7.5373
G01 X4.8666 Y7.5422
G01 X4.8702 Y7.5486
G01 X4.8725 Y7.5543
G01 X4.8740 Y7.5602
G01 X4.8749 Y7.5675
G01 X4.8750 Y9.1312
G01 X4.8745 Y9.1373
G01 X4.8728 Y9.1445
G01 X4.8707 Y9.1503
G01 X4.8679 Y9.1557
G01 X4.8644 Y9.1608
G01 X4.8604 Y9.1654
G01 X4.8558 Y9.1694
G01 X4.8501 Y9.1732
G01 X4.8502 Y9.4850
G01 X5.8150 Y10.4499
G01 X5.9264 Y10.4498
G01 X5.9504 Y10.3993
G01 X5.9919 Y10.3298
G01 X6.0422 Y10.2617
G01 X6.0990 Y10.1990
G01 X6.1598 Y10.1437
G01 X6.2278 Y10.0933
G01 X6.2993 Y10.0504
G01 X6.3747 Y10.0147
G01 X6.4556 Y9.9859
G01 X6.5366 Y9.9659
G01 X6.6167 Y9.9541
G01 X6.6975 Y9.9501
G01 X6.7833 Y9.9541
G01 X6.8634 Y9.9659
G01 X6.9467 Y9.9866
G01 X7.0253 Y10.0147
G01 X7.1007 Y10.0504
G01 X7.1712 Y10.0926
G01 X7.2411 Y10.1445
G01 X7.3010 Y10.1990
G01 X7.3571 Y10.2608
G01 X7.4081 Y10.3298
G01 X7.4496 Y10.3993
G01 X7.4848 Y10.4736
G01 X7.5134 Y10.5533
G01 X7.5337 Y10.6342
G01 X7.5459 Y10.7167
G01 X7.5500 Y10.7988
G01 X7.5459 Y10.8833
G01 X7.5339 Y10.9646
G01 X7.5134 Y11.0467
G01 X7.4946 Y11.0994
G01 X7.7450 Y11.3499
G01 X9.5731 Y11.3498
G01 X9.5839 Y11.3270
G01 X9.5971 Y11.3048
G01 X9.6137 Y11.2820
G01 X9.6342 Y11.2592
G01 X9.6551 Y11.2403
G01 X9.6798 Y11.2221
G01 X9.7020 Y11.2089
G01 X9.7252 Y11.1979
G01 X9.7540 Y11.1874
G01 X9.7838 Y11.1801
G01 X9.8093 Y11.1764
G01 X9.8375 Y11.1750
G01 X10.4137 Y11.1750
G01 X10.4407 Y11.1764
G01 X10.4686 Y11.1805
G01 X10.4960 Y11.1874
G01 X10.5236 Y11.1974
G01 X10.5502 Y11.2102
G01 X10.5722 Y11.2235
G01 X10.5930 Y11.2387
G01 X10.6158 Y11.2592
G01 X10.6347 Y11.2801
G01 X10.6529 Y11.3048
G01 X10.6661 Y11.3270
G01 X10.6771 Y11.3502
G01 X10.6876 Y11.3790
G01 X10.6947 Y11.4076
G01 X10.6986 Y11.4343
G01 X10.7000 Y11.4625
G01 X10.7000 Y11.9387
G01 X10.6986 Y11.9657
G01 X10.6945 Y11.9936
G01 X10.6876 Y12.0210
G01 X10.6776 Y12.0486
G01 X10.6648 Y12.0752
G01 X10.6515 Y12.0972
G01 X10.6363 Y12.1180
G01 X10.6158 Y12.1408
G01 X10.5949 Y12.1597
G01 X10.5702 Y12.1779
G01 X10.5480 Y12.1911
G01 X10.5248 Y12.2021
G01 X10.4960 Y12.2126
G01 X10.4686 Y12.2195
G01 X10.4407 Y12.2236
G01 X10.4125 Y12.2250
G01 X9.8375 Y12.2250
G01 X9.8069 Y12.2233
G01 X9.7814 Y12.2195
G01 X9.7540 Y12.2126
G01 X9.7252 Y12.2021
G01 X9.7020 Y12.1911
G01 X9.6778 Y12.1765
G01 X9.6533 Y12.1581
G01 X9.6342 Y12.1408
G01 X9.6153 Y12.1199
G01 X9.5971 Y12.0952
G01 X9.5839 Y12.0730
G01 X9.5731 Y12.0501
G01 X7.6000 Y12.0501
G01 X7.5657 Y12.0485
G01 X7.5317 Y12.0434
G01 X7.5007 Y12.0357
G01 X7.4660 Y12.0235
G01 X7.4328 Y12.0076
G01 X7.4055 Y11.9911
G01 X7.3779 Y11.9707
G01 X7.3524 Y11.9476
G01 X6.9994 Y11.5946
G01 X6.9467 Y11.6134
G01 X6.8646 Y11.6339
G01 X6.7833 Y11.6459
G01 X6.6988 Y11.6500
G01 X6.6167 Y11.6459
G01 X6.5342 Y11.6337
G01 X6.4533 Y11.6134
G01 X6.3736 Y11.5848
G01 X6.2993 Y11.5496
G01 X6.2278 Y11.5067
G01 X6.1608 Y11.4571
G01 X6.0998 Y11.4019
G01 X6.0429 Y11.3392
G01 X5.9939 Y11.2732
G01 X5.9504 Y11.2007
G01 X5.9264 Y11.1501
G01 X5.6688 Y11.1501
G01 X5.6357 Y11.1485
G01 X5.6029 Y11.1436
G01 X5.5684 Y11.1351
G01 X5.5338 Y11.1225
G01 X5.5049 Y11.1088
G01 X5.4775 Y11.0925
G01 X5.4479 Y11.0707
G01 X5.4224 Y11.0476
G01 X4.2507 Y9.8758
G01 X4.2293 Y9.8521
G01 X4.2103 Y9.8265
G01 X4.1901 Y9.7929
G01 X4.1765 Y9.7640
G01 X4.1649 Y9.7316
G01 X4.1566 Y9.6983
G01 X4.1518 Y9.6668
G01 X4.1499 Y9.6300
G01 X4.1498 Y9.1732
G00 Z1.0000
G00 X5.1250 Y7.5200
G01 F50.00
G01 Z-0.0500
G01 F100.00
G01 X5.7762 Y7.5200
G01 X5.7835 Y7.5207
G01 X5.7918 Y7.5229
G01 X5.7996 Y7.5265
G01 X5.8067 Y7.5313
G01 X5.8104 Y7.5346
G01 X5.8144 Y7.5392
G01 X5.8197 Y7.5475
G01 X5.8216 Y7.5520
G01 X5.8235 Y7.5579
G01 X5.8246 Y7.5639
G01 X5.8250 Y7.5688
G01 X5.8250 Y8.0999
G01 X6.8589 Y8.0999
G01 X7.0250 Y7.9338
G01 X7.0250 Y7.4125
G01 X7.0263 Y7.3868
G01 X7.0300 Y7.3613
G01 X7.0356 Y7.3387
G01 X7.0460 Y7.3098
G01 X7.0560 Y7.2888
G01 X7.0692 Y7.2667
G01 X7.0846 Y7.2460
G01 X7.1002 Y7.2287
G01 X7.1229 Y7.2081
G01 X7.1417 Y7.1942
G01 X7.1660 Y7.1799
G01 X7.1870 Y7.1700
G01 X7.2113 Y7.1613
G01 X7.2363 Y7.1550
G01 X7.2606 Y7.1514
G01 X7.2875 Y7.1500
G01 X7.7125 Y7.1500
G01 X7.7394 Y7.1514
G01 X7.7661 Y7.1556
G01 X7.7887 Y7.1613
G01 X7.8107 Y7.1691
G01 X7.8362 Y7.1810
G01 X7.8603 Y7.1957
G01 X7.8790 Y7.2096
G01 X7.8963 Y7.2252
G01 X7.9154 Y7.2460
G01 X7.9321 Y7.2687
G01 X7.9440 Y7.2888
G01 X7.9540 Y7.3098
G01 X7.9637 Y7.3363
G01 X7.9700 Y7.3613
G01 X7.9737 Y7.3868
G01 X7.9750 Y7.4113
G01 X7.9750 Y7.9338
G01 X8.2121 Y8.1709
G01 X10.2355 Y8.1709
G01 X10.2355 Y7.2133
G01 X10.2362 Y7.2060
G01 X10.2384 Y7.1977
G01 X10.2414 Y7.1909
G01 X10.2461 Y7.1837
G01 X10.2510 Y7.1783
G01 X10.2577 Y7.1729
G01 X10.2652 Y7.1688
G01 X10.2722 Y7.1663
G01 X10.2794 Y7.1649
G01 X10.2855 Y7.1645
G01 X13.7145 Y7.1645
G01 X13.7206 Y7.1649
G01 X13.7266 Y7.1660
G01 X13.7348 Y7.1688
G01 X13.7423 Y7.1729
G01 X13.7481 Y7.1775
G01 X13.7539 Y7.1837
G01 X13.7580 Y7.1899
G01 X13.7616 Y7.1977
G01 X13.7638 Y7.2060
G01 X13.7645 Y7.2133
G01 X13.7645 Y9.6275
G01 X13.7641 Y9.6336
G01 X13.7630 Y9.6396
G01 X13.7602 Y9.6478
G01 X13.7561 Y9.6553
G01 X13.7507 Y9.6620
G01 X13.7453 Y9.6669
G01 X13.7381 Y9.6716
G01 X13.7302 Y9.6750
G01 X13.7230 Y9.6768
G01 X13.7145 Y9.6775
G01 X10.2855 Y9.6775
G01 X10.2757 Y9.6765
G01 X10.2675 Y9.6741
G01 X10.2598 Y9.6704
G01 X10.2538 Y9.6662
G01 X10.2476 Y9.6602
G01 X10.2426 Y9.6532
G01 X10.2389 Y9.6455
G01 X10.2365 Y9.6373
G01 X10.2356 Y9.6300
G01 X10.2355 Y8.6711
G01 X8.1085 Y8.6711
G01 X8.0852 Y8.6700
G01 X8.0597 Y8.6663
G01 X8.0336 Y8.6596
G01 X8.0128 Y8.6521
G01 X7.9928 Y8.6427
G01 X7.9685 Y8.6283
G01 X7.9498 Y8.6143
G01 X7.9325 Y8.5987
G01 X7.7952 Y8.4614
G01 X7.7875 Y8.4640
G01 X7.7625 Y8.4702
G01 X7.7382 Y8.4737
G01 X7.7137 Y8.4750
G01 X7.2875 Y8.4750
G01 X7.2618 Y8.4737
G01 X7.2375 Y8.4702
G01 X7.2125 Y8.4640
G01 X7.2048 Y8.4614
G01 X7.1385 Y8.5277
G01 X7.1212 Y8.5433
G01 X7.1004 Y8.5586
G01 X7.0782 Y8.5717
G01 X7.0582 Y8.5811
G01 X7.0374 Y8.5886
G01 X7.0113 Y8.5953
G01 X6.9858 Y8.5990
G01 X6.9625 Y8.6001
G01 X5.8250 Y8.6001
G01 X5.8250 Y9.1312
G01 X5.8246 Y9.1361
G01 X5.8235 Y9.1421
G01 X5.8216 Y9.1480
G01 X5.8197 Y9.1525
G01 X5.8144 Y9.1608
G01 X5.8104 Y9.1654
G01 X5.8067 Y9.1687
G01 X5.8007 Y9.1729
G01 X5.7930 Y9.1766
G01 X5.7848 Y9.1790
G01 X5.7762 Y9.1800
G01 X5.1250 Y9.1800
G01 X5.1189 Y9.1796
G01 X5.1129 Y9.1785
G01 X5.1047 Y9.1757
G01 X5.0972 Y9.1716
G01 X5.0905 Y9.1662
G01 X5.0856 Y9.1608
G01 X5.0815 Y9.1546
G01 X5.0779 Y9.1468
G01 X5.0757 Y9.1385
G01 X5.0750 Y9.1312
G01 X5.0750 Y7.5700
G01 X5.0760 Y7.5602
G01 X5.0788 Y7.5509
G01 X5.0834 Y7.5422
G01 X5.0896 Y7.5346
G01 X5.0972 Y7.5284
G01 X5.1059 Y7.5238
G01 X5.1152 Y7.5210
G01 X5.1250 Y7.5200
G00 Z1.0000
G00 X6.9994 Y14.9946
G01 F50.00
G01 Z-0.0500
G01 F100.00
G01 X6.9467 Y15.0134
G01 X6.8646 Y15.0339
G01 X6.7833 Y15.0459
G01 X6.6988 Y15.0500
G01 X6.6167 Y15.0459
G01 X6.5342 Y15.0337
G01 X6.4533 Y15.0134
G01 X6.3736 Y14.9848
G01 X6.2993 Y14.9496
G01 X6.2278 Y14.9067
G01 X6.1608 Y14.8571
G01 X6.0990 Y14.8010
G01 X6.0429 Y14.7392
G01 X5.9933 Y14.6722
G01 X5.9504 Y14.6007
G01 X5.9143 Y14.5241
G01 X5.8866 Y14.4467
G01 X5.8663 Y14.3658
G01 X5.8541 Y14.2833
G01 X5.8500 Y14.2000
G01 X5.8541 Y14.1167
G01 X5.8663 Y14.0342
G01 X5.8866 Y13.9533
G01 X5.9147 Y13.8747
G01 X5.9504 Y13.7993
G01 X5.9933 Y13.7278
G01 X6.0429 Y13.6608
G01 X6.0990 Y13.5990
G01 X6.1608 Y13.5429
G01 X6.2278 Y13.4933
G01 X6.2993 Y13.4504
G01 X6.3759 Y13.4142
G01 X6.4533 Y13.3866
G01 X6.5318 Y13.3669
G01 X6.6167 Y13.3541
G01 X6.7025 Y13.3501
G01 X6.7833 Y13.3541
G01 X6.8658 Y13.3663
G01 X6.9491 Y13.3874
G01 X7.0253 Y13.4147
G01 X7.1007 Y13.4504
G01 X7.1722 Y13.4933
G01 X7.2373 Y13.5414
G01 X7.3010 Y13.5990
G01 X7.3586 Y13.6627
G01 X7.4068 Y13.7278
G01 X7.4496 Y13.7993
G01 X7.4862 Y13.8770
G01 X7.5134 Y13.9533
G01 X7.5334 Y14.0330
G01 X7.5461 Y14.1191
G01 X7.5500 Y14.2000
G01 X7.5460 Y14.2821
G01 X7.5334 Y14.3670
G01 X7.5134 Y14.4467
G01 X7.4946 Y14.4994
G01 X7.9450 Y14.9499
G01 X9.5731 Y14.9498
G01 X9.5839 Y14.9270
G01 X9.5971 Y14.9048
G01 X9.6137 Y14.8820
G01 X9.6342 Y14.8592
G01 X9.6551 Y14.8403
G01 X9.6798 Y14.8221
G01 X9.7020 Y14.8089
G01 X9.7252 Y14.7979
G01 X9.7540 Y14.7874
G01 X9.7814 Y14.7805
G01 X9.8093 Y14.7764
G01 X9.8375 Y14.7750
G01 X10.4125 Y14.7750
G01 X10.4407 Y14.7764
G01 X10.4698 Y14.7808
G01 X10.4960 Y14.7874
G01 X10.5202 Y14.7960
G01 X10.5480 Y14.8089
G01 X10.5742 Y14.8249
G01 X10.5949 Y14.8403
G01 X10.6140 Y14.8575
G01 X10.6347 Y14.8801
G01 X10.6529 Y14.9048
G01 X10.6661 Y14.9270
G01 X10.6771 Y14.9502
G01 X10.6880 Y14.9802
G01 X10.6945 Y15.0064
G01 X10.6983 Y15.0319
G01 X10.7000 Y15.0625
G01 X10.7000 Y15.5375
G01 X10.6986 Y15.5657
G01 X10.6947 Y15.5924
G01 X10.6876 Y15.6210
G01 X10.6790 Y15.6452
G01 X10.6648 Y15.6752
G01 X10.6515 Y15.6972
G01 X10.6347 Y15.7199
G01 X10.6158 Y15.7408
G01 X10.5949 Y15.7597
G01 X10.5722 Y15.7765
G01 X10.5502 Y15.7898
G01 X10.5202 Y15.8040
G01 X10.4960 Y15.8126
G01 X10.4686 Y15.8195
G01 X10.4407 Y15.8236
G01 X10.4137 Y15.8250
G01 X9.8375 Y15.8250
G01 X9.8093 Y15.8236
G01 X9.7814 Y15.8195
G01 X9.7540 Y15.8126
G01 X9.7252 Y15.8021
G01 X9.7020 Y15.7911
G01 X9.6798 Y15.7779
G01 X9.6551 Y15.7597
G01 X9.6342 Y15.7408
G01 X9.6137 Y15.7180
G01 X9.5971 Y15.6952
G01 X9.5839 Y15.6730
G01 X9.5731 Y15.6501
G01 X7.8000 Y15.6501
G01 X7.7657 Y15.6485
G01 X7.7329 Y15.6436
G01 X7.6960 Y15.6343
G01 X7.6660 Y15.6235
G01 X7.6371 Y15.6099
G01 X7.6055 Y15.5911
G01 X7.5760 Y15.5691
G01 X7.5524 Y15.5476
G01 X6.9994 Y14.9946
G00 Z1.0000
G00 X9.0001 Y19.9825
G01 F50.00
G01 Z-0.0500
G01 F100.00
G01 X9.0010 Y19.9654
G01 X9.0038 Y19.9460
G01 X9.0086 Y19.9269
G01 X9.0152 Y19.9085
G01 X9.0236 Y19.8907
G01 X9.0337 Y19.8739
G01 X9.0454 Y19.8581
G01 X9.0569 Y19.8454
G01 X9.0751 Y19.8289
G01 X9.0889 Y19.8187
G01 X9.1079 Y19.8075
G01 X9.1235 Y19.8002
G01 X9.1419 Y19.7936
G01 X9.1610 Y19.7888
G01 X9.1816 Y19.7859
G01 X9.2000 Y19.7850
G01 X10.8512 Y19.7850
G01 X10.8696 Y19.7860
G01 X10.8866 Y19.7884
G01 X10.9081 Y19.7936
G01 X10.9265 Y19.8002
G01 X10.9421 Y19.8075
G01 X10.9620 Y19.8193
G01 X11.6249 Y19.1564
G01 X11.6249 Y15.8250
G01 X11.5863 Y15.8250
G01 X11.5593 Y15.8236
G01 X11.5314 Y15.8195
G01 X11.5040 Y15.8126
G01 X11.4775 Y15.8031
G01 X11.4520 Y15.7911
G01 X11.4278 Y15.7765
G01 X11.4033 Y15.7581
G01 X11.3842 Y15.7408
G01 X11.3637 Y15.7180
G01 X11.3485 Y15.6972
G01 X11.3352 Y15.6752
G01 X11.3229 Y15.6498
G01 X11.3124 Y15.6210
G01 X11.3055 Y15.5936
G01 X11.3014 Y15.5657
G01 X11.3000 Y15.5375
G01 X11.3001 Y15.0600
G01 X11.3014 Y15.0343
G01 X11.3055 Y15.0064
G01 X11.3124 Y14.9790
G01 X11.3219 Y14.9525
G01 X11.3339 Y14.9270
G01 X11.3471 Y14.9048
G01 X11.3669 Y14.8783
G01 X11.3842 Y14.8592
G01 X11.4051 Y14.8403
G01 X11.4278 Y14.8235
G01 X11.4498 Y14.8102
G01 X11.4798 Y14.7960
G01 X11.5040 Y14.7874
G01 X11.5314 Y14.7805
G01 X11.5618 Y14.7762
G01 X11.5863 Y14.7750
G01 X11.6249 Y14.7750
G01 X11.6249 Y14.0250
G01 X11.5863 Y14.0250
G01 X11.5618 Y14.0238
G01 X11.5314 Y14.0195
G01 X11.5040 Y14.0126
G01 X11.4798 Y14.0040
G01 X11.4498 Y13.9898
G01 X11.4278 Y13.9765
G01 X11.4051 Y13.9597
G01 X11.3842 Y13.9408
G01 X11.3669 Y13.9217
G01 X11.3471 Y13.8952
G01 X11.3339 Y13.8730
G01 X11.3219 Y13.8475
G01 X11.3124 Y13.8210
G01 X11.3055 Y13.7936
G01 X11.3014 Y13.7657
G01 X11.3000 Y13.7387
G01 X11.3000 Y13.2625
G01 X11.3014 Y13.2343
G01 X11.3061 Y13.2040
G01 X11.3124 Y13.1790
G01 X11.3219 Y13.1525
G01 X11.3339 Y13.1270
G01 X11.3471 Y13.1048
G01 X11.3669 Y13.0783
G01 X11.3842 Y13.0592
G01 X11.4051 Y13.0403
G01 X11.4278 Y13.0235
G01 X11.4498 Y13.0102
G01 X11.4798 Y12.9960
G01 X11.5040 Y12.9874
G01 X11.5290 Y12.9811
G01 X11.5593 Y12.9764
G01 X11.5875 Y12.9750
G01 X12.1637 Y12.9750
G01 X12.1907 Y12.9764
G01 X12.2186 Y12.9805
G01 X12.2460 Y12.9874
G01 X12.2748 Y12.9979
G01 X12.3002 Y13.0102
G01 X12.3222 Y13.0235
G01 X12.3430 Y13.0387
G01 X12.3658 Y13.0592
G01 X12.3847 Y13.0801
G01 X12.4015 Y13.1028
G01 X12.4172 Y13.1292
G01 X12.4281 Y13.1525
G01 X12.4369 Y13.1767
G01 X12.4442 Y13.2052
G01 X12.4486 Y13.2343
G01 X12.4500 Y13.2625
G01 X12.4500 Y13.7375
G01 X12.4487 Y13.7645
G01 X12.4445 Y13.7936
G01 X12.4376 Y13.8210
G01 X12.4281 Y13.8475
G01 X12.4161 Y13.8730
G01 X12.4015 Y13.8972
G01 X12.3847 Y13.9199
G01 X12.3658 Y13.9408
G01 X12.3449 Y13.9597
G01 X12.3222 Y13.9765
G01 X12.2980 Y13.9911
G01 X12.2725 Y14.0031
G01 X12.2460 Y14.0126
G01 X12.2186 Y14.0195
G01 X12.1907 Y14.0236
G01 X12.1637 Y14.0250
G01 X12.1251 Y14.0250
G01 X12.1251 Y14.7750
G01 X12.1637 Y14.7750
G01 X12.1882 Y14.7762
G01 X12.2186 Y14.7805
G01 X12.2460 Y14.7874
G01 X12.2702 Y14.7960
G01 X12.3002 Y14.8102
G01 X12.3222 Y14.8235
G01 X12.3449 Y14.8403
G01 X12.3658 Y14.8592
G01 X12.3831 Y14.8783
G01 X12.4029 Y14.9048
G01 X12.4161 Y14.9270
G01 X12.4281 Y14.9525
G01 X12.4376 Y14.9790
G01 X12.4445 Y15.0064
G01 X12.4486 Y15.0343
G01 X12.4499 Y15.0600
G01 X12.4500 Y15.5387
G01 X12.4486 Y15.5657
G01 X12.4445 Y15.5936
G01 X12.4376 Y15.6210
G01 X12.4271 Y15.6498
G01 X12.4148 Y15.6752
G01 X12.4015 Y15.6972
G01 X12.3863 Y15.7180
G01 X12.3658 Y15.7408
G01 X12.3458 Y15.7590
G01 X12.3222 Y15.7765
G01 X12.2980 Y15.7911
G01 X12.2725 Y15.8031
G01 X12.2460 Y15.8126
G01 X12.2186 Y15.8195
G01 X12.1907 Y15.8236
G01 X12.1637 Y15.8250
G01 X12.1251 Y15.8250
G01 X12.1251 Y19.2600
G01 X12.1239 Y19.2845
G01 X12.1203 Y19.3088
G01 X12.1143 Y19.3326
G01 X12.1051 Y19.3580
G01 X12.0956 Y19.3779
G01 X12.0830 Y19.3989
G01 X12.0683 Y19.4187
G01 X12.0527 Y19.4360
G01 X11.1751 Y20.3135
G01 X11.1587 Y20.3283
G01 X11.1389 Y20.3430
G01 X11.1179 Y20.3556
G01 X11.0980 Y20.3651
G01 X11.0702 Y20.3750
G01 X11.0488 Y20.3803
G01 X11.0236 Y20.3840
G01 X11.0163 Y20.3961
G01 X11.0061 Y20.4099
G01 X10.9931 Y20.4246
G01 X10.9769 Y20.4396
G01 X10.9621 Y20.4506
G01 X10.9443 Y20.4614
G01 X10.9265 Y20.4698
G01 X10.9081 Y20.4764
G01 X10.8890 Y20.4812
G01 X10.8696 Y20.4840
G01 X10.8500 Y20.4850
G01 X9.2000 Y20.4850
G01 X9.1780 Y20.4837
G01 X9.1610 Y20.4812
G01 X9.1431 Y20.4767
G01 X9.1235 Y20.4698
G01 X9.1036 Y20.4602
G01 X9.0889 Y20.4513
G01 X9.0751 Y20.4411
G01 X9.0586 Y20.4264
G01 X9.0439 Y20.4099
G01 X9.0337 Y20.3961
G01 X9.0248 Y20.3814
G01 X9.0152 Y20.3615
G01 X9.0083 Y20.3419
G01 X9.0034 Y20.3216
G01 X9.0010 Y20.3046
G01 X9.0000 Y20.2862
G01 X9.0001 Y19.9825
G00 Z1.0000
G00 X9.0001 Y21.2525
G01 F50.00
G01 Z-0.0500
G01 F100.00
G01 X9.0010 Y21.2354
G01 X9.0038 Y21.2160
G01 X9.0086 Y21.1969
G01 X9.0152 Y21.1785
G01 X9.0236 Y21.1607
G01 X9.0337 Y21.1439
G01 X9.0454 Y21.1281
G01 X9.0586 Y21.1136
G01 X9.0731 Y21.1004
G01 X9.0889 Y21.0887
G01 X9.1057 Y21.0786
G01 X9.1235 Y21.0702
G01 X9.1419 Y21.0636
G01 X9.1610 Y21.0588
G01 X9.1804 Y21.0560
G01 X9.1975 Y21.0551
G01 X10.8525 Y21.0551
G01 X10.8720 Y21.0563
G01 X10.8890 Y21.0588
G01 X10.9057 Y21.0630
G01 X10.9265 Y21.0702
G01 X10.9464 Y21.0798
G01 X10.9611 Y21.0887
G01 X10.9749 Y21.0989
G01 X10.9914 Y21.1136
G01 X11.0054 Y21.1291
G01 X11.0163 Y21.1439
G01 X11.0230 Y21.1549
G01 X11.4914 Y21.1549
G01 X12.7499 Y19.8964
G01 X12.7499 Y16.5500
G01 X12.7511 Y16.5255
G01 X12.7547 Y16.5012
G01 X12.7607 Y16.4774
G01 X12.7699 Y16.4520
G01 X12.7794 Y16.4321
G01 X12.7920 Y16.4111
G01 X12.8067 Y16.3913
G01 X12.8232 Y16.3732
G01 X15.6963 Y13.5000
G01 X14.1464 Y11.9501
G01 X12.4494 Y11.9501
G01 X12.4485 Y11.9669
G01 X12.4442 Y11.9948
G01 X12.4376 Y12.0210
G01 X12.4286 Y12.0464
G01 X12.4148 Y12.0752
G01 X12.4015 Y12.0972
G01 X12.3840 Y12.1208
G01 X12.3658 Y12.1408
G01 X12.3467 Y12.1581
G01 X12.3202 Y12.1779
G01 X12.2980 Y12.1911
G01 X12.2725 Y12.2031
G01 X12.2460 Y12.2126
G01 X12.2210 Y12.2189
G01 X12.1907 Y12.2236
G01 X12.1625 Y12.2250
G01 X11.5863 Y12.2250
G01 X11.5569 Y12.2233
G01 X11.5314 Y12.2195
G01 X11.5064 Y12.2133
G01 X11.4775 Y12.2031
G01 X11.4520 Y12.1911
G01 X11.4278 Y12.1765
G01 X11.4033 Y12.1581
G01 X11.3842 Y12.1408
G01 X11.3669 Y12.1217
G01 X11.3485 Y12.0972
G01 X11.3328 Y12.0708
G01 X11.3219 Y12.0475
G01 X11.3131 Y12.0233
G01 X11.3055 Y11.9936
G01 X11.3013 Y11.9645
G01 X11.3000 Y11.9375
G01 X11.3000 Y11.4625
G01 X11.3015 Y11.4331
G01 X11.3055 Y11.4064
G01 X11.3124 Y11.3790
G01 X11.3219 Y11.3525
G01 X11.3328 Y11.3292
G01 X11.3485 Y11.3028
G01 X11.3637 Y11.2820
G01 X11.3860 Y11.2575
G01 X11.4051 Y11.2403
G01 X11.4278 Y11.2235
G01 X11.4520 Y11.2089
G01 X11.4752 Y11.1979
G01 X11.5064 Y11.1867
G01 X11.5314 Y11.1805
G01 X11.5593 Y11.1764
G01 X11.5875 Y11.1750
G01 X12.1625 Y11.1750
G01 X12.1895 Y11.1763
G01 X12.2186 Y11.1805
G01 X12.2460 Y11.1874
G01 X12.2725 Y11.1969
G01 X12.2958 Y11.2078
G01 X12.3242 Y11.2249
G01 X12.3449 Y11.2403
G01 X12.3667 Y11.2601
G01 X12.3847 Y11.2801
G01 X12.4015 Y11.3028
G01 X12.4161 Y11.3270
G01 X12.4276 Y11.3514
G01 X12.4376 Y11.3790
G01 X12.4442 Y11.4052
G01 X12.4485 Y11.4331
G01 X12.4494 Y11.4499
G01 X14.2500 Y11.4499
G01 X14.2745 Y11.4511
G01 X14.2988 Y11.4547
G01 X14.3226 Y11.4607
G01 X14.3457 Y11.4689
G01 X14.3679 Y11.4794
G01 X14.3889 Y11.4920
G01 X14.4087 Y11.5067
G01 X14.4268 Y11.5232
G01 X16.1536 Y13.2499
G01 X17.6000 Y13.2499
G01 X17.6000 Y12.5488
G01 X17.6012 Y12.5390
G01 X17.6025 Y12.5343
G01 X17.6048 Y12.5286
G01 X17.6071 Y12.5243
G01 X17.6106 Y12.5192
G01 X17.6138 Y12.5155
G01 X17.6183 Y12.5113
G01 X17.6254 Y12.5065
G01 X17.6332 Y12.5029
G01 X17.6415 Y12.5007
G01 X17.6488 Y12.5000
G01 X18.4500 Y12.5000
G01 X18.4549 Y12.5002
G01 X18.4610 Y12.5012
G01 X18.4703 Y12.5043
G01 X18.4788 Y12.5091
G01 X18.4827 Y12.5121
G01 X18.4870 Y12.5164
G01 X18.4929 Y12.5243
G01 X18.4966 Y12.5320
G01 X18.4990 Y12.5402
G01 X18.5000 Y12.5500
G01 X18.5000 Y14.4500
G01 X18.4998 Y14.4549
G01 X18.4988 Y14.4610
G01 X18.4971 Y14.4668
G01 X18.4947 Y14.4725
G01 X18.4922 Y14.4767
G01 X18.4887 Y14.4817
G01 X18.4854 Y14.4854
G01 X18.4808 Y14.4894
G01 X18.4736 Y14.4941
G01 X18.4668 Y14.4971
G01 X18.4598 Y14.4990
G01 X18.4512 Y14.5000
G01 X17.6500 Y14.5000
G01 X17.6415 Y14.4993
G01 X17.6332 Y14.4971
G01 X17.6254 Y14.4935
G01 X17.6183 Y14.4887
G01 X17.6146 Y14.4854
G01 X17.6106 Y14.4808
G01 X17.6078 Y14.4767
G01 X17.6048 Y14.4714
G01 X17.6029 Y14.4668
G01 X17.6012 Y14.4610
G01 X17.6000 Y14.4512
G01 X17.6000 Y13.7501
G01 X16.1536 Y13.7501
G01 X13.2501 Y16.6536
G01 X13.2501 Y20.0000
G01 X13.2486 Y20.0269
G01 X13.2453 Y20.0488
G01 X13.2393 Y20.0726
G01 X13.2311 Y20.0957
G01 X13.2194 Y20.1200
G01 X13.2080 Y20.1389
G01 X13.1948 Y20.1567
G01 X13.1777 Y20.1760
G01 X11.7701 Y21.5835
G01 X11.7537 Y21.5983
G01 X11.7339 Y21.6130
G01 X11.7129 Y21.6256
G01 X11.6930 Y21.6351
G01 X11.6652 Y21.6450
G01 X11.6438 Y21.6503
G01 X11.6195 Y21.6539
G01 X11.5950 Y21.6551
G01 X11.0230 Y21.6551
G01 X11.0163 Y21.6661
G01 X11.0061 Y21.6799
G01 X10.9923 Y21.6955
G01 X10.9769 Y21.7096
G01 X10.9601 Y21.7220
G01 X10.9421 Y21.7325
G01 X10.9265 Y21.7398
G01 X10.9104 Y21.7456
G01 X10.8890 Y21.7512
G01 X10.8684 Y21.7541
G01 X10.8500 Y21.7550
G01 X9.2000 Y21.7550
G01 X9.1792 Y21.7539
G01 X9.1610 Y21.7512
G01 X9.1443 Y21.7470
G01 X9.1235 Y21.7398
G01 X9.1036 Y21.7302
G01 X9.0889 Y21.7213
G01 X9.0731 Y21.7096
G01 X9.0569 Y21.6946
G01 X9.0454 Y21.6819
G01 X9.0337 Y21.6661
G01 X9.0225 Y21.6471
G01 X9.0152 Y21.6315
G01 X9.0094 Y21.6154
G01 X9.0034 Y21.5916
G01 X9.0010 Y21.5746
G01 X9.0000 Y21.5562
G01 X9.0001 Y21.2525
G00 Z1.0000
G00 X5.2001 Y23.0219
G01 F50.00
G01 Z-0.0500
G01 F100.00
G01 X5.2001 Y22.6001
G01 X6.1719 Y22.6001
G01 X6.2399 Y22.6680
G01 X6.2056 Y22.7729
G01 X6.1524 Y22.8673
G01 X6.0818 Y22.9495
G01 X5.9966 Y23.0163
G01 X5.8999 Y23.0652
G01 X5.7956 Y23.0943
G01 X5.6774 Y23.1032
G01 X5.2786 Y23.1004
G01 X5.2001 Y23.0219
G00 Z1.0000
G00 X3.4601 Y22.6680
G01 F50.00
G01 Z-0.0500
G01 F100.00
G01 X3.5281 Y22.6001
G01 X4.4999 Y22.6001
G01 X4.4999 Y23.0219
G01 X4.4214 Y23.1004
G01 X4.0226 Y23.1032
G01 X3.9044 Y23.0943
G01 X3.8001 Y23.0652
G01 X3.7034 Y23.0163
G01 X3.6182 Y22.9495
G01 X3.5476 Y22.8673
G01 X3.4944 Y22.7729
G01 X3.4601 Y22.6680
G00 Z1.0000
G00 X4.1475 Y21.3499
G01 F50.00
G01 Z-0.0500
G01 F100.00
G01 X4.1304 Y21.3490
G01 X4.1110 Y21.3462
G01 X4.0919 Y21.3414
G01 X4.0735 Y21.3348
G01 X4.0557 Y21.3264
G01 X4.0389 Y21.3163
G01 X4.0231 Y21.3046
G01 X4.0104 Y21.2931
G01 X3.9939 Y21.2749
G01 X3.9837 Y21.2611
G01 X3.9725 Y21.2421
G01 X3.9652 Y21.2265
G01 X3.9586 Y21.2081
G01 X3.9538 Y21.1890
G01 X3.9509 Y21.1684
G01 X3.9500 Y21.1500
G01 X3.9500 Y20.8488
G01 X3.9513 Y20.8280
G01 X3.9538 Y20.8110
G01 X3.9583 Y20.7931
G01 X3.9652 Y20.7735
G01 X3.9748 Y20.7536
G01 X3.9837 Y20.7389
G01 X3.9939 Y20.7251
G01 X4.0086 Y20.7086
G01 X4.0251 Y20.6939
G01 X4.0389 Y20.6837
G01 X4.0536 Y20.6748
G01 X4.0735 Y20.6652
G01 X4.0931 Y20.6583
G01 X4.1110 Y20.6538
G01 X4.1280 Y20.6513
G01 X4.1500 Y20.6500
G01 X5.5525 Y20.6501
G01 X5.5720 Y20.6513
G01 X5.5890 Y20.6538
G01 X5.6057 Y20.6580
G01 X5.6265 Y20.6652
G01 X5.6464 Y20.6748
G01 X5.6611 Y20.6837
G01 X5.6749 Y20.6939
G01 X5.6914 Y20.7086
G01 X5.7054 Y20.7241
G01 X5.7163 Y20.7389
G01 X5.7230 Y20.7499
G01 X6.2964 Y20.7499
G01 X8.3582 Y18.6882
G01 X8.3763 Y18.6717
G01 X8.3961 Y18.6570
G01 X8.4171 Y18.6444
G01 X8.4404 Y18.6335
G01 X8.4624 Y18.6257
G01 X8.4862 Y18.6197
G01 X8.5105 Y18.6161
G01 X8.5338 Y18.6149
G01 X9.0270 Y18.6149
G01 X9.0306 Y18.6087
G01 X9.0397 Y18.5954
G01 X9.0530 Y18.5794
G01 X9.0653 Y18.5672
G01 X9.0777 Y18.5568
G01 X9.0947 Y18.5450
G01 X9.1129 Y18.5350
G01 X9.1278 Y18.5285
G01 X9.1431 Y18.5233
G01 X9.1633 Y18.5184
G01 X9.1839 Y18.5157
G01 X9.2000 Y18.5150
G01 X10.8500 Y18.5150
G01 X10.8720 Y18.5163
G01 X10.8890 Y18.5188
G01 X10.9081 Y18.5236
G01 X10.9265 Y18.5302
G01 X10.9421 Y18.5375
G01 X10.9611 Y18.5487
G01 X10.9769 Y18.5604
G01 X10.9896 Y18.5719
G01 X11.0046 Y18.5881
G01 X11.0163 Y18.6039
G01 X11.0252 Y18.6186
G01 X11.0352 Y18.6396
G01 X11.0414 Y18.6569
G01 X11.0462 Y18.6760
G01 X11.0490 Y18.6954
G01 X11.0500 Y18.7138
G01 X11.0500 Y19.0162
G01 X11.0487 Y19.0370
G01 X11.0462 Y19.0540
G01 X11.0420 Y19.0707
G01 X11.0348 Y19.0915
G01 X11.0252 Y19.1114
G01 X11.0163 Y19.1261
G01 X11.0061 Y19.1399
G01 X10.9896 Y19.1581
G01 X10.9769 Y19.1696
G01 X10.9631 Y19.1799
G01 X10.9443 Y19.1914
G01 X10.9242 Y19.2007
G01 X10.9081 Y19.2064
G01 X10.8890 Y19.2112
G01 X10.8696 Y19.2140
G01 X10.8500 Y19.2150
G01 X9.1975 Y19.2149
G01 X9.1780 Y19.2137
G01 X9.1610 Y19.2112
G01 X9.1443 Y19.2070
G01 X9.1235 Y19.1998
G01 X9.1036 Y19.1902
G01 X9.0889 Y19.1813
G01 X9.0751 Y19.1711
G01 X9.0586 Y19.1564
G01 X9.0446 Y19.1409
G01 X9.0337 Y19.1261
G01 X9.0270 Y19.1151
G01 X8.6386 Y19.1151
G01 X6.5768 Y21.1768
G01 X6.5587 Y21.1933
G01 X6.5389 Y21.2080
G01 X6.5179 Y21.2206
G01 X6.4946 Y21.2315
G01 X6.4726 Y21.2393
G01 X6.4488 Y21.2453
G01 X6.4245 Y21.2489
G01 X6.4012 Y21.2501
G01 X5.7230 Y21.2501
G01 X5.7194 Y21.2563
G01 X5.7103 Y21.2696
G01 X5.6970 Y21.2856
G01 X5.6847 Y21.2978
G01 X5.6723 Y21.3082
G01 X5.6553 Y21.3200
G01 X5.6371 Y21.3300
G01 X5.6222 Y21.3365
G01 X5.6069 Y21.3417
G01 X5.5867 Y21.3466
G01 X5.5661 Y21.3493
G01 X5.5500 Y21.3500
G01 X4.1475 Y21.3499
G00 Z1.0000
G00 X4.1475 Y20.0999
G01 F50.00
G01 Z-0.0500
G01 F100.00
G01 X4.1304 Y20.0990
G01 X4.1134 Y20.0966
G01 X4.0896 Y20.0906
G01 X4.0735 Y20.0848
G01 X4.0557 Y20.0764
G01 X4.0389 Y20.0663
G01 X4.0251 Y20.0561
G01 X4.0069 Y20.0396
G01 X3.9954 Y20.0269
G01 X3.9837 Y20.0111
G01 X3.9736 Y19.9943
G01 X3.9662 Y19.9788
G01 X3.9583 Y19.9569
G01 X3.9534 Y19.9366
G01 X3.9510 Y19.9196
G01 X3.9500 Y19.9012
G01 X3.9500 Y19.6000
G01 X3.9508 Y19.5828
G01 X3.9538 Y19.5610
G01 X3.9594 Y19.5396
G01 X3.9652 Y19.5235
G01 X3.9725 Y19.5079
G01 X3.9830 Y19.4899
G01 X3.9954 Y19.4731
G01 X4.0086 Y19.4586
G01 X4.0231 Y19.4454
G01 X4.0410 Y19.4324
G01 X4.0557 Y19.4236
G01 X4.0712 Y19.4162
G01 X4.0896 Y19.4094
G01 X4.1110 Y19.4038
G01 X4.1292 Y19.4011
G01 X4.1500 Y19.4000
G01 X4.7048 Y19.4000
G01 X5.5855 Y18.5193
G01 X5.5642 Y18.4741
G01 X5.5363 Y18.3956
G01 X5.5163 Y18.3158
G01 X5.5042 Y18.2345
G01 X5.5001 Y18.1475
G01 X5.5041 Y18.0667
G01 X5.5166 Y17.9830
G01 X5.5366 Y17.9033
G01 X5.5638 Y17.8270
G01 X5.6016 Y17.7472
G01 X5.6433 Y17.6778
G01 X5.6929 Y17.6108
G01 X5.7490 Y17.5490
G01 X5.8098 Y17.4937
G01 X5.8778 Y17.4433
G01 X5.9493 Y17.4004
G01 X6.0247 Y17.3647
G01 X6.1033 Y17.3366
G01 X6.1842 Y17.3163
G01 X6.2667 Y17.3041
G01 X6.3500 Y17.3000
G01 X6.4333 Y17.3041
G01 X6.5158 Y17.3163
G01 X6.5967 Y17.3366
G01 X6.6753 Y17.3647
G01 X6.7507 Y17.4004
G01 X6.8222 Y17.4433
G01 X6.8892 Y17.4929
G01 X6.9510 Y17.5490
G01 X7.0063 Y17.6098
G01 X7.0581 Y17.6798
G01 X7.0996 Y17.7493
G01 X7.1353 Y17.8247
G01 X7.1641 Y17.9056
G01 X7.1837 Y17.9842
G01 X7.1959 Y18.0667
G01 X7.1999 Y18.1525
G01 X7.1959 Y18.2333
G01 X7.1837 Y18.3158
G01 X7.1626 Y18.3991
G01 X7.1353 Y18.4753
G01 X7.0996 Y18.5507
G01 X7.0567 Y18.6222
G01 X7.0086 Y18.6873
G01 X6.9493 Y18.7527
G01 X6.8892 Y18.8071
G01 X6.8222 Y18.8567
G01 X6.7507 Y18.8996
G01 X6.6764 Y18.9348
G01 X6.5944 Y18.9641
G01 X6.5158 Y18.9837
G01 X6.4321 Y18.9960
G01 X6.3500 Y19.0000
G01 X6.2667 Y18.9959
G01 X6.1842 Y18.9837
G01 X6.1260 Y18.9692
G01 X5.6613 Y19.4339
G01 X5.6787 Y19.4470
G01 X5.6914 Y19.4586
G01 X5.7030 Y19.4713
G01 X5.7163 Y19.4889
G01 X5.7264 Y19.5057
G01 X5.7348 Y19.5235
G01 X5.7420 Y19.5443
G01 X5.7462 Y19.5610
G01 X5.7487 Y19.5780
G01 X5.7500 Y19.5988
G01 X5.7500 Y19.9000
G01 X5.7491 Y19.9185
G01 X5.7470 Y19.9345
G01 X5.7417 Y19.9569
G01 X5.7365 Y19.9722
G01 X5.7280 Y19.9912
G01 X5.7200 Y20.0053
G01 X5.7096 Y20.0205
G01 X5.6978 Y20.0347
G01 X5.6839 Y20.0486
G01 X5.6705 Y20.0596
G01 X5.6553 Y20.0700
G01 X5.6391 Y20.0790
G01 X5.6222 Y20.0865
G01 X5.6047 Y20.0924
G01 X5.5867 Y20.0966
G01 X5.5685 Y20.0991
G01 X5.5512 Y20.1000
G01 X4.1475 Y20.0999
G00 Z1.0000
G00 X0.5475 Y18.4499
G01 F50.00
G01 Z-0.0500
G01 F100.00
G01 X0.5206 Y18.4486
G01 X0.4915 Y18.4442
G01 X0.4629 Y18.4371
G01 X0.4352 Y18.4272
G01 X0.4086 Y18.4146
G01 X0.3833 Y18.3994
G01 X0.3597 Y18.3819
G01 X0.3396 Y18.3638
G01 X0.3181 Y18.3403
G01 X0.3020 Y18.3187
G01 X0.2843 Y18.2892
G01 X0.2728 Y18.2648
G01 X0.2629 Y18.2371
G01 X0.2558 Y18.2085
G01 X0.2514 Y18.1794
G01 X0.2500 Y18.1500
G01 X0.2500 Y17.6500
G01 X0.2514 Y17.6206
G01 X0.2560 Y17.5903
G01 X0.2637 Y17.5606
G01 X0.2728 Y17.5352
G01 X0.2843 Y17.5108
G01 X0.3006 Y17.4833
G01 X0.3181 Y17.4597
G01 X0.3396 Y17.4362
G01 X0.3597 Y17.4181
G01 X0.3813 Y17.4020
G01 X0.4086 Y17.3854
G01 X0.4375 Y17.3720
G01 X0.4629 Y17.3629
G01 X0.4915 Y17.3558
G01 X0.5206 Y17.3514
G01 X0.5500 Y17.3500
G01 X2.7500 Y17.3500
G01 X2.7782 Y17.3513
G01 X2.8109 Y17.3563
G01 X2.8371 Y17.3629
G01 X2.8648 Y17.3728
G01 X2.8936 Y17.3866
G01 X2.9167 Y17.4006
G01 X2.9384 Y17.4166
G01 X2.9638 Y17.4396
G01 X2.9819 Y17.4597
G01 X2.9980 Y17.4813
G01 X3.0146 Y17.5086
G01 X3.0280 Y17.5375
G01 X3.0371 Y17.5629
G01 X3.0442 Y17.5915
G01 X3.0486 Y17.6206
G01 X3.0500 Y17.6488
G01 X3.0500 Y18.1500
G01 X3.0486 Y18.1794
G01 X3.0445 Y18.2073
G01 X3.0371 Y18.2371
G01 X3.0262 Y18.2670
G01 X3.0146 Y18.2914
G01 X3.0008 Y18.3146
G01 X2.9819 Y18.3403
G01 X2.9604 Y18.3638
G01 X2.9403 Y18.3819
G01 X2.9187 Y18.3980
G01 X2.8914 Y18.4146
G01 X2.8625 Y18.4280
G01 X2.8371 Y18.4371
G01 X2.8085 Y18.4442
G01 X2.7794 Y18.4486
G01 X2.7500 Y18.4500
G01 X0.5475 Y18.4499
G00 Z1.0000
G00 X0.6249 Y22.8695
G01 F50.00
G01 Z-0.0500
G01 F100.00
G01 X0.6249 Y19.1305
G01 X0.6261 Y19.1107
G01 X0.6283 Y19.0960
G01 X0.6326 Y19.0791
G01 X0.6394 Y19.0605
G01 X0.6458 Y19.0470
G01 X0.6541 Y19.0332
G01 X0.6651 Y19.0182
G01 X0.6786 Y19.0036
G01 X0.6897 Y18.9936
G01 X0.7016 Y18.9847
G01 X0.7164 Y18.9756
G01 X0.7342 Y18.9669
G01 X0.7506 Y18.9611
G01 X0.7675 Y18.9569
G01 X0.7871 Y18.9541
G01 X0.8020 Y18.9535
G01 X2.7413 Y18.9535
G01 X2.9066 Y18.9372
G01 X3.0571 Y18.8915
G01 X3.1959 Y18.8173
G01 X3.3175 Y18.7175
G01 X3.4173 Y18.5959
G01 X3.4915 Y18.4571
G01 X3.5372 Y18.3066
G01 X3.5535 Y18.1413
G01 X3.5535 Y17.6587
G01 X3.5372 Y17.4934
G01 X3.4915 Y17.3429
G01 X3.4173 Y17.2041
G01 X3.3175 Y17.0825
G01 X3.1959 Y16.9827
G01 X3.0571 Y16.9085
G01 X2.9066 Y16.8628
G01 X2.7413 Y16.8465
G01 X0.8020 Y16.8465
G01 X0.7859 Y16.8458
G01 X0.7651 Y16.8426
G01 X0.7506 Y16.8389
G01 X0.7365 Y16.8340
G01 X0.7185 Y16.8256
G01 X0.7016 Y16.8153
G01 X0.6897 Y16.8064
G01 X0.6786 Y16.7964
G01 X0.6651 Y16.7818
G01 X0.6535 Y16.7658
G01 X0.6458 Y16.7530
G01 X0.6384 Y16.7372
G01 X0.6326 Y16.7209
G01 X0.6283 Y16.7040
G01 X0.6258 Y16.6868
G01 X0.6249 Y16.6695
G01 X0.6249 Y11.0637
G01 X0.6258 Y11.0463
G01 X0.6281 Y11.0304
G01 X0.6333 Y11.0100
G01 X0.6384 Y10.9959
G01 X0.6458 Y10.9802
G01 X0.6548 Y10.9653
G01 X0.6636 Y10.9533
G01 X0.6786 Y10.9368
G01 X0.6897 Y10.9268
G01 X0.7036 Y10.9165
G01 X0.7185 Y10.9075
G01 X0.7320 Y10.9011
G01 X0.7530 Y10.8936
G01 X0.7675 Y10.8900
G01 X0.7846 Y10.8875
G01 X0.8020 Y10.8866
G01 X0.8194 Y10.8875
G01 X0.8365 Y10.8900
G01 X0.8546 Y10.8946
G01 X0.8698 Y10.9001
G01 X1.1062 Y10.9981
G01 X1.3670 Y11.0499
G01 X1.6330 Y11.0499
G01 X1.8938 Y10.9981
G01 X2.1394 Y10.8963
G01 X2.3605 Y10.7486
G01 X2.5486 Y10.5605
G01 X2.6963 Y10.3394
G01 X2.7981 Y10.0938
G01 X2.8499 Y9.8330
G01 X2.8508 Y9.8123
G01 X2.8533 Y9.7951
G01 X2.8583 Y9.7759
G01 X2.8634 Y9.7619
G01 X2.8703 Y9.7473
G01 X2.8798 Y9.7313
G01 X2.8917 Y9.7155
G01 X2.9018 Y9.7044
G01 X2.9128 Y9.6944
G01 X2.9286 Y9.6824
G01 X2.9457 Y9.6724
G01 X2.9592 Y9.6661
G01 X2.9733 Y9.6610
G01 X2.9925 Y9.6560
G01 X3.0121 Y9.6533
G01 X3.0270 Y9.6526
G01 X3.0419 Y9.6533
G01 X3.0603 Y9.6558
G01 X3.0772 Y9.6599
G01 X3.1172 Y9.6720
G01 X3.2337 Y9.6835
G01 X3.4967 Y9.6835
G01 X3.5153 Y9.6844
G01 X3.5313 Y9.6869
G01 X3.5457 Y9.6904
G01 X3.5645 Y9.6969
G01 X3.5823 Y9.7056
G01 X3.5951 Y9.7133
G01 X3.6081 Y9.7229
G01 X3.6219 Y9.7353
G01 X3.6336 Y9.7482
G01 X3.6439 Y9.7621
G01 X3.6540 Y9.7792
G01 X3.6603 Y9.7928
G01 X3.6658 Y9.8079
G01 X3.7110 Y9.9568
G01 X3.7899 Y10.1045
G01 X3.8961 Y10.2339
G01 X3.9227 Y10.2558
G01 X3.9347 Y10.2667
G01 X5.0333 Y11.3653
G01 X5.0442 Y11.3773
G01 X5.0661 Y11.4039
G01 X5.1955 Y11.5101
G01 X5.3432 Y11.5890
G01 X5.5034 Y11.6376
G01 X5.5792 Y11.6451
G01 X5.5964 Y11.6477
G01 X5.6132 Y11.6519
G01 X5.6273 Y11.6568
G01 X5.6474 Y11.6664
G01 X5.6602 Y11.6741
G01 X5.6722 Y11.6829
G01 X5.6861 Y11.6953
G01 X5.8395 Y11.8486
G01 X6.0606 Y11.9963
G01 X6.3062 Y12.0981
G01 X6.5670 Y12.1499
G01 X6.7771 Y12.1500
G01 X6.7920 Y12.1508
G01 X6.8091 Y12.1533
G01 X6.8260 Y12.1576
G01 X6.8412 Y12.1630
G01 X6.8581 Y12.1708
G01 X6.8709 Y12.1785
G01 X6.8879 Y12.1909
G01 X6.8998 Y12.2018
G01 X6.9642 Y12.2662
G01 X6.9742 Y12.2773
G01 X6.9961 Y12.3039
G01 X7.1255 Y12.4101
G01 X7.2732 Y12.4890
G01 X7.4334 Y12.5376
G01 X7.6000 Y12.5540
G01 X7.6343 Y12.5507
G01 X7.6504 Y12.5499
G01 X8.9349 Y12.5499
G01 X8.9523 Y12.5508
G01 X8.9695 Y12.5533
G01 X8.9863 Y12.5576
G01 X9.0016 Y12.5630
G01 X9.0184 Y12.5708
G01 X9.0353 Y12.5812
G01 X9.0473 Y12.5901
G01 X9.0584 Y12.6001
G01 X9.0718 Y12.6147
G01 X9.0822 Y12.6286
G01 X9.0922 Y12.6457
G01 X9.0985 Y12.6592
G01 X9.1036 Y12.6733
G01 X9.1084 Y12.6913
G01 X9.1112 Y12.7096
G01 X9.1120 Y12.7270
G01 X9.1112 Y12.7444
G01 X9.1084 Y12.7627
G01 X9.1044 Y12.7784
G01 X9.0990 Y12.7936
G01 X9.0895 Y12.8135
G01 X9.0580 Y12.9172
G01 X9.0468 Y13.0311
G01 X9.0479 Y13.0698
G01 X9.1281 Y13.1499
G01 X9.5730 Y13.1499
G01 X9.5839 Y13.1270
G01 X9.5971 Y13.1048
G01 X9.6153 Y13.0801
G01 X9.6360 Y13.0575
G01 X9.6551 Y13.0403
G01 X9.6758 Y13.0249
G01 X9.7020 Y13.0089
G01 X9.7298 Y12.9960
G01 X9.7540 Y12.9874
G01 X9.7790 Y12.9811
G01 X9.8105 Y12.9763
G01 X9.8375 Y12.9750
G01 X10.4125 Y12.9750
G01 X10.4407 Y12.9764
G01 X10.4686 Y12.9805
G01 X10.4936 Y12.9867
G01 X10.5248 Y12.9979
G01 X10.5480 Y13.0089
G01 X10.5722 Y13.0235
G01 X10.5949 Y13.0403
G01 X10.6149 Y13.0583
G01 X10.6347 Y13.0801
G01 X10.6501 Y13.1008
G01 X10.6672 Y13.1292
G01 X10.6781 Y13.1525
G01 X10.6876 Y13.1790
G01 X10.6945 Y13.2064
G01 X10.6985 Y13.2331
G01 X10.7000 Y13.2625
G01 X10.7000 Y13.7375
G01 X10.6987 Y13.7645
G01 X10.6945 Y13.7936
G01 X10.6869 Y13.8233
G01 X10.6781 Y13.8475
G01 X10.6672 Y13.8708
G01 X10.6515 Y13.8972
G01 X10.6347 Y13.9199
G01 X10.6140 Y13.9425
G01 X10.5949 Y13.9597
G01 X10.5742 Y13.9751
G01 X10.5491 Y13.9905
G01 X10.5225 Y14.0031
G01 X10.4936 Y14.0133
G01 X10.4686 Y14.0195
G01 X10.4431 Y14.0233
G01 X10.4150 Y14.0249
G01 X9.8375 Y14.0250
G01 X9.8093 Y14.0236
G01 X9.7790 Y14.0189
G01 X9.7540 Y14.0126
G01 X9.7298 Y14.0040
G01 X9.7020 Y13.9911
G01 X9.6758 Y13.9751
G01 X9.6551 Y13.9597
G01 X9.6360 Y13.9425
G01 X9.6153 Y13.9199
G01 X9.5971 Y13.8952
G01 X9.5839 Y13.8730
G01 X9.5730 Y13.8501
G01 X9.1281 Y13.8501
G01 X9.0479 Y13.9302
G01 X9.0468 Y13.9689
G01 X9.0580 Y14.0828
G01 X9.0895 Y14.1865
G01 X9.0985 Y14.2052
G01 X9.1047 Y14.2228
G01 X9.1086 Y14.2385
G01 X9.1109 Y14.2532
G01 X9.1120 Y14.2742
G01 X9.1109 Y14.2928
G01 X9.1086 Y14.3075
G01 X9.1050 Y14.3220
G01 X9.0985 Y14.3408
G01 X9.0911 Y14.3565
G01 X9.0822 Y14.3714
G01 X9.0702 Y14.3872
G01 X9.0601 Y14.3982
G01 X9.0491 Y14.4083
G01 X9.0333 Y14.4202
G01 X9.0184 Y14.4292
G01 X9.0049 Y14.4356
G01 X8.9863 Y14.4424
G01 X8.9671 Y14.4471
G01 X8.9523 Y14.4492
G01 X8.9374 Y14.4500
G01 X8.2258 Y14.4500
G01 X8.2096 Y14.4492
G01 X8.1949 Y14.4471
G01 X8.1756 Y14.4424
G01 X8.1592 Y14.4366
G01 X8.1457 Y14.4303
G01 X8.1286 Y14.4202
G01 X8.1147 Y14.4099
G01 X8.1036 Y14.3999
G01 X8.0901 Y14.3853
G01 X8.0798 Y14.3714
G01 X8.0721 Y14.3586
G01 X8.0625 Y14.3385
G01 X8.0576 Y14.3244
G01 X8.0533 Y14.3075
G01 X8.0508 Y14.2904
G01 X8.0500 Y14.2755
G01 X8.0499 Y14.0670
G01 X7.9981 Y13.8062
G01 X7.8963 Y13.5606
G01 X7.7486 Y13.3395
G01 X7.5605 Y13.1514
G01 X7.3394 Y13.0037
G01 X7.0938 Y12.9019
G01 X6.8330 Y12.8501
G01 X6.5670 Y12.8501
G01 X6.3062 Y12.9019
G01 X6.0606 Y13.0037
G01 X5.8395 Y13.1514
G01 X5.6514 Y13.3395
G01 X5.5037 Y13.5606
G01 X5.4019 Y13.8062
G01 X5.3501 Y14.0670
G01 X5.3501 Y14.3330
G01 X5.4019 Y14.5938
G01 X5.5037 Y14.8394
G01 X5.6514 Y15.0605
G01 X5.8395 Y15.2486
G01 X6.0606 Y15.3963
G01 X6.3062 Y15.4981
G01 X6.5670 Y15.5499
G01 X6.7746 Y15.5499
G01 X6.7907 Y15.5507
G01 X6.8092 Y15.5533
G01 X6.8260 Y15.5576
G01 X6.8424 Y15.5634
G01 X6.8570 Y15.5703
G01 X6.8750 Y15.5812
G01 X6.8869 Y15.5901
G01 X6.8998 Y15.6018
G01 X7.1633 Y15.8653
G01 X7.1742 Y15.8773
G01 X7.1961 Y15.9039
G01 X7.3255 Y16.0101
G01 X7.4732 Y16.0890
G01 X7.6334 Y16.1376
G01 X7.8000 Y16.1540
G01 X7.8343 Y16.1507
G01 X7.8504 Y16.1499
G01 X9.2810 Y16.1499
G01 X9.2983 Y16.1508
G01 X9.3155 Y16.1533
G01 X9.3324 Y16.1576
G01 X9.3487 Y16.1634
G01 X9.3633 Y16.1703
G01 X9.3803 Y16.1805
G01 X9.3985 Y16.1944
G01 X9.5351 Y16.2675
G01 X9.6834 Y16.3124
G01 X9.8462 Y16.3285
G01 X10.2730 Y16.3285
G01 X10.2879 Y16.3291
G01 X10.3075 Y16.3319
G01 X10.3244 Y16.3361
G01 X10.3408 Y16.3419
G01 X10.3565 Y16.3494
G01 X10.3734 Y16.3597
G01 X10.3853 Y16.3686
G01 X10.3964 Y16.3786
G01 X10.4099 Y16.3932
G01 X10.4215 Y16.4092
G01 X10.4292 Y16.4220
G01 X10.4356 Y16.4355
G01 X10.4424 Y16.4541
G01 X10.4471 Y16.4734
G01 X10.4492 Y16.4882
G01 X10.4500 Y16.5043
G01 X10.4500 Y16.6760
G01 X10.4492 Y16.6921
G01 X10.4464 Y16.7105
G01 X10.4424 Y16.7261
G01 X10.4366 Y16.7425
G01 X10.4292 Y16.7582
G01 X10.4209 Y16.7721
G01 X10.4083 Y16.7889
G01 X10.3991 Y16.7991
G01 X10.3751 Y16.8231
G01 X10.3751 Y17.2450
G01 X10.8512 Y17.2450
G01 X10.8696 Y17.2460
G01 X10.8866 Y17.2484
G01 X10.9081 Y17.2536
G01 X10.9265 Y17.2602
G01 X10.9421 Y17.2675
G01 X10.9611 Y17.2787
G01 X10.9769 Y17.2904
G01 X10.9896 Y17.3019
G01 X11.0061 Y17.3201
G01 X11.0163 Y17.3339
G01 X11.0264 Y17.3507
G01 X11.0348 Y17.3685
G01 X11.0406 Y17.3846
G01 X11.0466 Y17.4084
G01 X11.0490 Y17.4254
G01 X11.0499 Y17.4425
G01 X11.0500 Y17.7462
G01 X11.0491 Y17.7635
G01 X11.0470 Y17.7795
G01 X11.0424 Y17.7997
G01 X11.0365 Y17.8172
G01 X11.0300 Y17.8321
G01 X11.0200 Y17.8503
G01 X11.0082 Y17.8673
G01 X10.9978 Y17.8797
G01 X10.9864 Y17.8912
G01 X10.9705 Y17.9046
G01 X10.9533 Y17.9162
G01 X10.9391 Y17.9240
G01 X10.9244 Y17.9306
G01 X10.9036 Y17.9377
G01 X10.8845 Y17.9420
G01 X10.8685 Y17.9441
G01 X10.8512 Y17.9450
G01 X10.2798 Y17.9450
G01 X10.2635 Y17.9525
G01 X10.2494 Y17.9574
G01 X10.2349 Y17.9611
G01 X10.2154 Y17.9642
G01 X10.1980 Y17.9651
G01 X9.8495 Y17.9650
G01 X9.8322 Y17.9639
G01 X9.8175 Y17.9617
G01 X9.8030 Y17.9581
G01 X9.7854 Y17.9520
G01 X9.7702 Y17.9450
G01 X9.2000 Y17.9450
G01 X9.1804 Y17.9440
G01 X9.1586 Y17.9406
G01 X9.1419 Y17.9364
G01 X9.1235 Y17.9298
G01 X9.1036 Y17.9202
G01 X9.0889 Y17.9113
G01 X9.0731 Y17.8996
G01 X9.0569 Y17.8846
G01 X9.0454 Y17.8719
G01 X9.0337 Y17.8561
G01 X9.0236 Y17.8393
G01 X9.0162 Y17.8238
G01 X9.0086 Y17.8031
G01 X9.0034 Y17.7816
G01 X9.0010 Y17.7646
G01 X9.0000 Y17.7462
G01 X9.0000 Y17.4450
G01 X9.0009 Y17.4265
G01 X9.0034 Y17.4083
G01 X9.0076 Y17.3903
G01 X9.0127 Y17.3749
G01 X9.0220 Y17.3538
G01 X9.0300 Y17.3397
G01 X9.0390 Y17.3263
G01 X9.0522 Y17.3103
G01 X9.0670 Y17.2957
G01 X9.0795 Y17.2854
G01 X9.0928 Y17.2762
G01 X9.1109 Y17.2660
G01 X9.1299 Y17.2577
G01 X9.1453 Y17.2526
G01 X9.1633 Y17.2484
G01 X9.1815 Y17.2459
G01 X9.2000 Y17.2450
G01 X9.6749 Y17.2450
G01 X9.6749 Y16.8231
G01 X9.5965 Y16.7447
G01 X9.0713 Y16.7417
G01 X8.9533 Y16.7509
G01 X8.8490 Y16.7802
G01 X8.7525 Y16.8294
G01 X8.6673 Y16.8963
G01 X8.5969 Y16.9787
G01 X8.5439 Y17.0731
G01 X8.5261 Y17.1279
G01 X8.5200 Y17.1438
G01 X8.5112 Y17.1612
G01 X8.5034 Y17.1737
G01 X8.4930 Y17.1873
G01 X8.4813 Y17.1998
G01 X8.4685 Y17.2111
G01 X8.4547 Y17.2211
G01 X8.4400 Y17.2298
G01 X8.4244 Y17.2370
G01 X8.4083 Y17.2427
G01 X8.3917 Y17.2468
G01 X8.3724 Y17.2494
G01 X8.3577 Y17.2501
G01 X7.4325 Y17.2501
G01 X7.4151 Y17.2492
G01 X7.3956 Y17.2461
G01 X7.3811 Y17.2424
G01 X7.3647 Y17.2366
G01 X7.3490 Y17.2292
G01 X7.3331 Y17.2195
G01 X7.3202 Y17.2099
G01 X7.3082 Y17.1991
G01 X7.2105 Y17.1014
G01 X6.9894 Y16.9537
G01 X6.7438 Y16.8519
G01 X6.4830 Y16.8001
G01 X6.2170 Y16.8001
G01 X5.9562 Y16.8519
G01 X5.7106 Y16.9537
G01 X5.4895 Y17.1014
G01 X5.3014 Y17.2895
G01 X5.1537 Y17.5106
G01 X5.0519 Y17.7562
G01 X5.0001 Y18.0170
G01 X5.0001 Y18.2830
G01 X5.0034 Y18.3057
G01 X5.0041 Y18.3218
G01 X5.0029 Y18.3404
G01 X5.0007 Y18.3551
G01 X4.9965 Y18.3720
G01 X4.9906 Y18.3883
G01 X4.9843 Y18.4019
G01 X4.9728 Y18.4210
G01 X4.9639 Y18.4329
G01 X4.9531 Y18.4449
G01 X4.5533 Y18.8447
G01 X4.5404 Y18.8564
G01 X4.5244 Y18.8680
G01 X4.5116 Y18.8756
G01 X4.4981 Y18.8821
G01 X4.4819 Y18.8882
G01 X4.4627 Y18.8931
G01 X4.4443 Y18.8958
G01 X4.4281 Y18.8965
G01 X4.1587 Y18.8965
G01 X4.0129 Y18.9109
G01 X3.8811 Y18.9509
G01 X3.7597 Y19.0158
G01 X3.6532 Y19.1032
G01 X3.5658 Y19.2097
G01 X3.5009 Y19.3311
G01 X3.4609 Y19.4629
G01 X3.4465 Y19.6087
G01 X3.4465 Y19.8913
G01 X3.4609 Y20.0371
G01 X3.5009 Y20.1689
G01 X3.5664 Y20.2915
G01 X3.5743 Y20.3084
G01 X3.5797 Y20.3236
G01 X3.5840 Y20.3405
G01 X3.5865 Y20.3576
G01 X3.5874 Y20.3750
G01 X3.5865 Y20.3924
G01 X3.5840 Y20.4095
G01 X3.5797 Y20.4264
G01 X3.5743 Y20.4416
G01 X3.5664 Y20.4585
G01 X3.5009 Y20.5811
G01 X3.4609 Y20.7129
G01 X3.4465 Y20.8587
G01 X3.4465 Y21.1413
G01 X3.4609 Y21.2871
G01 X3.5009 Y21.4189
G01 X3.5370 Y21.4865
G01 X3.5440 Y21.5015
G01 X3.5492 Y21.5159
G01 X3.5537 Y21.5331
G01 X3.5546 Y21.5380
G01 X3.5567 Y21.5531
G01 X3.5573 Y21.5696
G01 X3.5563 Y21.5886
G01 X3.5539 Y21.6037
G01 X3.5495 Y21.6209
G01 X3.5479 Y21.6257
G01 X3.5425 Y21.6399
G01 X3.5351 Y21.6547
G01 X3.4944 Y21.7271
G01 X3.4601 Y21.8320
G01 X3.5281 Y21.8999
G01 X4.5953 Y21.8999
G01 X4.6115 Y21.8925
G01 X4.6256 Y21.8876
G01 X4.6401 Y21.8839
G01 X4.6596 Y21.8808
G01 X4.6770 Y21.8799
G01 X5.0255 Y21.8800
G01 X5.0428 Y21.8811
G01 X5.0575 Y21.8833
G01 X5.0720 Y21.8869
G01 X5.0896 Y21.8930
G01 X5.1047 Y21.8999
G01 X6.1719 Y21.8999
G01 X6.2664 Y21.8055
G01 X6.2783 Y21.7946
G01 X6.2953 Y21.7821
G01 X6.3081 Y21.7745
G01 X6.3238 Y21.7671
G01 X6.3426 Y21.7606
G01 X6.3571 Y21.7570
G01 X6.3730 Y21.7546
G01 X6.3904 Y21.7536
G01 X6.3974 Y21.7538
G01 X6.5470 Y21.7391
G01 X6.6884 Y21.6962
G01 X6.8187 Y21.6266
G01 X6.9329 Y21.5329
G01 X6.9516 Y21.5100
G01 X6.9625 Y21.4981
G01 X8.2047 Y20.2559
G01 X8.2167 Y20.2451
G01 X8.2307 Y20.2347
G01 X8.2456 Y20.2258
G01 X8.2590 Y20.2194
G01 X8.2765 Y20.2129
G01 X8.2921 Y20.2088
G01 X8.3141 Y20.2056
G01 X8.3290 Y20.2049
G01 X8.3439 Y20.2056
G01 X8.3636 Y20.2083
G01 X8.3828 Y20.2133
G01 X8.3968 Y20.2184
G01 X8.4114 Y20.2252
G01 X8.4294 Y20.2361
G01 X8.4414 Y20.2451
G01 X8.4525 Y20.2550
G01 X8.4659 Y20.2696
G01 X8.4776 Y20.2856
G01 X8.4852 Y20.2985
G01 X8.4916 Y20.3119
G01 X8.4988 Y20.3317
G01 X8.5027 Y20.3474
G01 X8.5051 Y20.3634
G01 X8.5109 Y20.4221
G01 X8.5509 Y20.5539
G01 X8.6218 Y20.6865
G01 X8.6282 Y20.7000
G01 X8.6354 Y20.7198
G01 X8.6393 Y20.7355
G01 X8.6415 Y20.7502
G01 X8.6427 Y20.7700
G01 X8.6418 Y20.7874
G01 X8.6393 Y20.8045
G01 X8.6343 Y20.8237
G01 X8.6292 Y20.8378
G01 X8.6224 Y20.8524
G01 X8.5509 Y20.9861
G01 X8.5109 Y21.1179
G01 X8.4965 Y21.2637
G01 X8.4965 Y21.5463
G01 X8.5109 Y21.6921
G01 X8.5509 Y21.8239
G01 X8.6158 Y21.9453
G01 X8.7032 Y22.0518
G01 X8.8097 Y22.1392
G01 X8.9311 Y22.2041
G01 X9.0629 Y22.2441
G01 X9.2087 Y22.2585
G01 X10.8413 Y22.2585
G01 X10.9871 Y22.2441
G01 X11.1189 Y22.2041
G01 X11.1718 Y22.1758
G01 X11.1875 Y22.1684
G01 X11.2062 Y22.1619
G01 X11.2207 Y22.1583
G01 X11.2367 Y22.1559
G01 X11.2552 Y22.1549
G01 X11.5495 Y22.1549
G01 X11.5656 Y22.1557
G01 X11.5950 Y22.1586
G01 X11.6739 Y22.1508
G01 X11.6913 Y22.1499
G01 X13.7379 Y22.1500
G01 X13.7528 Y22.1508
G01 X13.7675 Y22.1529
G01 X13.7880 Y22.1579
G01 X13.8032 Y22.1634
G01 X13.8178 Y22.1703
G01 X13.8811 Y22.2041
G01 X14.0129 Y22.2441
G01 X14.1587 Y22.2585
G01 X15.7913 Y22.2585
G01 X15.9371 Y22.2441
G01 X16.0422 Y22.2122
G01 X16.0579 Y22.2083
G01 X16.0763 Y22.2057
G01 X16.0924 Y22.2049
G01 X16.3470 Y22.2049
G01 X16.3631 Y22.2057
G01 X16.3950 Y22.2088
G01 X16.5518 Y22.1934
G01 X16.7026 Y22.1476
G01 X16.8416 Y22.0733
G01 X16.9634 Y21.9734
G01 X16.9837 Y21.9486
G01 X16.9946 Y21.9367
G01 X17.6919 Y21.2394
G01 X17.7029 Y21.2293
G01 X17.7187 Y21.2174
G01 X17.7336 Y21.2084
G01 X17.7493 Y21.2010
G01 X17.7657 Y21.1951
G01 X17.7826 Y21.1909
G01 X17.7997 Y21.1884
G01 X17.8171 Y21.1875
G01 X17.8357 Y21.1885
G01 X17.8516 Y21.1909
G01 X17.8708 Y21.1959
G01 X17.8849 Y21.2010
G01 X17.8984 Y21.2073
G01 X17.9134 Y21.2161
G01 X17.9294 Y21.2277
G01 X17.9423 Y21.2394
G01 X17.9540 Y21.2523
G01 X17.9643 Y21.2662
G01 X17.9744 Y21.2833
G01 X17.9807 Y21.2968
G01 X17.9858 Y21.3109
G01 X18.0235 Y21.4350
G01 X18.0277 Y21.4519
G01 X18.0300 Y21.4666
G01 X18.0311 Y21.4877
G01 X18.0303 Y21.5038
G01 X18.0281 Y21.5186
G01 X18.0235 Y21.5378
G01 X18.0167 Y21.5564
G01 X18.0102 Y21.5699
G01 X18.0026 Y21.5827
G01 X17.9893 Y21.6006
G01 X17.9801 Y21.6108
G01 X17.9514 Y21.6395
G01 X17.8037 Y21.8606
G01 X17.7019 Y22.1062
G01 X17.6501 Y22.3670
G01 X17.6501 Y22.6330
G01 X17.7019 Y22.8938
G01 X17.8037 Y23.1394
G01 X17.9514 Y23.3605
G01 X18.1395 Y23.5486
G01 X18.3606 Y23.6963
G01 X18.6062 Y23.7981
G01 X18.8670 Y23.8499
G01 X19.1330 Y23.8499
G01 X19.3938 Y23.7981
G01 X19.6394 Y23.6963
G01 X19.8605 Y23.5486
G01 X20.0486 Y23.3605
G01 X20.1963 Y23.1394
G01 X20.2981 Y22.8938
G01 X20.3499 Y22.6330
G01 X20.3499 Y22.3670
G01 X20.2981 Y22.1062
G01 X20.1963 Y21.8606
G01 X20.0486 Y21.6395
G01 X20.0190 Y21.6099
G01 X20.0091 Y21.5988
G01 X19.9987 Y21.5848
G01 X19.9898 Y21.5699
G01 X19.9824 Y21.5542
G01 X19.9765 Y21.5378
G01 X19.9723 Y21.5210
G01 X19.9697 Y21.5038
G01 X19.9689 Y21.4864
G01 X19.9697 Y21.4691
G01 X19.9719 Y21.4543
G01 X19.9765 Y21.4350
G01 X20.0124 Y21.3166
G01 X20.0285 Y21.1538
G01 X20.0285 Y20.5962
G01 X20.0124 Y20.4334
G01 X19.9675 Y20.2851
G01 X19.8944 Y20.1485
G01 X19.8632 Y20.1104
G01 X19.8544 Y20.0984
G01 X19.8454 Y20.0835
G01 X19.8380 Y20.0678
G01 X19.8322 Y20.0514
G01 X19.8279 Y20.0345
G01 X19.8253 Y20.0161
G01 X19.8246 Y19.9975
G01 X19.8254 Y19.9826
G01 X19.8275 Y19.9679
G01 X19.8322 Y19.9486
G01 X19.8390 Y19.9300
G01 X19.8454 Y19.9165
G01 X19.8551 Y19.9006
G01 X19.8647 Y19.8877
G01 X19.8944 Y19.8515
G01 X19.9675 Y19.7149
G01 X20.0124 Y19.5666
G01 X20.0285 Y19.4038
G01 X20.0285 Y18.8462
G01 X20.0124 Y18.6834
G01 X19.9675 Y18.5351
G01 X19.8944 Y18.3985
G01 X19.7894 Y18.2705
G01 X19.7798 Y18.2575
G01 X19.7714 Y18.2437
G01 X19.7634 Y18.2269
G01 X19.7569 Y18.2081
G01 X19.7533 Y18.1937
G01 X19.7511 Y18.1789
G01 X19.7500 Y18.1603
G01 X19.7500 Y17.9526
G01 X19.7508 Y17.9365
G01 X19.7529 Y17.9217
G01 X19.7579 Y17.9013
G01 X19.7634 Y17.8861
G01 X19.7697 Y17.8726
G01 X19.7805 Y17.8544
G01 X19.7901 Y17.8415
G01 X19.8595 Y17.7570
G01 X19.9105 Y17.6615
G01 X19.9420 Y17.5578
G01 X19.9535 Y17.4413
G01 X19.9535 Y17.2010
G01 X19.9546 Y17.1825
G01 X19.9569 Y17.1677
G01 X19.9607 Y17.1521
G01 X19.9669 Y17.1345
G01 X19.9756 Y17.1167
G01 X19.9833 Y17.1039
G01 X19.9921 Y17.0919
G01 X20.0053 Y17.0771
G01 X20.0173 Y17.0662
G01 X20.0579 Y17.0329
G01 X20.0766 Y17.0100
G01 X20.0875 Y16.9981
G01 X21.5847 Y15.5009
G01 X21.5966 Y15.4901
G01 X21.6106 Y15.4798
G01 X21.6255 Y15.4708
G01 X21.6412 Y15.4634
G01 X21.6576 Y15.4576
G01 X21.6744 Y15.4533
G01 X21.6916 Y15.4508
G01 X21.7077 Y15.4500
G01 X21.8695 Y15.4499
G01 X21.8844 Y15.4506
G01 X21.9064 Y15.4539
G01 X21.9209 Y15.4576
G01 X21.9372 Y15.4634
G01 X21.9530 Y15.4708
G01 X21.9699 Y15.4812
G01 X21.9818 Y15.4901
G01 X21.9929 Y15.5001
G01 X22.0064 Y15.5147
G01 X22.0180 Y15.5307
G01 X22.0256 Y15.5435
G01 X22.0321 Y15.5570
G01 X22.0389 Y15.5756
G01 X22.0434 Y15.5937
G01 X22.0457 Y15.6096
G01 X22.0465 Y15.6270
G01 X22.0465 Y17.4413
G01 X22.0580 Y17.5578
G01 X22.0895 Y17.6615
G01 X22.1045 Y17.6897
G01 X22.1104 Y17.7020
G01 X22.1172 Y17.7206
G01 X22.1219 Y17.7399
G01 X22.1240 Y17.7547
G01 X22.1248 Y17.7708
G01 X22.1237 Y17.7918
G01 X22.1215 Y17.8066
G01 X22.1179 Y17.8211
G01 X22.1114 Y17.8398
G01 X22.1027 Y17.8576
G01 X22.0950 Y17.8704
G01 X22.0847 Y17.8844
G01 X22.0739 Y17.8964
G01 X22.0678 Y17.9021
G01 X21.9681 Y18.0235
G01 X21.8950 Y18.1601
G01 X21.8501 Y18.3084
G01 X21.8340 Y18.4712
G01 X21.8340 Y18.9288
G01 X21.8501 Y19.0916
G01 X21.8950 Y19.2399
G01 X21.9681 Y19.3765
G01 X22.0663 Y19.4962
G01 X22.0827 Y19.5106
G01 X22.0953 Y19.5243
G01 X22.1056 Y19.5383
G01 X22.1140 Y19.5521
G01 X22.1229 Y19.5712
G01 X22.1278 Y19.5853
G01 X22.1321 Y19.6021
G01 X22.1346 Y19.6193
G01 X22.1354 Y19.6342
G01 X22.1345 Y19.6552
G01 X22.1315 Y19.6736
G01 X22.1278 Y19.6881
G01 X22.1229 Y19.7021
G01 X22.1146 Y19.7201
G01 X22.1049 Y19.7361
G01 X22.0953 Y19.7490
G01 X22.0818 Y19.7636
G01 X22.0707 Y19.7735
G01 X21.9968 Y19.8343
G01 X21.9280 Y19.9180
G01 X21.8770 Y20.0135
G01 X21.8455 Y20.1172
G01 X21.8343 Y20.2311
G01 X21.8354 Y20.2698
G01 X21.9156 Y20.3499
G01 X22.3605 Y20.3499
G01 X22.3714 Y20.3270
G01 X22.3846 Y20.3048
G01 X22.4012 Y20.2820
G01 X22.4217 Y20.2592
G01 X22.4426 Y20.2403
G01 X22.4673 Y20.2221
G01 X22.4895 Y20.2089
G01 X22.5127 Y20.1979
G01 X22.5415 Y20.1874
G01 X22.5689 Y20.1805
G01 X22.5968 Y20.1764
G01 X22.6250 Y20.1750
G01 X23.2012 Y20.1750
G01 X23.2282 Y20.1764
G01 X23.2537 Y20.1801
G01 X23.2835 Y20.1874
G01 X23.3123 Y20.1979
G01 X23.3355 Y20.2089
G01 X23.3577 Y20.2221
G01 X23.3824 Y20.2403
G01 X23.4050 Y20.2610
G01 X23.4222 Y20.2801
G01 X23.4376 Y20.3008
G01 X23.4536 Y20.3270
G01 X23.4656 Y20.3525
G01 X23.4751 Y20.3790
G01 X23.4820 Y20.4064
G01 X23.4863 Y20.4368
G01 X23.4875 Y20.4625
G01 X23.4875 Y20.9375
G01 X23.4860 Y20.9669
G01 X23.4820 Y20.9936
G01 X23.4758 Y21.0186
G01 X23.4656 Y21.0475
G01 X23.4536 Y21.0730
G01 X23.4404 Y21.0952
G01 X23.4206 Y21.1217
G01 X23.4033 Y21.1408
G01 X23.3842 Y21.1581
G01 X23.3577 Y21.1779
G01 X23.3355 Y21.1911
G01 X23.3100 Y21.2031
G01 X23.2835 Y21.2126
G01 X23.2626 Y21.2179
G01 X23.2626 Y21.6469
G01 X23.2714 Y21.6558
G01 X23.2814 Y21.6668
G01 X23.2919 Y21.6807
G01 X23.3015 Y21.6966
G01 X23.3094 Y21.7135
G01 X23.3148 Y21.7287
G01 X23.3194 Y21.7480
G01 X23.3216 Y21.7628
G01 X23.3224 Y21.7777
G01 X23.3217 Y21.7962
G01 X23.3185 Y21.8171
G01 X23.3148 Y21.8315
G01 X23.3094 Y21.8467
G01 X23.2019 Y22.1062
G01 X23.1501 Y22.3670
G01 X23.1501 Y22.6330
G01 X23.2019 Y22.8938
G01 X23.3037 Y23.1394
G01 X23.4514 Y23.3605
G01 X23.6395 Y23.5486
G01 X23.8606 Y23.6963
G01 X24.1062 Y23.7981
G01 X24.3670 Y23.8499
G01 X24.6330 Y23.8499
G01 X24.8938 Y23.7981
G01 X25.1394 Y23.6963
G01 X25.3605 Y23.5486
G01 X25.5486 Y23.3605
G01 X25.6963 Y23.1394
G01 X25.7981 Y22.8938
G01 X25.8499 Y22.6330
G01 X25.8499 Y22.3670
G01 X25.7981 Y22.1062
G01 X25.7328 Y21.9486
G01 X25.7277 Y21.9346
G01 X25.7223 Y21.9130
G01 X25.7201 Y21.8982
G01 X25.7193 Y21.8808
G01 X25.7201 Y21.8635
G01 X25.7232 Y21.8439
G01 X25.7277 Y21.8271
G01 X25.7328 Y21.8131
G01 X25.7391 Y21.7996
G01 X25.7491 Y21.7825
G01 X25.7595 Y21.7685
G01 X25.7711 Y21.7556
G01 X25.7840 Y21.7440
G01 X25.7980 Y21.7336
G01 X25.8129 Y21.7247
G01 X25.8286 Y21.7172
G01 X25.8426 Y21.7122
G01 X25.8642 Y21.7067
G01 X25.8790 Y21.7046
G01 X25.8963 Y21.7038
G01 X25.9137 Y21.7046
G01 X25.9333 Y21.7077
G01 X25.9477 Y21.7114
G01 X26.0422 Y21.7400
G01 X26.1587 Y21.7515
G01 X27.6413 Y21.7515
G01 X27.7578 Y21.7400
G01 X27.8615 Y21.7086
G01 X27.9570 Y21.6575
G01 X28.0407 Y21.5888
G01 X28.1095 Y21.5051
G01 X28.1605 Y21.4095
G01 X28.1920 Y21.3059
G01 X28.2035 Y21.1894
G01 X28.2035 Y20.2068
G01 X28.1920 Y20.0903
G01 X28.1605 Y19.9866
G01 X28.1095 Y19.8911
G01 X28.0429 Y19.8099
G01 X28.0333 Y19.7969
G01 X28.0233 Y19.7798
G01 X28.0161 Y19.7640
G01 X28.0111 Y19.7500
G01 X28.0074 Y19.7355
G01 X28.0043 Y19.7159
G01 X28.0035 Y19.6986
G01 X28.0043 Y19.6812
G01 X28.0074 Y19.6616
G01 X28.0111 Y19.6472
G01 X28.0161 Y19.6331
G01 X28.0244 Y19.6151
G01 X28.0333 Y19.6002
G01 X28.0429 Y19.5872
G01 X28.1095 Y19.5061
G01 X28.1605 Y19.4106
G01 X28.1920 Y19.3069
G01 X28.2035 Y19.1904
G01 X28.2035 Y18.2078
G01 X28.1920 Y18.0913
G01 X28.1605 Y17.9876
G01 X28.1095 Y17.8921
G01 X28.0419 Y17.8097
G01 X28.0323 Y17.7967
G01 X28.0223 Y17.7796
G01 X28.0159 Y17.7661
G01 X28.0108 Y17.7520
G01 X28.0064 Y17.7353
G01 X28.0033 Y17.7157
G01 X28.0025 Y17.6983
G01 X28.0036 Y17.6785
G01 X28.0059 Y17.6638
G01 X28.0094 Y17.6493
G01 X28.0159 Y17.6306
G01 X28.0234 Y17.6149
G01 X28.0323 Y17.5999
G01 X28.0419 Y17.5870
G01 X28.1095 Y17.5046
G01 X28.1605 Y17.4090
G01 X28.1920 Y17.3054
G01 X28.2035 Y17.1889
G01 X28.2035 Y16.2063
G01 X28.1920 Y16.0898
G01 X28.1605 Y15.9861
G01 X28.1095 Y15.8906
G01 X28.0440 Y15.8107
G01 X28.0344 Y15.7977
G01 X28.0243 Y15.7806
G01 X28.0171 Y15.7648
G01 X28.0122 Y15.7507
G01 X28.0085 Y15.7363
G01 X28.0054 Y15.7167
G01 X28.0045 Y15.6993
G01 X28.0057 Y15.6795
G01 X28.0079 Y15.6648
G01 X28.0115 Y15.6503
G01 X28.0180 Y15.6316
G01 X28.0254 Y15.6159
G01 X28.0344 Y15.6010
G01 X28.0440 Y15.5880
G01 X28.1095 Y15.5081
G01 X28.1605 Y15.4126
G01 X28.1920 Y15.3089
G01 X28.2035 Y15.1924
G01 X28.2035 Y14.2098
G01 X28.1920 Y14.0933
G01 X28.1605 Y13.9896
G01 X28.1095 Y13.8941
G01 X28.0429 Y13.8130
G01 X28.0333 Y13.8000
G01 X28.0233 Y13.7829
G01 X28.0161 Y13.7671
G01 X28.0111 Y13.7530
G01 X28.0074 Y13.7386
G01 X28.0043 Y13.7190
G01 X28.0035 Y13.7016
G01 X28.0043 Y13.6843
G01 X28.0074 Y13.6647
G01 X28.0111 Y13.6502
G01 X28.0161 Y13.6362
G01 X28.0244 Y13.6182
G01 X28.0333 Y13.6033
G01 X28.0429 Y13.5903
G01 X28.1095 Y13.5091
G01 X28.1605 Y13.4136
G01 X28.1920 Y13.3099
G01 X28.2035 Y13.1934
G01 X28.2035 Y12.2108
G01 X28.1920 Y12.0943
G01 X28.1605 Y11.9907
G01 X28.1095 Y11.8951
G01 X28.0419 Y11.8127
G01 X28.0323 Y11.7998
G01 X28.0223 Y11.7827
G01 X28.0159 Y11.7691
G01 X28.0108 Y11.7551
G01 X28.0064 Y11.7383
G01 X28.0033 Y11.7187
G01 X28.0025 Y11.7014
G01 X28.0036 Y11.6816
G01 X28.0059 Y11.6668
G01 X28.0094 Y11.6523
G01 X28.0159 Y11.6336
G01 X28.0234 Y11.6179
G01 X28.0323 Y11.6030
G01 X28.0419 Y11.5900
G01 X28.1095 Y11.5076
G01 X28.1605 Y11.4121
G01 X28.1920 Y11.3084
G01 X28.2035 Y11.1919
G01 X28.2035 Y10.2093
G01 X28.1920 Y10.0928
G01 X28.1605 Y9.9891
G01 X28.1095 Y9.8936
G01 X28.0429 Y9.8125
G01 X28.0333 Y9.7995
G01 X28.0233 Y9.7824
G01 X28.0161 Y9.7666
G01 X28.0111 Y9.7525
G01 X28.0074 Y9.7381
G01 X28.0043 Y9.7185
G01 X28.0035 Y9.7011
G01 X28.0043 Y9.6838
G01 X28.0074 Y9.6642
G01 X28.0111 Y9.6497
G01 X28.0161 Y9.6357
G01 X28.0233 Y9.6199
G01 X28.0333 Y9.6028
G01 X28.0429 Y9.5898
G01 X28.1095 Y9.5086
G01 X28.1605 Y9.4131
G01 X28.1920 Y9.3094
G01 X28.2035 Y9.1929
G01 X28.2035 Y8.2103
G01 X28.1920 Y8.0938
G01 X28.1605 Y7.9902
G01 X28.1095 Y7.8946
G01 X28.0407 Y7.8109
G01 X27.9570 Y7.7422
G01 X27.8615 Y7.6911
G01 X27.7578 Y7.6597
G01 X27.6413 Y7.6482
G01 X26.2809 Y7.6482
G01 X26.2623 Y7.6470
G01 X26.2476 Y7.6448
G01 X26.2331 Y7.6412
G01 X26.2143 Y7.6347
G01 X26.1986 Y7.6273
G01 X26.1817 Y7.6169
G01 X26.1698 Y7.6080
G01 X26.1569 Y7.5963
G01 X25.0625 Y6.5019
G01 X25.0516 Y6.4900
G01 X25.0329 Y6.4671
G01 X24.9187 Y6.3734
G01 X24.8448 Y6.3340
G01 X24.8310 Y6.3256
G01 X24.8161 Y6.3145
G01 X24.8042 Y6.3036
G01 X24.7933 Y6.2917
G01 X24.7199 Y6.2022
G01 X24.7132 Y6.1960
G01 X24.7024 Y6.1840
G01 X24.6914 Y6.1690
G01 X24.6820 Y6.1530
G01 X24.6757 Y6.1394
G01 X24.6706 Y6.1254
G01 X24.6656 Y6.1062
G01 X24.6629 Y6.0866
G01 X24.6622 Y6.0717
G01 X24.6629 Y6.0568
G01 X24.6656 Y6.0371
G01 X24.6706 Y6.0180
G01 X24.6757 Y6.0039
G01 X24.6820 Y5.9904
G01 X24.6935 Y5.9713
G01 X24.7024 Y5.9594
G01 X24.7132 Y5.9474
G01 X24.7990 Y5.8616
G01 X24.8100 Y5.8516
G01 X24.8329 Y5.8329
G01 X24.9266 Y5.7187
G01 X24.9962 Y5.5884
G01 X25.0391 Y5.4470
G01 X25.0536 Y5.3000
G01 X25.0507 Y5.2706
G01 X25.0499 Y5.2545
G01 X25.0500 Y4.9876
G01 X25.0508 Y4.9727
G01 X25.0533 Y4.9555
G01 X25.0576 Y4.9386
G01 X25.0630 Y4.9234
G01 X25.0708 Y4.9066
G01 X25.0798 Y4.8917
G01 X25.0901 Y4.8777
G01 X25.1001 Y4.8666
G01 X25.1147 Y4.8532
G01 X25.1907 Y4.7907
G01 X25.2595 Y4.7070
G01 X25.3105 Y4.6115
G01 X25.3420 Y4.5078
G01 X25.3535 Y4.3913
G01 X25.3535 Y3.7587
G01 X25.3420 Y3.6422
G01 X25.3105 Y3.5385
G01 X25.2595 Y3.4430
G01 X25.1907 Y3.3593
G01 X25.1070 Y3.2905
G01 X25.0115 Y3.2395
G01 X24.9078 Y3.2080
G01 X24.7913 Y3.1965
G01 X23.7587 Y3.1965
G01 X23.6422 Y3.2080
G01 X23.5385 Y3.2395
G01 X23.4407 Y3.2917
G01 X23.4349 Y3.2959
G01 X23.4210 Y3.3042
G01 X23.4064 Y3.3111
G01 X23.3890 Y3.3174
G01 X23.3721 Y3.3217
G01 X23.3549 Y3.3242
G01 X23.3400 Y3.3250
G01 X21.0612 Y3.3250
G01 X21.0451 Y3.3242
G01 X21.0279 Y3.3217
G01 X21.0110 Y3.3174
G01 X20.9947 Y3.3116
G01 X20.9790 Y3.3042
G01 X20.9651 Y3.2959
G01 X20.9593 Y3.2917
G01 X20.8615 Y3.2395
G01 X20.7578 Y3.2080
G01 X20.6413 Y3.1965
G01 X19.6087 Y3.1965
G01 X19.4922 Y3.2080
G01 X19.3885 Y3.2395
G01 X19.2930 Y3.2905
G01 X19.2093 Y3.3593
G01 X19.1405 Y3.4430
G01 X19.0895 Y3.5385
G01 X19.0580 Y3.6422
G01 X19.0465 Y3.7587
G01 X19.0465 Y4.3913
G01 X19.0580 Y4.5078
G01 X19.0895 Y4.6115
G01 X19.1405 Y4.7070
G01 X19.2093 Y4.7907
G01 X19.2930 Y4.8595
G01 X19.3885 Y4.9105
G01 X19.4922 Y4.9420
G01 X19.6087 Y4.9535
G01 X20.6413 Y4.9535
G01 X20.7578 Y4.9420
G01 X20.8615 Y4.9105
G01 X20.9593 Y4.8583
G01 X20.9651 Y4.8541
G01 X20.9790 Y4.8458
G01 X20.9936 Y4.8389
G01 X21.0110 Y4.8326
G01 X21.0279 Y4.8283
G01 X21.0451 Y4.8258
G01 X21.0600 Y4.8250
G01 X23.2883 Y4.8250
G01 X23.3068 Y4.8261
G01 X23.3216 Y4.8283
G01 X23.3361 Y4.8319
G01 X23.3548 Y4.8384
G01 X23.3705 Y4.8458
G01 X23.3854 Y4.8548
G01 X23.4012 Y4.8667
G01 X23.4139 Y4.8786
G01 X23.4239 Y4.8897
G01 X23.4328 Y4.9016
G01 X23.4432 Y4.9185
G01 X23.4506 Y4.9342
G01 X23.4565 Y4.9506
G01 X23.4611 Y4.9699
G01 X23.4632 Y4.9846
G01 X23.4640 Y4.9995
G01 X23.4634 Y5.0169
G01 X23.4607 Y5.0365
G01 X23.4565 Y5.0534
G01 X23.4506 Y5.0698
G01 X23.4432 Y5.0855
G01 X23.4342 Y5.1004
G01 X23.4239 Y5.1143
G01 X23.4122 Y5.1272
G01 X23.3760 Y5.1634
G01 X23.3650 Y5.1734
G01 X23.3421 Y5.1921
G01 X23.2484 Y5.3063
G01 X23.1788 Y5.4366
G01 X23.1359 Y5.5780
G01 X23.1214 Y5.7250
G01 X23.1243 Y5.7544
G01 X23.1250 Y5.7693
G01 X23.1250 Y5.9576
G01 X23.1242 Y5.9737
G01 X23.1221 Y5.9885
G01 X23.1174 Y6.0078
G01 X23.1116 Y6.0242
G01 X23.1053 Y6.0377
G01 X23.0952 Y6.0548
G01 X23.0849 Y6.0687
G01 X23.0749 Y6.0798
G01 X23.0603 Y6.0933
G01 X23.0464 Y6.1036
G01 X23.0336 Y6.1113
G01 X23.0158 Y6.1200
G01 X22.9970 Y6.1265
G01 X22.9825 Y6.1301
G01 X22.9678 Y6.1323
G01 X22.9480 Y6.1335
G01 X22.9294 Y6.1325
G01 X22.9111 Y6.1295
G01 X22.8966 Y6.1258
G01 X22.8825 Y6.1209
G01 X22.8645 Y6.1125
G01 X22.7149 Y6.0325
G01 X22.5666 Y5.9876
G01 X22.4038 Y5.9715
G01 X21.8462 Y5.9715
G01 X21.6834 Y5.9876
G01 X21.5351 Y6.0325
G01 X21.3985 Y6.1056
G01 X21.3803 Y6.1195
G01 X21.3633 Y6.1297
G01 X21.3487 Y6.1366
G01 X21.3324 Y6.1424
G01 X21.3155 Y6.1467
G01 X21.2983 Y6.1492
G01 X21.2810 Y6.1501
G01 X20.1325 Y6.1501
G01 X20.1164 Y6.1493
G01 X20.0956 Y6.1461
G01 X20.0811 Y6.1424
G01 X20.0670 Y6.1375
G01 X20.0490 Y6.1292
G01 X20.0321 Y6.1188
G01 X20.0202 Y6.1099
G01 X20.0082 Y6.0991
G01 X19.8605 Y5.9514
G01 X19.6394 Y5.8037
G01 X19.3938 Y5.7019
G01 X19.1330 Y5.6501
G01 X18.8670 Y5.6501
G01 X18.6062 Y5.7019
G01 X18.3606 Y5.8037
G01 X18.1395 Y5.9514
G01 X17.9514 Y6.1395
G01 X17.8037 Y6.3606
G01 X17.7019 Y6.6062
G01 X17.6501 Y6.8670
G01 X17.6501 Y7.1330
G01 X17.7019 Y7.3938
G01 X17.8037 Y7.6394
G01 X17.9514 Y7.8605
G01 X18.1395 Y8.0486
G01 X18.3606 Y8.1963
G01 X18.6062 Y8.2981
G01 X18.8670 Y8.3499
G01 X19.1330 Y8.3499
G01 X19.3938 Y8.2981
G01 X19.6394 Y8.1963
G01 X19.8605 Y8.0486
G01 X20.0073 Y7.9018
G01 X20.0221 Y7.8886
G01 X20.0362 Y7.8785
G01 X20.0490 Y7.8708
G01 X20.0625 Y7.8644
G01 X20.0811 Y7.8576
G01 X20.0980 Y7.8533
G01 X20.1151 Y7.8508
G01 X20.1325 Y7.8499
G01 X21.0992 Y7.8500
G01 X21.1154 Y7.8508
G01 X21.1301 Y7.8529
G01 X21.1517 Y7.8583
G01 X21.1658 Y7.8634
G01 X21.1815 Y7.8708
G01 X21.1964 Y7.8798
G01 X21.2084 Y7.8886
G01 X21.2249 Y7.9036
G01 X21.2349 Y7.9147
G01 X21.2459 Y7.9297
G01 X21.2542 Y7.9435
G01 X21.2616 Y7.9592
G01 X21.2674 Y7.9756
G01 X21.2711 Y7.9901
G01 X21.2742 Y8.0096
G01 X21.2750 Y8.0258
G01 X21.2751 Y8.1450
G01 X21.2741 Y8.1636
G01 X21.2717 Y8.1796
G01 X21.2674 Y8.1964
G01 X21.2616 Y8.2128
G01 X21.2536 Y8.2296
G01 X21.2452 Y8.2434
G01 X21.2356 Y8.2564
G01 X21.1806 Y8.3235
G01 X21.1075 Y8.4601
G01 X21.0626 Y8.6084
G01 X21.0465 Y8.7712
G01 X21.0465 Y9.2288
G01 X21.0626 Y9.3916
G01 X21.1075 Y9.5399
G01 X21.1806 Y9.6765
G01 X21.2788 Y9.7962
G01 X21.2952 Y9.8106
G01 X21.3078 Y9.8243
G01 X21.3181 Y9.8383
G01 X21.3265 Y9.8521
G01 X21.3354 Y9.8712
G01 X21.3403 Y9.8853
G01 X21.3446 Y9.9021
G01 X21.3473 Y9.9218
G01 X21.3480 Y9.9367
G01 X21.3473 Y9.9516
G01 X21.3446 Y9.9712
G01 X21.3396 Y9.9904
G01 X21.3345 Y10.0044
G01 X21.3282 Y10.0179
G01 X21.3174 Y10.0361
G01 X21.3078 Y10.0490
G01 X21.2943 Y10.0636
G01 X21.2832 Y10.0735
G01 X21.2093 Y10.1343
G01 X21.1405 Y10.2180
G01 X21.0895 Y10.3135
G01 X21.0580 Y10.4172
G01 X21.0468 Y10.5311
G01 X21.0479 Y10.5698
G01 X21.1281 Y10.6499
G01 X21.5730 Y10.6499
G01 X21.5839 Y10.6270
G01 X21.5971 Y10.6048
G01 X21.6153 Y10.5801
G01 X21.6360 Y10.5575
G01 X21.6551 Y10.5403
G01 X21.6758 Y10.5249
G01 X21.7020 Y10.5089
G01 X21.7298 Y10.4960
G01 X21.7540 Y10.4874
G01 X21.7790 Y10.4811
G01 X21.8069 Y10.4767
G01 X21.8375 Y10.4750
G01 X22.4150 Y10.4751
G01 X22.4431 Y10.4767
G01 X22.4686 Y10.4805
G01 X22.4936 Y10.4867
G01 X22.5225 Y10.4969
G01 X22.5502 Y10.5102
G01 X22.5722 Y10.5235
G01 X22.5930 Y10.5387
G01 X22.6140 Y10.5575
G01 X22.6347 Y10.5801
G01 X22.6515 Y10.6028
G01 X22.6661 Y10.6270
G01 X22.6790 Y10.6548
G01 X22.6876 Y10.6790
G01 X22.6939 Y10.7040
G01 X22.6985 Y10.7331
G01 X22.7000 Y10.7625
G01 X22.7000 Y11.2375
G01 X22.6987 Y11.2645
G01 X22.6945 Y11.2936
G01 X22.6869 Y11.3233
G01 X22.6781 Y11.3475
G01 X22.6672 Y11.3708
G01 X22.6513 Y11.3976
G01 X23.7537 Y12.5000
G01 X24.3537 Y12.5001
G01 X24.3621 Y12.5015
G01 X24.3714 Y12.5048
G01 X24.3788 Y12.5091
G01 X24.3862 Y12.5155
G01 X24.3922 Y12.5233
G01 X24.3962 Y12.5309
G01 X24.3988 Y12.5390
G01 X24.3999 Y12.5475
G01 X24.4000 Y14.4500
G01 X24.3990 Y14.4598
G01 X24.3975 Y14.4657
G01 X24.3957 Y14.4703
G01 X24.3922 Y14.4767
G01 X24.3887 Y14.4817
G01 X24.3836 Y14.4870
G01 X24.3778 Y14.4916
G01 X24.3714 Y14.4952
G01 X24.3645 Y14.4978
G01 X24.3573 Y14.4995
G01 X24.3512 Y14.5000
G01 X23.5500 Y14.5000
G01 X23.5402 Y14.4990
G01 X23.5320 Y14.4966
G01 X23.5254 Y14.4935
G01 X23.5192 Y14.4894
G01 X23.5138 Y14.4845
G01 X23.5091 Y14.4788
G01 X23.5053 Y14.4725
G01 X23.5025 Y14.4657
G01 X23.5007 Y14.4585
G01 X23.5000 Y14.4512
G01 X23.5000 Y12.9537
G01 X22.0713 Y11.5250
G01 X21.8375 Y11.5250
G01 X21.8105 Y11.5237
G01 X21.7790 Y11.5189
G01 X21.7540 Y11.5126
G01 X21.7264 Y11.5026
G01 X21.6998 Y11.4898
G01 X21.6778 Y11.4765
G01 X21.6570 Y11.4613
G01 X21.6342 Y11.4408
G01 X21.6153 Y11.4199
G01 X21.5985 Y11.3972
G01 X21.5828 Y11.3708
G01 X21.5710 Y11.3452
G01 X21.5624 Y11.3210
G01 X21.5571 Y11.3001
G01 X21.0501 Y11.3001
G01 X21.0500 Y11.3592
G01 X21.0468 Y11.4689
G01 X21.0493 Y11.4946
G01 X21.0501 Y11.5107
G01 X21.0501 Y12.0413
G01 X21.0494 Y12.0562
G01 X21.0469 Y12.0746
G01 X21.0431 Y12.0903
G01 X21.0356 Y12.1113
G01 X21.0292 Y12.1248
G01 X21.0202 Y12.1397
G01 X21.0099 Y12.1536
G01 X20.9991 Y12.1656
G01 X20.9834 Y12.1797
G01 X20.9714 Y12.1885
G01 X20.9586 Y12.1962
G01 X20.9408 Y12.2049
G01 X20.9220 Y12.2114
G01 X20.9075 Y12.2150
G01 X20.8928 Y12.2172
G01 X20.8730 Y12.2184
G01 X20.8532 Y12.2172
G01 X20.8385 Y12.2150
G01 X20.8216 Y12.2107
G01 X20.8052 Y12.2049
G01 X20.7917 Y12.1986
G01 X20.7726 Y12.1871
G01 X20.7597 Y12.1774
G01 X20.7487 Y12.1674
G01 X20.7423 Y12.1605
G01 X20.6570 Y12.0905
G01 X20.5615 Y12.0395
G01 X20.4578 Y12.0080
G01 X20.3780 Y12.0002
G01 X20.3001 Y12.0781
G01 X20.3001 Y12.5000
G01 X20.3537 Y12.5001
G01 X20.3621 Y12.5015
G01 X20.3714 Y12.5048
G01 X20.3778 Y12.5084
G01 X20.3827 Y12.5121
G01 X20.3870 Y12.5164
G01 X20.3916 Y12.5222
G01 X20.3952 Y12.5286
G01 X20.3975 Y12.5343
G01 X20.3993 Y12.5415
G01 X20.3999 Y12.5475
G01 X20.4000 Y14.4500
G01 X20.3998 Y14.4549
G01 X20.3988 Y14.4610
G01 X20.3975 Y14.4657
G01 X20.3952 Y14.4714
G01 X20.3922 Y14.4767
G01 X20.3879 Y14.4827
G01 X20.3827 Y14.4879
G01 X20.3778 Y14.4916
G01 X20.3714 Y14.4952
G01 X20.3645 Y14.4978
G01 X20.3573 Y14.4995
G01 X20.3512 Y14.5000
G01 X19.5451 Y14.4998
G01 X19.5367 Y14.4982
G01 X19.5286 Y14.4952
G01 X19.5212 Y14.4909
G01 X19.5138 Y14.4845
G01 X19.5084 Y14.4778
G01 X19.5038 Y14.4691
G01 X19.5012 Y14.4610
G01 X19.5000 Y14.4512
G01 X19.5000 Y12.5488
G01 X19.5005 Y12.5427
G01 X19.5022 Y12.5355
G01 X19.5043 Y12.5297
G01 X19.5078 Y12.5233
G01 X19.5121 Y12.5173
G01 X19.5164 Y12.5130
G01 X19.5212 Y12.5091
G01 X19.5275 Y12.5053
G01 X19.5367 Y12.5018
G01 X19.5463 Y12.5001
G01 X19.5999 Y12.5000
G01 X19.5999 Y12.0781
G01 X19.5220 Y12.0002
G01 X19.4422 Y12.0080
G01 X19.3385 Y12.0395
G01 X19.2430 Y12.0905
G01 X19.1593 Y12.1593
G01 X19.1361 Y12.1875
G01 X19.1252 Y12.1994
G01 X19.1123 Y12.2111
G01 X19.0973 Y12.2221
G01 X19.0835 Y12.2304
G01 X19.0700 Y12.2368
G01 X19.0514 Y12.2436
G01 X19.0321 Y12.2483
G01 X19.0174 Y12.2504
G01 X19.0000 Y12.2513
G01 X18.9826 Y12.2504
G01 X18.9679 Y12.2483
G01 X18.9486 Y12.2436
G01 X18.9322 Y12.2378
G01 X18.9187 Y12.2315
G01 X18.9016 Y12.2214
G01 X18.8877 Y12.2111
G01 X18.8748 Y12.1994
G01 X18.8639 Y12.1875
G01 X18.8407 Y12.1593
G01 X18.7570 Y12.0905
G01 X18.6615 Y12.0395
G01 X18.5578 Y12.0080
G01 X18.4413 Y11.9965
G01 X17.6587 Y11.9965
G01 X17.5422 Y12.0080
G01 X17.4385 Y12.0395
G01 X17.3430 Y12.0905
G01 X17.2593 Y12.1593
G01 X17.1905 Y12.2430
G01 X17.1395 Y12.3385
G01 X17.1080 Y12.4422
G01 X17.0965 Y12.5587
G01 X17.0965 Y12.5742
G01 X17.0956 Y12.5916
G01 X17.0926 Y12.6099
G01 X17.0889 Y12.6244
G01 X17.0840 Y12.6385
G01 X17.0744 Y12.6586
G01 X17.0667 Y12.6714
G01 X17.0564 Y12.6853
G01 X17.0447 Y12.6982
G01 X17.0337 Y12.7083
G01 X17.0168 Y12.7209
G01 X17.0030 Y12.7292
G01 X16.9895 Y12.7356
G01 X16.9709 Y12.7424
G01 X16.9516 Y12.7471
G01 X16.9368 Y12.7492
G01 X16.9219 Y12.7500
G01 X16.4340 Y12.7501
G01 X16.4166 Y12.7492
G01 X16.3994 Y12.7467
G01 X16.3826 Y12.7424
G01 X16.3685 Y12.7375
G01 X16.3505 Y12.7292
G01 X16.3336 Y12.7188
G01 X16.3216 Y12.7099
G01 X16.3097 Y12.6991
G01 X14.8125 Y11.2019
G01 X14.8016 Y11.1900
G01 X14.7829 Y11.1671
G01 X14.6687 Y11.0734
G01 X14.5384 Y11.0038
G01 X14.3970 Y10.9609
G01 X14.2500 Y10.9464
G01 X14.2206 Y10.9493
G01 X14.2057 Y10.9500
G01 X14.1258 Y10.9500
G01 X14.1096 Y10.9492
G01 X14.0949 Y10.9471
G01 X14.0756 Y10.9424
G01 X14.0592 Y10.9366
G01 X14.0457 Y10.9303
G01 X14.0266 Y10.9188
G01 X14.0147 Y10.9099
G01 X14.0018 Y10.8982
G01 X13.9901 Y10.8853
G01 X13.9805 Y10.8724
G01 X13.9697 Y10.8543
G01 X13.9634 Y10.8408
G01 X13.9576 Y10.8244
G01 X13.9529 Y10.8051
G01 X13.9508 Y10.7904
G01 X13.9500 Y10.7755
G01 X13.9499 Y10.2294
G01 X13.9508 Y10.2121
G01 X13.9536 Y10.1937
G01 X13.9583 Y10.1757
G01 X13.9634 Y10.1617
G01 X13.9697 Y10.1482
G01 X13.9798 Y10.1311
G01 X13.9909 Y10.1162
G01 X14.0018 Y10.1042
G01 X14.0137 Y10.0934
G01 X14.1052 Y10.0182
G01 X14.1740 Y9.9345
G01 X14.2250 Y9.8390
G01 X14.2565 Y9.7353
G01 X14.2680 Y9.6188
G01 X14.2680 Y7.2232
G01 X14.2565 Y7.1067
G01 X14.2250 Y7.0030
G01 X14.1740 Y6.9075
G01 X14.1052 Y6.8238
G01 X14.0215 Y6.7550
G01 X13.9260 Y6.7040
G01 X13.8223 Y6.6725
G01 X13.7058 Y6.6610
G01 X10.2942 Y6.6610
G01 X10.1777 Y6.6725
G01 X10.0740 Y6.7040
G01 X9.9785 Y6.7550
G01 X9.8948 Y6.8238
G01 X9.8260 Y6.9075
G01 X9.7750 Y7.0030
G01 X9.7435 Y7.1067
G01 X9.7320 Y7.2232
G01 X9.7320 Y7.4940
G01 X9.7312 Y7.5114
G01 X9.7284 Y7.5297
G01 X9.7244 Y7.5454
G01 X9.7186 Y7.5618
G01 X9.7111 Y7.5775
G01 X9.7022 Y7.5924
G01 X9.6919 Y7.6063
G01 X9.6802 Y7.6192
G01 X9.6673 Y7.6309
G01 X9.6523 Y7.6419
G01 X9.6385 Y7.6502
G01 X9.6250 Y7.6566
G01 X9.6064 Y7.6634
G01 X9.5871 Y7.6681
G01 X9.5723 Y7.6702
G01 X9.5562 Y7.6710
G01 X8.6770 Y7.6711
G01 X8.6572 Y7.6699
G01 X8.6425 Y7.6677
G01 X8.6268 Y7.6638
G01 X8.6070 Y7.6566
G01 X8.5935 Y7.6502
G01 X8.5786 Y7.6412
G01 X8.5647 Y7.6309
G01 X8.5536 Y7.6209
G01 X8.5401 Y7.6063
G01 X8.5285 Y7.5903
G01 X8.5208 Y7.5775
G01 X8.5134 Y7.5618
G01 X8.5076 Y7.5454
G01 X8.5039 Y7.5309
G01 X8.5007 Y7.5101
G01 X8.4999 Y7.4940
G01 X8.4999 Y5.7645
G01 X8.4971 Y5.7594
G01 X8.4906 Y5.7456
G01 X8.4847 Y5.7289
G01 X8.4801 Y5.7105
G01 X8.4778 Y5.6942
G01 X8.4771 Y5.6752
G01 X8.4783 Y5.5825
G01 X8.4670 Y5.4672
G01 X8.4355 Y5.3635
G01 X8.3845 Y5.2680
G01 X8.3157 Y5.1843
G01 X8.2320 Y5.1155
G01 X8.1365 Y5.0645
G01 X8.0328 Y5.0330
G01 X7.9302 Y5.0229
G01 X7.8501 Y5.1031
G01 X7.8501 Y5.5642
G01 X7.8593 Y5.5699
G01 X7.8781 Y5.5838
G01 X7.8972 Y5.6010
G01 X7.9154 Y5.6210
G01 X7.9314 Y5.6427
G01 X7.9451 Y5.6660
G01 X7.9550 Y5.6870
G01 X7.9629 Y5.7090
G01 X7.9700 Y5.7363
G01 X7.9737 Y5.7618
G01 X7.9750 Y5.7875
G01 X7.9750 Y6.5887
G01 X7.9737 Y6.6132
G01 X7.9700 Y6.6387
G01 X7.9637 Y6.6637
G01 X7.9540 Y6.6902
G01 X7.9440 Y6.7112
G01 X7.9321 Y6.7313
G01 X7.9154 Y6.7540
G01 X7.8963 Y6.7748
G01 X7.8790 Y6.7904
G01 X7.8603 Y6.8043
G01 X7.8362 Y6.8190
G01 X7.8107 Y6.8309
G01 X7.7887 Y6.8387
G01 X7.7661 Y6.8444
G01 X7.7382 Y6.8487
G01 X7.7125 Y6.8500
G01 X7.2875 Y6.8500
G01 X7.2606 Y6.8486
G01 X7.2363 Y6.8450
G01 X7.2137 Y6.8394
G01 X7.1848 Y6.8290
G01 X7.1638 Y6.8190
G01 X7.1417 Y6.8058
G01 X7.1210 Y6.7904
G01 X7.1037 Y6.7748
G01 X7.0831 Y6.7521
G01 X7.0692 Y6.7333
G01 X7.0549 Y6.7090
G01 X7.0450 Y6.6880
G01 X7.0363 Y6.6637
G01 X7.0300 Y6.6387
G01 X7.0262 Y6.6120
G01 X7.0250 Y6.5875
G01 X7.0250 Y5.7863
G01 X7.0266 Y5.7593
G01 X7.0300 Y5.7363
G01 X7.0356 Y5.7137
G01 X7.0450 Y5.6870
G01 X7.0566 Y5.6627
G01 X7.0692 Y5.6417
G01 X7.0831 Y5.6229
G01 X7.1010 Y5.6028
G01 X7.1219 Y5.5838
G01 X7.1407 Y5.5699
G01 X7.1499 Y5.5642
G01 X7.1499 Y5.1031
G01 X7.0698 Y5.0229
G01 X6.9672 Y5.0330
G01 X6.8673 Y5.0633
G01 X6.8504 Y5.0673
G01 X6.8356 Y5.0694
G01 X6.8207 Y5.0702
G01 X6.8009 Y5.0694
G01 X6.7813 Y5.0663
G01 X6.7669 Y5.0626
G01 X6.7528 Y5.0576
G01 X6.7362 Y5.0501
G01 X6.5043 Y5.0500
G01 X6.4882 Y5.0492
G01 X6.4710 Y5.0467
G01 X6.4518 Y5.0417
G01 X6.4378 Y5.0366
G01 X6.4242 Y5.0303
G01 X6.4071 Y5.0202
G01 X6.3932 Y5.0099
G01 X6.3786 Y4.9964
G01 X6.3686 Y4.9853
G01 X6.3597 Y4.9734
G01 X6.3494 Y4.9565
G01 X6.3415 Y4.9396
G01 X6.3354 Y4.9220
G01 X6.3319 Y4.9075
G01 X6.3296 Y4.8928
G01 X6.3170 Y4.7622
G01 X6.2855 Y4.6585
G01 X6.2333 Y4.5607
G01 X6.2291 Y4.5549
G01 X6.2208 Y4.5410
G01 X6.2144 Y4.5276
G01 X6.2069 Y4.5066
G01 X6.2033 Y4.4921
G01 X6.2009 Y4.4761
G01 X6.1999 Y4.4576
G01 X6.2000 Y3.8830
G01 X6.2011 Y3.8656
G01 X6.2033 Y3.8509
G01 X6.2069 Y3.8364
G01 X6.2134 Y3.8177
G01 X6.2214 Y3.8009
G01 X6.2298 Y3.7871
G01 X6.2394 Y3.7741
G01 X6.3194 Y3.6765
G01 X6.3925 Y3.5399
G01 X6.4374 Y3.3916
G01 X6.4535 Y3.2288
G01 X6.4535 Y2.7712
G01 X6.4374 Y2.6084
G01 X6.3925 Y2.4601
G01 X6.3194 Y2.3235
G01 X6.2212 Y2.2038
G01 X6.1015 Y2.1056
G01 X5.9649 Y2.0325
G01 X5.8166 Y1.9876
G01 X5.6538 Y1.9715
G01 X5.0962 Y1.9715
G01 X4.9334 Y1.9876
G01 X4.7851 Y2.0325
G01 X4.6664 Y2.0960
G01 X4.6484 Y2.1043
G01 X4.6344 Y2.1093
G01 X4.6175 Y2.1135
G01 X4.6003 Y2.1161
G01 X4.5817 Y2.1169
G01 X4.5656 Y2.1161
G01 X4.5484 Y2.1135
G01 X4.5316 Y2.1093
G01 X4.5130 Y2.1024
G01 X4.4995 Y2.0960
G01 X4.4846 Y2.0871
G01 X4.4716 Y2.0775
G01 X4.4570 Y2.0655
G01 X4.3615 Y2.0145
G01 X4.2578 Y1.9830
G01 X4.1431 Y1.9717
G01 X4.0546 Y1.9736
G01 X3.9751 Y2.0531
G01 X3.9751 Y2.4730
G01 X3.9747 Y2.4820
G01 X3.9960 Y2.4874
G01 X4.0202 Y2.4960
G01 X4.0480 Y2.5089
G01 X4.0722 Y2.5235
G01 X4.0930 Y2.5387
G01 X4.1158 Y2.5592
G01 X4.1363 Y2.5820
G01 X4.1515 Y2.6028
G01 X4.1661 Y2.6270
G01 X4.1790 Y2.6548
G01 X4.1876 Y2.6790
G01 X4.1945 Y2.7064
G01 X4.1986 Y2.7343
G01 X4.2000 Y2.7625
G01 X4.2000 Y3.2213
G01 X4.6768 Y3.6982
G01 X4.6917 Y3.7145
G01 X4.7080 Y3.7361
G01 X4.7217 Y3.7593
G01 X4.7311 Y3.7793
G01 X4.7386 Y3.8001
G01 X4.7453 Y3.8262
G01 X4.7489 Y3.8505
G01 X4.7501 Y3.8750
G01 X4.7501 Y4.8200
G01 X4.8262 Y4.8200
G01 X4.8348 Y4.8210
G01 X4.8430 Y4.8234
G01 X4.8496 Y4.8265
G01 X4.8548 Y4.8298
G01 X4.8604 Y4.8346
G01 X4.8652 Y4.8402
G01 X4.8691 Y4.8464
G01 X4.8721 Y4.8532
G01 X4.8740 Y4.8602
G01 X4.8749 Y4.8675
G01 X4.8750 Y6.4300
G01 X4.8748 Y6.4349
G01 X4.8738 Y6.4410
G01 X4.8707 Y6.4503
G01 X4.8659 Y6.4588
G01 X4.8620 Y6.4636
G01 X4.8586 Y6.4670
G01 X4.8517 Y6.4722
G01 X4.8441 Y6.4762
G01 X4.8360 Y6.4788
G01 X4.8262 Y6.4800
G01 X4.1738 Y6.4800
G01 X4.1665 Y6.4793
G01 X4.1593 Y6.4775
G01 X4.1525 Y6.4747
G01 X4.1462 Y6.4709
G01 X4.1405 Y6.4662
G01 X4.1348 Y6.4598
G01 X4.1309 Y6.4536
G01 X4.1279 Y6.4468
G01 X4.1257 Y6.4385
G01 X4.1250 Y6.4300
G01 X4.1251 Y4.8675
G01 X4.1260 Y4.8602
G01 X4.1275 Y4.8543
G01 X4.1303 Y4.8475
G01 X4.1341 Y4.8412
G01 X4.1388 Y4.8355
G01 X4.1442 Y4.8306
G01 X4.1504 Y4.8265
G01 X4.1570 Y4.8234
G01 X4.1652 Y4.8210
G01 X4.1738 Y4.8200
G01 X4.2499 Y4.8200
G01 X4.2499 Y3.9786
G01 X3.8001 Y3.5288
G01 X3.8001 Y4.8200
G01 X3.8762 Y4.8200
G01 X3.8848 Y4.8210
G01 X3.8930 Y4.8234
G01 X3.8996 Y4.8265
G01 X3.9048 Y4.8298
G01 X3.9104 Y4.8346
G01 X3.9152 Y4.8402
G01 X3.9191 Y4.8464
G01 X3.9221 Y4.8532
G01 X3.9240 Y4.8602
G01 X3.9249 Y4.8675
G01 X3.9250 Y6.4300
G01 X3.9240 Y6.4398
G01 X3.9216 Y6.4480
G01 X3.9172 Y6.4567
G01 X3.9112 Y6.4645
G01 X3.9077 Y6.4679
G01 X3.9028 Y6.4716
G01 X3.8941 Y6.4762
G01 X3.8848 Y6.4790
G01 X3.8750 Y6.4800
G01 X3.2238 Y6.4800
G01 X3.2165 Y6.4793
G01 X3.2082 Y6.4771
G01 X3.2014 Y6.4741
G01 X3.1942 Y6.4694
G01 X3.1896 Y6.4654
G01 X3.1863 Y6.4617
G01 X3.1834 Y6.4578
G01 X3.1803 Y6.4525
G01 X3.1784 Y6.4480
G01 X3.1765 Y6.4421
G01 X3.1754 Y6.4361
G01 X3.1750 Y6.4312
G01 X3.1750 Y5.9001
G01 X2.2500 Y5.9001
G01 X2.2500 Y6.3012
G01 X2.2486 Y6.3294
G01 X2.2437 Y6.3609
G01 X2.2363 Y6.3894
G01 X2.2272 Y6.4148
G01 X2.2157 Y6.4392
G01 X2.1994 Y6.4667
G01 X2.1834 Y6.4884
G01 X2.1621 Y6.5121
G01 X2.1403 Y6.5319
G01 X2.1167 Y6.5494
G01 X2.0892 Y6.5657
G01 X2.0648 Y6.5772
G01 X2.0394 Y6.5863
G01 X2.0109 Y6.5937
G01 X1.9794 Y6.5986
G01 X1.9512 Y6.6000
G01 X1.0488 Y6.6000
G01 X1.0206 Y6.5986
G01 X0.9939 Y6.5947
G01 X0.9629 Y6.5871
G01 X0.9352 Y6.5772
G01 X0.9108 Y6.5657
G01 X0.8813 Y6.5480
G01 X0.8597 Y6.5319
G01 X0.8362 Y6.5104
G01 X0.8181 Y6.4903
G01 X0.8020 Y6.4687
G01 X0.7866 Y6.4436
G01 X0.7728 Y6.4148
G01 X0.7629 Y6.3871
G01 X0.7558 Y6.3585
G01 X0.7516 Y6.3306
G01 X0.7500 Y6.3000
G01 X0.7500 Y5.6500
G01 X0.7514 Y5.6206
G01 X0.7555 Y5.5927
G01 X0.7629 Y5.5629
G01 X0.7728 Y5.5352
G01 X0.7854 Y5.5086
G01 X0.8006 Y5.4833
G01 X0.8181 Y5.4597
G01 X0.8379 Y5.4379
G01 X0.8597 Y5.4181
G01 X0.8854 Y5.3992
G01 X0.9086 Y5.3854
G01 X0.9352 Y5.3728
G01 X0.9629 Y5.3629
G01 X0.9927 Y5.3555
G01 X1.0206 Y5.3514
G01 X1.0488 Y5.3500
G01 X1.1499 Y5.3500
G01 X1.1499 Y4.9281
G01 X1.0712 Y4.8493
G01 X0.7978 Y4.8465
G01 X0.7830 Y4.8455
G01 X0.7659 Y4.8428
G01 X0.7492 Y4.8385
G01 X0.7319 Y4.8321
G01 X0.7174 Y4.8251
G01 X0.7047 Y4.8174
G01 X0.6889 Y4.8057
G01 X0.6745 Y4.7923
G01 X0.6646 Y4.7812
G01 X0.6558 Y4.7693
G01 X0.6456 Y4.7525
G01 X0.6374 Y4.7346
G01 X0.6325 Y4.7206
G01 X0.6288 Y4.7062
G01 X0.6258 Y4.6867
G01 X0.6249 Y4.6695
G01 X0.6250 Y0.8008
G01 X0.6258 Y0.7846
G01 X0.6279 Y0.7699
G01 X0.6326 Y0.7506
G01 X0.6394 Y0.7320
G01 X0.6458 Y0.7185
G01 X0.6535 Y0.7057
G01 X0.6651 Y0.6897
G01 X0.6786 Y0.6751
G01 X0.6897 Y0.6651
G01 X0.7016 Y0.6562
G01 X0.7185 Y0.6458
G01 X0.7365 Y0.6375
G01 X0.7506 Y0.6326
G01 X0.7651 Y0.6289
G01 X0.7846 Y0.6258
G01 X0.8020 Y0.6249
G01 X9.8347 Y0.6249
G01 X9.8520 Y0.6258
G01 X9.8692 Y0.6283
G01 X9.8861 Y0.6326
G01 X9.9013 Y0.6380
G01 X9.9181 Y0.6458
G01 X9.9310 Y0.6535
G01 X9.9489 Y0.6667
G01 X9.9599 Y0.6768
G01 X9.9716 Y0.6897
G01 X9.9819 Y0.7036
G01 X9.9908 Y0.7185
G01 X9.9983 Y0.7342
G01 X10.0041 Y0.7506
G01 X10.0083 Y0.7675
G01 X10.0106 Y0.7822
G01 X10.0117 Y0.8045
G01 X10.0109 Y0.8194
G01 X10.0081 Y0.8377
G01 X10.0041 Y0.8534
G01 X9.9983 Y0.8698
G01 X9.9908 Y0.8855
G01 X9.9812 Y0.9014
G01 X9.9716 Y0.9143
G01 X9.9590 Y0.9281
G01 X9.9470 Y0.9389
G01 X9.8948 Y0.9818
G01 X9.8260 Y1.0655
G01 X9.7750 Y1.1610
G01 X9.7435 Y1.2647
G01 X9.7320 Y1.3812
G01 X9.7320 Y3.7768
G01 X9.7435 Y3.8933
G01 X9.7750 Y3.9970
G01 X9.8260 Y4.0925
G01 X9.8948 Y4.1762
G01 X9.9785 Y4.2450
G01 X10.0740 Y4.2960
G01 X10.1777 Y4.3275
G01 X10.2942 Y4.3390
G01 X13.7058 Y4.3390
G01 X13.8223 Y4.3275
G01 X13.9260 Y4.2960
G01 X14.0215 Y4.2450
G01 X14.1052 Y4.1762
G01 X14.1740 Y4.0925
G01 X14.2250 Y3.9970
G01 X14.2565 Y3.8933
G01 X14.2680 Y3.7768
G01 X14.2680 Y3.6060
G01 X14.2686 Y3.5911
G01 X14.2714 Y3.5715
G01 X14.2763 Y3.5523
G01 X14.2814 Y3.5382
G01 X14.2878 Y3.5247
G01 X14.2978 Y3.5076
G01 X14.3097 Y3.4918
G01 X14.3198 Y3.4808
G01 X14.3308 Y3.4707
G01 X14.3466 Y3.4588
G01 X14.3637 Y3.4487
G01 X14.3773 Y3.4424
G01 X14.3913 Y3.4373
G01 X14.4093 Y3.4326
G01 X14.4277 Y3.4298
G01 X14.4450 Y3.4289
G01 X15.4465 Y3.4289
G01 X15.4638 Y3.4298
G01 X15.4834 Y3.4329
G01 X15.4991 Y3.4369
G01 X15.5165 Y3.4434
G01 X15.5321 Y3.4511
G01 X15.5449 Y3.4588
G01 X15.5569 Y3.4676
G01 X15.5717 Y3.4808
G01 X15.7185 Y3.6276
G01 X15.9396 Y3.7753
G01 X16.1852 Y3.8771
G01 X16.4460 Y3.9289
G01 X16.7119 Y3.9289
G01 X16.9728 Y3.8771
G01 X17.2184 Y3.7753
G01 X17.4395 Y3.6276
G01 X17.6276 Y3.4395
G01 X17.7753 Y3.2184
G01 X17.8770 Y2.9728
G01 X17.9289 Y2.7120
G01 X17.9289 Y2.4460
G01 X17.8770 Y2.1852
G01 X17.7753 Y1.9396
G01 X17.6276 Y1.7185
G01 X17.4395 Y1.5304
G01 X17.2184 Y1.3827
G01 X16.9728 Y1.2809
G01 X16.7119 Y1.2291
G01 X16.4460 Y1.2291
G01 X16.1852 Y1.2809
G01 X15.9396 Y1.3827
G01 X15.7185 Y1.5304
G01 X15.5717 Y1.6772
G01 X15.5569 Y1.6904
G01 X15.5428 Y1.7005
G01 X15.5300 Y1.7082
G01 X15.5165 Y1.7146
G01 X15.4991 Y1.7211
G01 X15.4834 Y1.7251
G01 X15.4638 Y1.7282
G01 X15.4465 Y1.7291
G01 X14.4450 Y1.7291
G01 X14.4252 Y1.7279
G01 X14.4105 Y1.7257
G01 X14.3948 Y1.7218
G01 X14.3773 Y1.7156
G01 X14.3594 Y1.7069
G01 X14.3466 Y1.6992
G01 X14.3346 Y1.6904
G01 X14.3198 Y1.6772
G01 X14.3081 Y1.6643
G01 X14.2965 Y1.6483
G01 X14.2889 Y1.6355
G01 X14.2824 Y1.6220
G01 X14.2756 Y1.6034
G01 X14.2709 Y1.5841
G01 X14.2688 Y1.5694
G01 X14.2680 Y1.5532
G01 X14.2680 Y1.3812
G01 X14.2565 Y1.2647
G01 X14.2250 Y1.1610
G01 X14.1740 Y1.0655
G01 X14.1052 Y0.9818
G01 X14.0530 Y0.9389
G01 X14.0410 Y0.9281
G01 X14.0284 Y0.9143
G01 X14.0188 Y0.9014
G01 X14.0092 Y0.8855
G01 X14.0017 Y0.8698
G01 X13.9959 Y0.8534
G01 X13.9919 Y0.8377
G01 X13.9891 Y0.8194
G01 X13.9883 Y0.8020
G01 X13.9891 Y0.7846
G01 X13.9917 Y0.7675
G01 X13.9959 Y0.7506
G01 X14.0017 Y0.7342
G01 X14.0092 Y0.7185
G01 X14.0195 Y0.7016
G01 X14.0292 Y0.6887
G01 X14.0419 Y0.6751
G01 X14.0549 Y0.6636
G01 X14.0669 Y0.6548
G01 X14.0797 Y0.6471
G01 X14.0976 Y0.6384
G01 X14.1139 Y0.6326
G01 X14.1308 Y0.6283
G01 X14.1467 Y0.6259
G01 X14.1653 Y0.6249
G01 X28.0805 Y0.6249
G01 X28.0979 Y0.6258
G01 X28.1163 Y0.6286
G01 X28.1319 Y0.6326
G01 X28.1483 Y0.6384
G01 X28.1640 Y0.6458
G01 X28.1768 Y0.6535
G01 X28.1947 Y0.6667
G01 X28.2057 Y0.6768
G01 X28.2174 Y0.6897
G01 X28.2277 Y0.7036
G01 X28.2355 Y0.7164
G01 X28.2450 Y0.7365
G01 X28.2500 Y0.7506
G01 X28.2542 Y0.7675
G01 X28.2567 Y0.7846
G01 X28.2575 Y0.7995
G01 X28.2567 Y0.8194
G01 X28.2542 Y0.8365
G01 X28.2503 Y0.8522
G01 X28.2378 Y0.8934
G01 X28.2215 Y1.0587
G01 X28.2215 Y3.2413
G01 X28.2378 Y3.4066
G01 X28.2835 Y3.5571
G01 X28.3577 Y3.6959
G01 X28.4575 Y3.8175
G01 X28.5791 Y3.9173
G01 X28.7179 Y3.9915
G01 X28.8684 Y4.0372
G01 X29.0337 Y4.0535
G01 X29.5163 Y4.0535
G01 X29.6816 Y4.0372
G01 X29.8321 Y3.9915
G01 X29.9709 Y3.9173
G01 X30.0925 Y3.8175
G01 X30.1923 Y3.6959
G01 X30.2665 Y3.5571
G01 X30.3122 Y3.4066
G01 X30.3285 Y3.2413
G01 X30.3285 Y1.0587
G01 X30.3122 Y0.8934
G01 X30.2997 Y0.8522
G01 X30.2956 Y0.8353
G01 X30.2931 Y0.8169
G01 X30.2924 Y0.8020
G01 X30.2931 Y0.7871
G01 X30.2964 Y0.7651
G01 X30.3000 Y0.7506
G01 X30.3059 Y0.7342
G01 X30.3133 Y0.7185
G01 X30.3209 Y0.7057
G01 X30.3334 Y0.6887
G01 X30.3443 Y0.6768
G01 X30.3553 Y0.6667
G01 X30.3732 Y0.6535
G01 X30.3860 Y0.6458
G01 X30.4017 Y0.6384
G01 X30.4181 Y0.6326
G01 X30.4325 Y0.6289
G01 X30.4521 Y0.6258
G01 X30.4695 Y0.6249
G01 X35.5305 Y0.6249
G01 X35.5503 Y0.6261
G01 X35.5651 Y0.6283
G01 X35.5796 Y0.6319
G01 X35.5983 Y0.6384
G01 X35.6151 Y0.6464
G01 X35.6289 Y0.6548
G01 X35.6409 Y0.6636
G01 X35.6557 Y0.6768
G01 X35.6689 Y0.6916
G01 X35.6777 Y0.7036
G01 X35.6855 Y0.7164
G01 X35.6941 Y0.7342
G01 X35.7006 Y0.7530
G01 X35.7042 Y0.7675
G01 X35.7064 Y0.7822
G01 X35.7076 Y0.8008
G01 X35.7067 Y0.8194
G01 X35.7039 Y0.8377
G01 X35.7003 Y0.8522
G01 X35.6878 Y0.8934
G01 X35.6715 Y1.0587
G01 X35.6715 Y3.2413
G01 X35.6878 Y3.4066
G01 X35.7335 Y3.5571
G01 X35.8077 Y3.6959
G01 X35.9075 Y3.8175
G01 X36.0291 Y3.9173
G01 X36.1679 Y3.9915
G01 X36.3184 Y4.0372
G01 X36.4837 Y4.0535
G01 X36.9663 Y4.0535
G01 X37.1316 Y4.0372
G01 X37.2821 Y3.9915
G01 X37.4209 Y3.9173
G01 X37.5425 Y3.8175
G01 X37.6423 Y3.6959
G01 X37.7165 Y3.5571
G01 X37.7622 Y3.4066
G01 X37.7785 Y3.2413
G01 X37.7785 Y1.0587
G01 X37.7622 Y0.8934
G01 X37.7497 Y0.8522
G01 X37.7458 Y0.8365
G01 X37.7433 Y0.8194
G01 X37.7425 Y0.7995
G01 X37.7433 Y0.7846
G01 X37.7454 Y0.7699
G01 X37.7500 Y0.7506
G01 X37.7569 Y0.7320
G01 X37.7633 Y0.7185
G01 X37.7709 Y0.7057
G01 X37.7826 Y0.6897
G01 X37.7960 Y0.6751
G01 X37.8071 Y0.6651
G01 X37.8191 Y0.6562
G01 X37.8349 Y0.6464
G01 X37.8517 Y0.6384
G01 X37.8704 Y0.6319
G01 X37.8849 Y0.6283
G01 X37.8997 Y0.6261
G01 X37.9195 Y0.6249
G01 X42.1992 Y0.6250
G01 X42.2154 Y0.6258
G01 X42.2301 Y0.6279
G01 X42.2494 Y0.6326
G01 X42.2680 Y0.6394
G01 X42.2815 Y0.6458
G01 X42.2943 Y0.6535
G01 X42.3103 Y0.6651
G01 X42.3249 Y0.6786
G01 X42.3349 Y0.6897
G01 X42.3438 Y0.7016
G01 X42.3542 Y0.7185
G01 X42.3625 Y0.7365
G01 X42.3674 Y0.7506
G01 X42.3711 Y0.7651
G01 X42.3742 Y0.7846
G01 X42.3751 Y0.8020
G01 X42.3751 Y4.9635
G01 X42.3742 Y4.9809
G01 X42.3717 Y4.9981
G01 X42.3674 Y5.0149
G01 X42.3616 Y5.0313
G01 X42.3529 Y5.0491
G01 X42.3452 Y5.0619
G01 X42.3349 Y5.0758
G01 X42.3232 Y5.0887
G01 X42.3122 Y5.0988
G01 X42.2943 Y5.1121
G01 X42.2815 Y5.1197
G01 X42.2658 Y5.1271
G01 X42.2494 Y5.1330
G01 X42.2349 Y5.1366
G01 X42.2129 Y5.1399
G01 X42.1980 Y5.1406
G01 X42.1806 Y5.1397
G01 X42.1635 Y5.1372
G01 X42.1466 Y5.1330
G01 X42.1302 Y5.1271
G01 X42.1135 Y5.1191
G01 X42.0996 Y5.1107
G01 X41.9394 Y5.0037
G01 X41.6938 Y4.9019
G01 X41.4330 Y4.8501
G01 X41.1670 Y4.8501
G01 X40.9062 Y4.9019
G01 X40.6606 Y5.0037
G01 X40.4395 Y5.1514
G01 X40.2514 Y5.3395
G01 X40.1037 Y5.5606
G01 X40.0019 Y5.8062
G01 X39.9501 Y6.0670
G01 X39.9501 Y6.3330
G01 X40.0019 Y6.5938
G01 X40.1037 Y6.8394
G01 X40.2514 Y7.0605
G01 X40.3999 Y7.2091
G01 X40.4099 Y7.2202
G01 X40.4202 Y7.2341
G01 X40.4292 Y7.2490
G01 X40.4366 Y7.2647
G01 X40.4424 Y7.2811
G01 X40.4467 Y7.2980
G01 X40.4492 Y7.3151
G01 X40.4500 Y7.3313
G01 X40.4500 Y7.4755
G01 X40.4492 Y7.4904
G01 X40.4471 Y7.5051
G01 X40.4424 Y7.5244
G01 X40.4356 Y7.5430
G01 X40.4292 Y7.5565
G01 X40.4215 Y7.5693
G01 X40.4099 Y7.5853
G01 X40.3964 Y7.5999
G01 X40.3853 Y7.6099
G01 X40.3734 Y7.6188
G01 X40.3565 Y7.6292
G01 X40.3385 Y7.6375
G01 X40.3244 Y7.6424
G01 X40.3075 Y7.6467
G01 X40.2904 Y7.6492
G01 X40.2730 Y7.6501
G01 X39.9587 Y7.6501
G01 X39.9509 Y7.6517
G01 X39.9361 Y7.6538
G01 X39.9175 Y7.6548
G01 X39.9002 Y7.6540
G01 X39.8421 Y7.6483
G01 X39.5287 Y7.6511
G01 X39.4501 Y7.7297
G01 X39.4501 Y8.1516
G01 X39.8537 Y8.1518
G01 X39.8610 Y8.1529
G01 X39.8680 Y8.1550
G01 X39.8746 Y8.1581
G01 X39.8808 Y8.1622
G01 X39.8862 Y8.1672
G01 X39.8909 Y8.1728
G01 X39.8952 Y8.1803
G01 X39.8978 Y8.1871
G01 X39.8995 Y8.1943
G01 X39.9000 Y8.2016
G01 X39.9000 Y9.2016
G01 X39.8993 Y9.2102
G01 X39.8971 Y9.2185
G01 X39.8941 Y9.2252
G01 X39.8894 Y9.2324
G01 X39.8845 Y9.2379
G01 X39.8788 Y9.2425
G01 X39.8725 Y9.2463
G01 X39.8657 Y9.2491
G01 X39.8585 Y9.2509
G01 X39.8512 Y9.2516
G01 X38.3451 Y9.2514
G01 X38.3379 Y9.2501
G01 X38.3297 Y9.2474
G01 X38.3233 Y9.2439
G01 X38.3173 Y9.2395
G01 X38.3113 Y9.2334
G01 X38.3071 Y9.2273
G01 X38.3034 Y9.2196
G01 X38.3012 Y9.2126
G01 X38.3004 Y9.2078
G01 X38.3000 Y9.2016
G01 X38.3000 Y9.0517
G01 X37.8781 Y9.0517
G01 X37.7983 Y9.1315
G01 X37.7968 Y9.1951
G01 X37.8080 Y9.3094
G01 X37.8395 Y9.4131
G01 X37.8905 Y9.5086
G01 X37.9571 Y9.5898
G01 X37.9667 Y9.6028
G01 X37.9756 Y9.6177
G01 X37.9839 Y9.6357
G01 X37.9889 Y9.6497
G01 X37.9926 Y9.6642
G01 X37.9957 Y9.6838
G01 X37.9965 Y9.7011
G01 X37.9957 Y9.7185
G01 X37.9926 Y9.7381
G01 X37.9881 Y9.7549
G01 X37.9830 Y9.7689
G01 X37.9767 Y9.7824
G01 X37.9667 Y9.7995
G01 X37.9571 Y9.8125
G01 X37.8905 Y9.8936
G01 X37.8395 Y9.9891
G01 X37.8080 Y10.0928
G01 X37.7965 Y10.2093
G01 X37.7965 Y11.1919
G01 X37.8080 Y11.3084
G01 X37.8395 Y11.4121
G01 X37.8905 Y11.5076
G01 X37.9581 Y11.5900
G01 X37.9677 Y11.6030
G01 X37.9772 Y11.6190
G01 X37.9841 Y11.6336
G01 X37.9892 Y11.6477
G01 X37.9941 Y11.6668
G01 X37.9969 Y11.6865
G01 X37.9975 Y11.7014
G01 X37.9968 Y11.7175
G01 X37.9936 Y11.7383
G01 X37.9899 Y11.7528
G01 X37.9841 Y11.7691
G01 X37.9766 Y11.7848
G01 X37.9690 Y11.7977
G01 X37.9574 Y11.8137
G01 X37.8960 Y11.8884
G01 X37.8852 Y11.9003
G01 X37.8741 Y11.9104
G01 X37.8583 Y11.9224
G01 X37.8434 Y11.9313
G01 X37.8277 Y11.9387
G01 X37.8114 Y11.9446
G01 X37.7921 Y11.9492
G01 X37.7773 Y11.9514
G01 X37.7612 Y11.9522
G01 X37.5350 Y11.9522
G01 X37.5177 Y11.9514
G01 X37.5005 Y11.9488
G01 X37.4860 Y11.9452
G01 X37.4650 Y11.9377
G01 X37.4516 Y11.9313
G01 X37.4367 Y11.9224
G01 X37.4227 Y11.9120
G01 X37.4116 Y11.9020
G01 X34.4268 Y8.9173
G01 X34.4151 Y8.9044
G01 X34.4048 Y8.8905
G01 X34.3958 Y8.8756
G01 X34.3884 Y8.8599
G01 X34.3826 Y8.8435
G01 X34.3783 Y8.8266
G01 X34.3758 Y8.8095
G01 X34.3750 Y8.7933
G01 X34.3750 Y6.9120
G01 X34.3758 Y6.8959
G01 X34.3783 Y6.8787
G01 X34.3826 Y6.8618
G01 X34.3884 Y6.8455
G01 X34.3958 Y6.8298
G01 X34.4048 Y6.8149
G01 X34.4151 Y6.8009
G01 X34.4259 Y6.7889
G01 X34.4397 Y6.7764
G01 X34.4536 Y6.7660
G01 X34.4685 Y6.7571
G01 X34.4820 Y6.7506
G01 X34.4994 Y6.7442
G01 X34.5151 Y6.7401
G01 X34.5371 Y6.7368
G01 X34.5520 Y6.7362
G01 X34.5681 Y6.7369
G01 X34.7337 Y6.7535
G01 X35.0163 Y6.7535
G01 X35.1621 Y6.7391
G01 X35.1874 Y6.7314
G01 X35.2031 Y6.7275
G01 X35.2203 Y6.7250
G01 X35.2364 Y6.7242
G01 X35.2550 Y6.7250
G01 X35.2722 Y6.7275
G01 X35.2890 Y6.7318
G01 X35.3043 Y6.7372
G01 X35.3211 Y6.7450
G01 X35.3380 Y6.7554
G01 X35.3500 Y6.7643
G01 X35.3611 Y6.7743
G01 X35.3753 Y6.7898
G01 X35.3849 Y6.8028
G01 X35.3932 Y6.8167
G01 X35.4002 Y6.8312
G01 X35.4037 Y6.8394
G01 X35.5514 Y7.0605
G01 X35.7395 Y7.2486
G01 X35.9606 Y7.3963
G01 X36.2062 Y7.4981
G01 X36.4670 Y7.5499
G01 X36.7330 Y7.5499
G01 X36.9938 Y7.4981
G01 X37.2394 Y7.3963
G01 X37.4605 Y7.2486
G01 X37.6486 Y7.0605
G01 X37.7963 Y6.8394
G01 X37.8981 Y6.5938
G01 X37.9499 Y6.3330
G01 X37.9499 Y6.0670
G01 X37.8981 Y5.8062
G01 X37.7963 Y5.5606
G01 X37.6486 Y5.3395
G01 X37.4605 Y5.1514
G01 X37.2394 Y5.0037
G01 X36.9938 Y4.9019
G01 X36.7330 Y4.8501
G01 X36.5242 Y4.8500
G01 X36.5080 Y4.8492
G01 X36.4933 Y4.8471
G01 X36.4717 Y4.8417
G01 X36.4576 Y4.8366
G01 X36.4419 Y4.8292
G01 X36.4270 Y4.8202
G01 X36.4131 Y4.8099
G01 X36.4011 Y4.7991
G01 X36.3850 Y4.7829
G01 X36.3758 Y4.7727
G01 X36.3539 Y4.7461
G01 X36.2245 Y4.6399
G01 X36.0768 Y4.5610
G01 X35.9166 Y4.5124
G01 X35.8254 Y4.5034
G01 X35.8082 Y4.5008
G01 X35.7914 Y4.4966
G01 X35.7773 Y4.4916
G01 X35.7582 Y4.4827
G01 X35.7444 Y4.4744
G01 X35.7286 Y4.4624
G01 X35.7176 Y4.4524
G01 X35.7075 Y4.4414
G01 X35.6963 Y4.4266
G01 X35.6855 Y4.4084
G01 X35.6792 Y4.3949
G01 X35.6743 Y4.3816
G01 X35.6092 Y4.2597
G01 X35.5218 Y4.1532
G01 X35.4153 Y4.0658
G01 X35.2939 Y4.0009
G01 X35.1621 Y3.9609
G01 X35.0163 Y3.9465
G01 X34.7337 Y3.9465
G01 X34.5879 Y3.9609
G01 X34.4561 Y4.0009
G01 X34.3335 Y4.0664
G01 X34.3166 Y4.0743
G01 X34.3014 Y4.0797
G01 X34.2845 Y4.0840
G01 X34.2674 Y4.0865
G01 X34.2512 Y4.0873
G01 X34.2326 Y4.0865
G01 X34.2155 Y4.0840
G01 X34.1986 Y4.0797
G01 X34.1834 Y4.0743
G01 X34.1665 Y4.0664
G01 X34.0439 Y4.0009
G01 X33.9121 Y3.9609
G01 X33.7663 Y3.9465
G01 X33.4837 Y3.9465
G01 X33.3379 Y3.9609
G01 X33.2061 Y4.0009
G01 X33.0835 Y4.0664
G01 X33.0666 Y4.0743
G01 X33.0514 Y4.0797
G01 X33.0345 Y4.0840
G01 X33.0174 Y4.0865
G01 X33.0012 Y4.0873
G01 X32.9826 Y4.0865
G01 X32.9655 Y4.0840
G01 X32.9486 Y4.0797
G01 X32.9334 Y4.0743
G01 X32.9165 Y4.0664
G01 X32.7939 Y4.0009
G01 X32.6621 Y3.9609
G01 X32.5163 Y3.9465
G01 X32.2337 Y3.9465
G01 X32.0879 Y3.9609
G01 X31.9561 Y4.0009
G01 X31.8885 Y4.0370
G01 X31.8735 Y4.0440
G01 X31.8591 Y4.0492
G01 X31.8419 Y4.0537
G01 X31.8370 Y4.0546
G01 X31.8219 Y4.0567
G01 X31.8054 Y4.0573
G01 X31.7864 Y4.0563
G01 X31.7713 Y4.0539
G01 X31.7541 Y4.0495
G01 X31.7493 Y4.0479
G01 X31.7351 Y4.0425
G01 X31.7203 Y4.0351
G01 X31.6479 Y3.9944
G01 X31.5430 Y3.9601
G01 X31.4751 Y4.0281
G01 X31.4751 Y5.0953
G01 X31.4825 Y5.1115
G01 X31.4874 Y5.1256
G01 X31.4911 Y5.1401
G01 X31.4942 Y5.1596
G01 X31.4951 Y5.1770
G01 X31.4950 Y5.5255
G01 X31.4939 Y5.5428
G01 X31.4917 Y5.5575
G01 X31.4881 Y5.5720
G01 X31.4820 Y5.5896
G01 X31.4751 Y5.6047
G01 X31.4751 Y6.6719
G01 X31.5741 Y6.7709
G01 X31.5849 Y6.7829
G01 X31.5952 Y6.7969
G01 X31.6042 Y6.8118
G01 X31.6106 Y6.8252
G01 X31.6174 Y6.8439
G01 X31.6221 Y6.8631
G01 X31.6242 Y6.8779
G01 X31.6250 Y6.8940
G01 X31.6251 Y10.3295
G01 X31.6243 Y10.3456
G01 X31.6214 Y10.3750
G01 X31.6359 Y10.5220
G01 X31.6788 Y10.6634
G01 X31.7484 Y10.7937
G01 X31.8421 Y10.9079
G01 X31.8650 Y10.9266
G01 X31.8769 Y10.9375
G01 X36.1386 Y15.1992
G01 X36.1495 Y15.2111
G01 X36.1683 Y15.2340
G01 X36.2825 Y15.3277
G01 X36.4127 Y15.3973
G01 X36.5541 Y15.4402
G01 X36.7011 Y15.4547
G01 X36.7305 Y15.4518
G01 X36.7466 Y15.4511
G01 X37.7600 Y15.4511
G01 X37.7773 Y15.4519
G01 X37.7945 Y15.4545
G01 X37.8137 Y15.4595
G01 X37.8277 Y15.4645
G01 X37.8434 Y15.4720
G01 X37.8583 Y15.4809
G01 X37.8703 Y15.4897
G01 X37.8852 Y15.5029
G01 X37.8968 Y15.5158
G01 X37.9553 Y15.5870
G01 X37.9649 Y15.6000
G01 X37.9757 Y15.6181
G01 X37.9820 Y15.6316
G01 X37.9871 Y15.6456
G01 X37.9925 Y15.6672
G01 X37.9946 Y15.6820
G01 X37.9955 Y15.6993
G01 X37.9946 Y15.7167
G01 X37.9925 Y15.7315
G01 X37.9875 Y15.7519
G01 X37.9820 Y15.7671
G01 X37.9757 Y15.7806
G01 X37.9649 Y15.7987
G01 X37.9553 Y15.8117
G01 X37.8905 Y15.8906
G01 X37.8395 Y15.9861
G01 X37.8080 Y16.0898
G01 X37.7965 Y16.2063
G01 X37.7965 Y17.1889
G01 X37.8080 Y17.3054
G01 X37.8395 Y17.4090
G01 X37.8905 Y17.5046
G01 X37.9581 Y17.5870
G01 X37.9677 Y17.5999
G01 X37.9777 Y17.6170
G01 X37.9841 Y17.6306
G01 X37.9892 Y17.6446
G01 X37.9936 Y17.6614
G01 X37.9967 Y17.6810
G01 X37.9975 Y17.6983
G01 X37.9967 Y17.7157
G01 X37.9936 Y17.7353
G01 X37.9892 Y17.7520
G01 X37.9841 Y17.7661
G01 X37.9777 Y17.7796
G01 X37.9677 Y17.7967
G01 X37.9581 Y17.8097
G01 X37.8905 Y17.8921
G01 X37.8395 Y17.9876
G01 X37.8080 Y18.0913
G01 X37.7965 Y18.2078
G01 X37.7965 Y19.1904
G01 X37.8080 Y19.3069
G01 X37.8395 Y19.4106
G01 X37.8905 Y19.5061
G01 X37.9571 Y19.5872
G01 X37.9667 Y19.6002
G01 X37.9756 Y19.6151
G01 X37.9839 Y19.6331
G01 X37.9889 Y19.6472
G01 X37.9926 Y19.6616
G01 X37.9957 Y19.6812
G01 X37.9964 Y19.7010
G01 X37.9957 Y19.7159
G01 X37.9935 Y19.7307
G01 X37.9895 Y19.7476
G01 X37.9830 Y19.7663
G01 X37.9756 Y19.7820
G01 X37.9667 Y19.7969
G01 X37.9571 Y19.8099
G01 X37.8905 Y19.8911
G01 X37.8395 Y19.9866
G01 X37.8080 Y20.0903
G01 X37.7965 Y20.2068
G01 X37.7965 Y21.1894
G01 X37.8080 Y21.3059
G01 X37.8131 Y21.3228
G01 X37.8168 Y21.3373
G01 X37.8194 Y21.3544
G01 X37.8204 Y21.3730
G01 X37.8197 Y21.3879
G01 X37.8170 Y21.4075
G01 X37.8120 Y21.4267
G01 X37.8069 Y21.4408
G01 X37.8006 Y21.4543
G01 X37.7906 Y21.4714
G01 X37.7786 Y21.4872
G01 X37.7686 Y21.4982
G01 X37.7575 Y21.5083
G01 X37.7417 Y21.5202
G01 X37.7268 Y21.5292
G01 X37.7088 Y21.5375
G01 X37.6948 Y21.5424
G01 X37.6803 Y21.5461
G01 X37.6607 Y21.5492
G01 X37.6434 Y21.5501
G01 X29.0207 Y21.5501
G01 X27.0501 Y23.5207
G01 X27.0501 Y24.1980
G01 X27.0492 Y24.2154
G01 X27.0467 Y24.2325
G01 X27.0424 Y24.2494
G01 X27.0366 Y24.2658
G01 X27.0292 Y24.2815
G01 X27.0215 Y24.2943
G01 X27.0083 Y24.3122
G01 X26.9982 Y24.3232
G01 X26.9853 Y24.3349
G01 X26.9714 Y24.3452
G01 X26.9586 Y24.3529
G01 X26.9385 Y24.3625
G01 X26.9244 Y24.3674
G01 X26.9075 Y24.3717
G01 X26.8904 Y24.3742
G01 X26.8742 Y24.3750
G01 X3.7305 Y24.3751
G01 X3.7156 Y24.3744
G01 X3.6936 Y24.3711
G01 X3.6791 Y24.3674
G01 X3.6628 Y24.3616
G01 X3.6470 Y24.3542
G01 X3.6342 Y24.3465
G01 X3.6182 Y24.3349
G01 X3.6036 Y24.3214
G01 X3.5936 Y24.3103
G01 X3.5833 Y24.2964
G01 X3.5744 Y24.2815
G01 X3.5679 Y24.2680
G01 X3.5607 Y24.2482
G01 X3.5569 Y24.2325
G01 X3.5546 Y24.2178
G01 X3.5535 Y24.1992
G01 X3.5535 Y23.8587
G01 X3.5372 Y23.6934
G01 X3.4915 Y23.5429
G01 X3.4173 Y23.4041
G01 X3.3175 Y23.2825
G01 X3.1959 Y23.1827
G01 X3.0571 Y23.1085
G01 X2.9066 Y23.0628
G01 X2.7413 Y23.0465
G01 X0.8020 Y23.0465
G01 X0.7846 Y23.0457
G01 X0.7675 Y23.0431
G01 X0.7506 Y23.0389
G01 X0.7342 Y23.0331
G01 X0.7185 Y23.0256
G01 X0.7036 Y23.0167
G01 X0.6897 Y23.0064
G01 X0.6768 Y22.9947
G01 X0.6667 Y22.9837
G01 X0.6535 Y22.9658
G01 X0.6453 Y22.9519
G01 X0.6375 Y22.9350
G01 X0.6326 Y22.9209
G01 X0.6283 Y22.9040
G01 X0.6258 Y22.8868
G01 X0.6249 Y22.8695
G00 Z1.0000
G00 X0.5475 Y24.6499
G01 F50.00
G01 Z-0.0500
G01 F100.00
G01 X0.5206 Y24.6486
G01 X0.4915 Y24.6442
G01 X0.4629 Y24.6371
G01 X0.4352 Y24.6272
G01 X0.4086 Y24.6146
G01 X0.3833 Y24.5994
G01 X0.3597 Y24.5819
G01 X0.3396 Y24.5638
G01 X0.3181 Y24.5403
G01 X0.3020 Y24.5187
G01 X0.2843 Y24.4892
G01 X0.2728 Y24.4648
G01 X0.2629 Y24.4371
G01 X0.2558 Y24.4085
G01 X0.2514 Y24.3794
G01 X0.2500 Y24.3500
G01 X0.2500 Y23.8500
G01 X0.2514 Y23.8206
G01 X0.2560 Y23.7903
G01 X0.2637 Y23.7606
G01 X0.2728 Y23.7352
G01 X0.2843 Y23.7108
G01 X0.3006 Y23.6833
G01 X0.3181 Y23.6597
G01 X0.3396 Y23.6362
G01 X0.3597 Y23.6181
G01 X0.3813 Y23.6020
G01 X0.4086 Y23.5854
G01 X0.4375 Y23.5720
G01 X0.4629 Y23.5629
G01 X0.4915 Y23.5558
G01 X0.5206 Y23.5514
G01 X0.5500 Y23.5500
G01 X2.7500 Y23.5500
G01 X2.7782 Y23.5513
G01 X2.8109 Y23.5563
G01 X2.8371 Y23.5629
G01 X2.8648 Y23.5728
G01 X2.8936 Y23.5866
G01 X2.9167 Y23.6006
G01 X2.9384 Y23.6166
G01 X2.9638 Y23.6396
G01 X2.9819 Y23.6597
G01 X2.9980 Y23.6813
G01 X3.0146 Y23.7086
G01 X3.0280 Y23.7375
G01 X3.0371 Y23.7629
G01 X3.0442 Y23.7915
G01 X3.0486 Y23.8206
G01 X3.0500 Y23.8488
G01 X3.0500 Y24.3500
G01 X3.0486 Y24.3794
G01 X3.0445 Y24.4073
G01 X3.0371 Y24.4371
G01 X3.0262 Y24.4670
G01 X3.0146 Y24.4914
G01 X3.0008 Y24.5146
G01 X2.9819 Y24.5403
G01 X2.9604 Y24.5638
G01 X2.9403 Y24.5819
G01 X2.9187 Y24.5980
