(G-CODE GENERATED BY FLATCAM v8.994 - www.flatcam.org - Version Date: 2020/11/7)

(Name: doorbell-F_Cu.gbr_ncc_cnc)
(Type: G-code from Geometry)
(Units: MM)

(Created on Mercredi, 04 août 2021 at 19:58)

(This preprocessor is the default preprocessor used by FlatCAM.)
(It is made to work with MACH3 compatible motion controllers.)

(TOOL DIAMETER: 0.1 mm)
(Feedrate_XY: 100.0 mm/min)
(Feedrate_Z: 50.0 mm/min)
(Feedrate rapids 1500.0 mm/min)

(Z_Cut: -0.05 mm)
(Z_Move: 0.5 mm)
(Z Start: None mm)
(Z End: 5.0 mm)
(X,Y End: None mm)
(Steps per circle: 64)
(Preprocessor Geometry: default)

(X range:   -1.0250 ...   46.0250  mm)
(Y range:   -1.0250 ...   26.0250  mm)

(Spindle Speed: 2000.0 RPM)
G21
G90
G94

G01 F100.00

M5
G00 Z5.0000
G00 X0.0000 Y0.0000
T2
M6    
(MSG, Change to Tool Dia = 0.1000)
M0
G00 Z5.0000

M03 S2000.0
G01 F100.00
G00 X-0.0922 Y-0.0844
G01 F50.00
G01 Z-0.0500
G01 F100.00
G01 X-0.0790 Y-0.1342
G01 X0.1793 Y-1.0250
G00 Z0.5000
G00 X-0.0197 Y-0.1234
G01 F50.00
G01 Z-0.0500
G01 F100.00
G01 X0.2418 Y-1.0250
G01 X0.3042 Y-1.0250
G01 X0.0432 Y-0.1250
G01 X0.1057 Y-0.1250
G01 X0.3667 Y-1.0250
G01 X0.4292 Y-1.0250
G01 X0.1682 Y-0.1250
G01 X0.2306 Y-0.1250
G01 X0.4916 Y-1.0250
G01 X0.5541 Y-1.0250
G01 X0.2931 Y-0.1250
G01 X0.3556 Y-0.1250
G01 X0.6166 Y-1.0250
G01 X0.6790 Y-1.0250
G01 X0.4181 Y-0.1250
G01 X0.4805 Y-0.1250
G01 X0.7415 Y-1.0250
G01 X0.8040 Y-1.0250
G01 X0.5430 Y-0.1250
G01 X0.6055 Y-0.1250
G01 X0.8664 Y-1.0250
G01 X0.9289 Y-1.0250
G01 X0.6679 Y-0.1250
G01 X0.7304 Y-0.1250
G01 X0.9914 Y-1.0250
G01 X1.0543 Y-1.0250
G01 X1.0486 Y-1.0069
G01 X0.7929 Y-0.1250
G01 X0.8553 Y-0.1250
G01 X1.1060 Y-0.9895
G01 X1.1173 Y-1.0250
G01 X1.1802 Y-1.0250
G01 X1.1634 Y-0.9721
G01 X0.9178 Y-0.1250
G01 X0.9803 Y-0.1250
G01 X1.2209 Y-0.9547
G01 X1.2431 Y-1.0250
G01 X1.3061 Y-1.0250
G01 X1.2783 Y-0.9373
G01 X1.0427 Y-0.1250
G01 X1.1052 Y-0.1250
G01 X1.3357 Y-0.9199
G01 X1.3690 Y-1.0250
G01 X1.4319 Y-1.0250
G01 X1.3931 Y-0.9024
G01 X1.1677 Y-0.1250
G01 X1.2301 Y-0.1250
G01 X1.4505 Y-0.8850
G01 X1.4949 Y-1.0250
G01 X1.5578 Y-1.0250
G01 X1.5079 Y-0.8676
G01 X1.2926 Y-0.1250
G01 X1.3551 Y-0.1250
G01 X1.5654 Y-0.8502
G01 X1.6207 Y-1.0250
G01 X1.6837 Y-1.0250
G01 X1.6228 Y-0.8328
G01 X1.4175 Y-0.1250
G01 X1.4800 Y-0.1250
G01 X1.6802 Y-0.8154
G01 X1.7466 Y-1.0250
G01 X1.8095 Y-1.0250
G01 X1.7376 Y-0.7979
G01 X1.5425 Y-0.1250
G01 X1.6049 Y-0.1250
G01 X1.7950 Y-0.7805
G01 X1.8725 Y-1.0250
G01 X1.9354 Y-1.0250
G01 X1.8524 Y-0.7631
G01 X1.6674 Y-0.1250
G01 X1.7299 Y-0.1250
G01 X1.9098 Y-0.7457
G01 X1.9983 Y-1.0250
G01 X2.0613 Y-1.0250
G01 X1.9673 Y-0.7283
G01 X1.7923 Y-0.1250
G01 X1.8548 Y-0.1250
G01 X2.0247 Y-0.7109
G01 X2.1242 Y-1.0250
G01 X2.1871 Y-1.0250
G01 X2.0821 Y-0.6934
G01 X1.9173 Y-0.1250
G01 X1.9797 Y-0.1250
G01 X2.1395 Y-0.6760
G01 X2.2501 Y-1.0250
G01 X2.3130 Y-1.0250
G01 X2.1969 Y-0.6586
G01 X2.0422 Y-0.1250
G01 X2.1047 Y-0.1250
G01 X2.2543 Y-0.6412
G01 X2.3760 Y-1.0250
G01 X2.4389 Y-1.0250
G01 X2.3118 Y-0.6238
G01 X2.1671 Y-0.1250
G01 X2.2296 Y-0.1250
G01 X2.3692 Y-0.6064
G01 X2.5018 Y-1.0250
G01 X2.5648 Y-1.0250
G01 X2.4266 Y-0.5889
G01 X2.2921 Y-0.1250
G01 X2.3545 Y-0.1250
G01 X2.4840 Y-0.5715
G01 X2.6277 Y-1.0250
G01 X2.6906 Y-1.0250
G01 X2.5414 Y-0.5541
G01 X2.4170 Y-0.1250
G01 X2.4795 Y-0.1250
G01 X2.5988 Y-0.5367
G01 X2.7536 Y-1.0250
G01 X2.8165 Y-1.0250
G01 X2.6563 Y-0.5193
G01 X2.5419 Y-0.1250
G01 X2.6044 Y-0.1250
G01 X2.7137 Y-0.5019
G01 X2.8794 Y-1.0250
G01 X2.9424 Y-1.0250
G01 X2.7711 Y-0.4844
G01 X2.6669 Y-0.1250
G01 X2.7293 Y-0.1250
G01 X2.8285 Y-0.4670
G01 X3.0053 Y-1.0250
G01 X3.0682 Y-1.0250
G01 X2.8859 Y-0.4496
G01 X2.7918 Y-0.1250
G01 X2.8543 Y-0.1250
G01 X2.9433 Y-0.4322
G01 X3.1312 Y-1.0250
G01 X3.1941 Y-1.0250
G01 X3.0008 Y-0.4148
G01 X2.9167 Y-0.1250
G01 X2.9792 Y-0.1250
G01 X3.0582 Y-0.3973
G01 X3.2570 Y-1.0250
G01 X3.3200 Y-1.0250
G01 X3.1156 Y-0.3799
G01 X3.0417 Y-0.1250
G01 X3.1041 Y-0.1250
G01 X3.1730 Y-0.3625
G01 X3.3829 Y-1.0250
G01 X3.4458 Y-1.0250
G01 X3.2304 Y-0.3451
G01 X3.1666 Y-0.1250
G01 X3.2291 Y-0.1250
G01 X3.2878 Y-0.3277
G01 X3.5088 Y-1.0250
G01 X3.5717 Y-1.0250
G01 X3.3453 Y-0.3103
G01 X3.2915 Y-0.1250
G01 X3.3540 Y-0.1250
G01 X3.4027 Y-0.2928
G01 X3.6346 Y-1.0250
G01 X3.6976 Y-1.0250
G01 X3.4601 Y-0.2754
G01 X3.4165 Y-0.1250
G01 X3.4789 Y-0.1250
G01 X3.5175 Y-0.2580
G01 X3.7605 Y-1.0250
G01 X3.8234 Y-1.0250
G01 X3.5749 Y-0.2406
G01 X3.5414 Y-0.1250
G01 X3.6039 Y-0.1250
G01 X3.6323 Y-0.2232
G01 X3.8864 Y-1.0250
G01 X3.9493 Y-1.0250
G01 X3.6898 Y-0.2058
G01 X3.6663 Y-0.1250
G01 X3.7288 Y-0.1250
G01 X3.7472 Y-0.1883
G01 X4.0122 Y-1.0250
G01 X4.0752 Y-1.0250
G01 X3.8046 Y-0.1709
G01 X3.7913 Y-0.1250
G01 X3.8538 Y-0.1250
G01 X3.8620 Y-0.1535
G01 X4.1381 Y-1.0250
G01 X4.2010 Y-1.0250
G01 X3.9194 Y-0.1361
G01 X3.9162 Y-0.1250
G01 X3.9789 Y-0.1250
G01 X4.2640 Y-1.0250
G01 X4.3269 Y-1.0250
G01 X4.0418 Y-0.1250
G01 X4.1047 Y-0.1250
G01 X4.3898 Y-1.0250
G01 X4.4528 Y-1.0250
G01 X4.1677 Y-0.1250
G01 X4.2306 Y-0.1250
G01 X4.5157 Y-1.0250
G01 X4.5786 Y-1.0250
G01 X4.2935 Y-0.1250
G01 X4.3565 Y-0.1250
G01 X4.6416 Y-1.0250
G01 X4.7051 Y-1.0250
G01 X4.6978 Y-1.0040
G01 X4.4194 Y-0.1250
G01 X4.4823 Y-0.1250
G01 X4.7548 Y-0.9852
G01 X4.7685 Y-1.0250
G01 X4.8320 Y-1.0250
G01 X4.8118 Y-0.9664
G01 X4.5453 Y-0.1250
G01 X4.6082 Y-0.1250
G01 X4.8688 Y-0.9475
G01 X4.8954 Y-1.0250
G01 X4.9589 Y-1.0250
G01 X4.9257 Y-0.9287
G01 X4.6711 Y-0.1250
G01 X4.7341 Y-0.1250
G01 X4.9827 Y-0.9099
G01 X5.0223 Y-1.0250
G01 X5.0858 Y-1.0250
G01 X5.0397 Y-0.8911
G01 X4.7970 Y-0.1250
G01 X4.8599 Y-0.1250
G01 X5.0967 Y-0.8723
G01 X5.1492 Y-1.0250
G01 X5.2127 Y-1.0250
G01 X5.1536 Y-0.8534
G01 X4.9229 Y-0.1250
G01 X4.9858 Y-0.1250
G01 X5.2106 Y-0.8346
G01 X5.2761 Y-1.0250
G01 X5.3396 Y-1.0250
G01 X5.2676 Y-0.8158
G01 X5.0487 Y-0.1250
G01 X5.1117 Y-0.1250
G01 X5.3245 Y-0.7970
G01 X5.4030 Y-1.0250
G01 X5.4664 Y-1.0250
G01 X5.3815 Y-0.7781
G01 X5.1746 Y-0.1250
G01 X5.2375 Y-0.1250
G01 X5.4385 Y-0.7593
G01 X5.5299 Y-1.0250
G01 X5.5933 Y-1.0250
G01 X5.4955 Y-0.7405
G01 X5.3005 Y-0.1250
G01 X5.3634 Y-0.1250
G01 X5.5524 Y-0.7217
G01 X5.6568 Y-1.0250
G01 X5.7202 Y-1.0250
G01 X5.6094 Y-0.7029
G01 X5.4263 Y-0.1250
G01 X5.4893 Y-0.1250
G01 X5.6664 Y-0.6840
G01 X5.7837 Y-1.0250
G01 X5.8471 Y-1.0250
G01 X5.7233 Y-0.6652
G01 X5.5522 Y-0.1250
G01 X5.6151 Y-0.1250
G01 X5.7803 Y-0.6464
G01 X5.9106 Y-1.0250
G01 X5.9740 Y-1.0250
G01 X5.8373 Y-0.6276
G01 X5.6781 Y-0.1250
G01 X5.7410 Y-0.1250
G01 X5.8943 Y-0.6088
G01 X6.0375 Y-1.0250
G01 X6.1009 Y-1.0250
G01 X5.9512 Y-0.5899
G01 X5.8039 Y-0.1250
G01 X5.8669 Y-0.1250
G01 X6.0082 Y-0.5711
G01 X6.1644 Y-1.0250
G01 X6.2278 Y-1.0250
G01 X6.0652 Y-0.5523
G01 X5.9298 Y-0.1250
G01 X5.9927 Y-0.1250
G01 X6.1221 Y-0.5335
G01 X6.2912 Y-1.0250
G01 X6.3547 Y-1.0250
G01 X6.1791 Y-0.5147
G01 X6.0557 Y-0.1250
G01 X6.1186 Y-0.1250
G01 X6.2361 Y-0.4958
G01 X6.4181 Y-1.0250
G01 X6.4816 Y-1.0250
G01 X6.2931 Y-0.4770
G01 X6.1816 Y-0.1250
G01 X6.2445 Y-0.1250
G01 X6.3500 Y-0.4582
G01 X6.5450 Y-1.0250
G01 X6.6085 Y-1.0250
G01 X6.4070 Y-0.4394
G01 X6.3074 Y-0.1250
G01 X6.3704 Y-0.1250
G01 X6.4640 Y-0.4206
G01 X6.6719 Y-1.0250
G01 X6.7354 Y-1.0250
G01 X6.5209 Y-0.4017
G01 X6.4333 Y-0.1250
G01 X6.4962 Y-0.1250
G01 X6.5779 Y-0.3829
G01 X6.7988 Y-1.0250
G01 X6.8623 Y-1.0250
G01 X6.6349 Y-0.3641
G01 X6.5592 Y-0.1250
G01 X6.6221 Y-0.1250
G01 X6.6919 Y-0.3453
G01 X6.9257 Y-1.0250
G01 X6.9892 Y-1.0250
G01 X6.7488 Y-0.3264
G01 X6.6850 Y-0.1250
G01 X6.7480 Y-0.1250
G01 X6.8058 Y-0.3076
G01 X7.0526 Y-1.0250
G01 X7.1161 Y-1.0250
G01 X6.8628 Y-0.2888
G01 X6.8109 Y-0.1250
G01 X6.8738 Y-0.1250
G01 X6.9197 Y-0.2700
G01 X7.1795 Y-1.0250
G01 X7.2429 Y-1.0250
G01 X6.9767 Y-0.2512
G01 X6.9368 Y-0.1250
G01 X6.9997 Y-0.1250
G01 X7.0337 Y-0.2323
G01 X7.3064 Y-1.0250
G01 X7.3698 Y-1.0250
G01 X7.0907 Y-0.2135
G01 X7.0626 Y-0.1250
G01 X7.1256 Y-0.1250
G01 X7.1476 Y-0.1947
G01 X7.4333 Y-1.0250
G01 X7.4967 Y-1.0250
G01 X7.2046 Y-0.1759
G01 X7.1885 Y-0.1250
G01 X7.2514 Y-0.1250
G01 X7.2616 Y-0.1571
G01 X7.5602 Y-1.0250
G01 X7.6236 Y-1.0250
G01 X7.3185 Y-0.1382
G01 X7.3144 Y-0.1250
G01 X7.3775 Y-0.1250
G01 X7.6871 Y-1.0250
G01 X7.7505 Y-1.0250
G01 X7.4409 Y-0.1250
G01 X7.5043 Y-0.1250
G01 X7.8097 Y-1.0127
G01 X7.8143 Y-1.0250
G01 X7.8783 Y-1.0250
G01 X7.8662 Y-0.9924
G01 X7.5678 Y-0.1250
G01 X7.6312 Y-0.1250
G01 X7.9227 Y-0.9722
G01 X7.9423 Y-1.0250
G01 X8.0063 Y-1.0250
G01 X7.9792 Y-0.9520
G01 X7.6947 Y-0.1250
G01 X7.7581 Y-0.1250
G01 X8.0357 Y-0.9318
G01 X8.0703 Y-1.0250
G01 X8.1343 Y-1.0250
G01 X8.0922 Y-0.9116
G01 X7.8216 Y-0.1250
G01 X7.8850 Y-0.1250
G01 X8.1487 Y-0.8914
G01 X8.1983 Y-1.0250
G01 X8.2624 Y-1.0250
G01 X8.2052 Y-0.8712
G01 X7.9485 Y-0.1250
G01 X8.0119 Y-0.1250
G01 X8.2616 Y-0.8509
G01 X8.3264 Y-1.0250
G01 X8.3904 Y-1.0250
G01 X8.3181 Y-0.8307
G01 X8.0754 Y-0.1250
G01 X8.1388 Y-0.1250
G01 X8.3746 Y-0.8105
G01 X8.4544 Y-1.0250
G01 X8.5184 Y-1.0250
G01 X8.4311 Y-0.7903
G01 X8.2023 Y-0.1250
G01 X8.2657 Y-0.1250
G01 X8.4876 Y-0.7701
G01 X8.5824 Y-1.0250
G01 X8.6464 Y-1.0250
G01 X8.5441 Y-0.7499
G01 X8.3292 Y-0.1250
G01 X8.3926 Y-0.1250
G01 X8.6006 Y-0.7297
G01 X8.7104 Y-1.0250
G01 X8.7744 Y-1.0250
G01 X8.6571 Y-0.7095
G01 X8.4560 Y-0.1250
G01 X8.5195 Y-0.1250
G01 X8.7136 Y-0.6892
G01 X8.8384 Y-1.0250
G01 X8.9024 Y-1.0250
G01 X8.7701 Y-0.6690
G01 X8.5829 Y-0.1250
G01 X8.6464 Y-0.1250
G01 X8.8266 Y-0.6488
G01 X8.9664 Y-1.0250
G01 X9.0304 Y-1.0250
G01 X8.8831 Y-0.6286
G01 X8.7098 Y-0.1250
G01 X8.7733 Y-0.1250
G01 X8.9396 Y-0.6084
G01 X9.0944 Y-1.0250
G01 X9.1584 Y-1.0250
G01 X8.9961 Y-0.5882
G01 X8.8367 Y-0.1250
G01 X8.9002 Y-0.1250
G01 X9.0525 Y-0.5680
G01 X9.2224 Y-1.0250
G01 X9.2865 Y-1.0250
G01 X9.1090 Y-0.5477
G01 X8.9636 Y-0.1250
G01 X9.0271 Y-0.1250
G01 X9.1655 Y-0.5275
G01 X9.3505 Y-1.0250
G01 X9.4145 Y-1.0250
G01 X9.2220 Y-0.5073
G01 X9.0905 Y-0.1250
G01 X9.1540 Y-0.1250
G01 X9.2785 Y-0.4871
G01 X9.4785 Y-1.0250
G01 X9.5425 Y-1.0250
G01 X9.3350 Y-0.4669
G01 X9.2174 Y-0.1250
G01 X9.2808 Y-0.1250
G01 X9.3915 Y-0.4467
G01 X9.6065 Y-1.0250
G01 X9.6705 Y-1.0250
G01 X9.4480 Y-0.4265
G01 X9.3443 Y-0.1250
G01 X9.4077 Y-0.1250
G01 X9.5045 Y-0.4063
G01 X9.7345 Y-1.0250
G01 X9.7985 Y-1.0250
G01 X9.5610 Y-0.3860
G01 X9.4712 Y-0.1250
G01 X9.5346 Y-0.1250
G01 X9.6175 Y-0.3658
G01 X9.8625 Y-1.0250
G01 X9.9265 Y-1.0250
G01 X9.6740 Y-0.3456
G01 X9.5981 Y-0.1250
G01 X9.6615 Y-0.1250
G01 X9.7305 Y-0.3254
G01 X9.9905 Y-1.0250
G01 X10.0545 Y-1.0250
G01 X9.7869 Y-0.3052
G01 X9.7250 Y-0.1250
G01 X9.7884 Y-0.1250
G01 X9.8434 Y-0.2850
G01 X10.1185 Y-1.0250
G01 X10.1825 Y-1.0250
G01 X9.8999 Y-0.2648
G01 X9.8519 Y-0.1250
G01 X9.9153 Y-0.1250
G01 X9.9564 Y-0.2445
G01 X10.2465 Y-1.0250
G01 X10.3105 Y-1.0250
G01 X10.0129 Y-0.2243
G01 X9.9788 Y-0.1250
G01 X10.0422 Y-0.1250
G01 X10.0694 Y-0.2041
G01 X10.3746 Y-1.0250
G01 X10.4386 Y-1.0250
G01 X10.1259 Y-0.1839
G01 X10.1057 Y-0.1250
G01 X10.1691 Y-0.1250
G01 X10.1824 Y-0.1637
G01 X10.5026 Y-1.0250
G01 X10.5671 Y-1.0250
G01 X10.5598 Y-1.0069
G01 X10.2389 Y-0.1435
G01 X10.2325 Y-0.1250
G01 X10.2960 Y-0.1250
G01 X10.6158 Y-0.9853
G01 X10.6317 Y-1.0250
G01 X10.6963 Y-1.0250
G01 X10.6718 Y-0.9637
G01 X10.3600 Y-0.1250
G01 X10.4241 Y-0.1250
G01 X10.7278 Y-0.9421
G01 X10.7609 Y-1.0250
G01 X10.8255 Y-1.0250
G01 X10.7837 Y-0.9205
G01 X10.4881 Y-0.1250
G01 X10.5521 Y-0.1250
G01 X10.8397 Y-0.8989
G01 X10.8902 Y-1.0250
G01 X10.9548 Y-1.0250
G01 X10.8957 Y-0.8773
G01 X10.6161 Y-0.1250
G01 X10.6801 Y-0.1250
G01 X10.9517 Y-0.8557
G01 X11.0194 Y-1.0250
G01 X11.0840 Y-1.0250
G01 X11.0077 Y-0.8341
G01 X10.7441 Y-0.1250
G01 X10.8081 Y-0.1250
G01 X11.0636 Y-0.8125
G01 X11.1486 Y-1.0250
G01 X11.2132 Y-1.0250
G01 X11.1196 Y-0.7909
G01 X10.8721 Y-0.1250
G01 X10.9361 Y-0.1250
G01 X11.1756 Y-0.7693
G01 X11.2779 Y-1.0250
G01 X11.3425 Y-1.0250
G01 X11.2316 Y-0.7477
G01 X11.0001 Y-0.1250
G01 X11.0641 Y-0.1250
G01 X11.2876 Y-0.7261
G01 X11.4071 Y-1.0250
G01 X11.4717 Y-1.0250
G01 X11.3435 Y-0.7045
G01 X11.1281 Y-0.1250
G01 X11.1921 Y-0.1250
G01 X11.3995 Y-0.6830
G01 X11.5363 Y-1.0250
G01 X11.6009 Y-1.0250
G01 X11.4555 Y-0.6614
G01 X11.2561 Y-0.1250
G01 X11.3201 Y-0.1250
G01 X11.5115 Y-0.6398
G01 X11.6655 Y-1.0250
G01 X11.7302 Y-1.0250
G01 X11.5674 Y-0.6182
G01 X11.3841 Y-0.1250
G01 X11.4482 Y-0.1250
G01 X11.6234 Y-0.5966
G01 X11.7948 Y-1.0250
G01 X11.8594 Y-1.0250
G01 X11.6794 Y-0.5750
G01 X11.5122 Y-0.1250
G01 X11.5762 Y-0.1250
G01 X11.7354 Y-0.5534
G01 X11.9240 Y-1.0250
G01 X11.9886 Y-1.0250
G01 X11.7914 Y-0.5318
G01 X11.6402 Y-0.1250
G01 X11.7042 Y-0.1250
G01 X11.8473 Y-0.5102
G01 X12.0532 Y-1.0250
G01 X12.1178 Y-1.0250
G01 X11.9033 Y-0.4886
G01 X11.7682 Y-0.1250
G01 X11.8322 Y-0.1250
G01 X11.9593 Y-0.4670
G01 X12.1825 Y-1.0250
G01 X12.2471 Y-1.0250
G01 X12.0153 Y-0.4454
G01 X11.8962 Y-0.1250
G01 X11.9602 Y-0.1250
G01 X12.0713 Y-0.4238
G01 X12.3117 Y-1.0250
G01 X12.3763 Y-1.0250
G01 X12.1272 Y-0.4022
G01 X12.0242 Y-0.1250
G01 X12.0882 Y-0.1250
G01 X12.1832 Y-0.3806
G01 X12.4409 Y-1.0250
G01 X12.5055 Y-1.0250
G01 X12.2392 Y-0.3590
G01 X12.1522 Y-0.1250
G01 X12.2162 Y-0.1250
G01 X12.2952 Y-0.3375
G01 X12.5702 Y-1.0250
G01 X12.6348 Y-1.0250
G01 X12.3512 Y-0.3159
G01 X12.2802 Y-0.1250
G01 X12.3442 Y-0.1250
G01 X12.4071 Y-0.2943
G01 X12.6994 Y-1.0250
G01 X12.7640 Y-1.0250
G01 X12.4631 Y-0.2727
G01 X12.4082 Y-0.1250
G01 X12.4723 Y-0.1250
G01 X12.5191 Y-0.2511
G01 X12.8286 Y-1.0250
G01 X12.8932 Y-1.0250
G01 X12.5751 Y-0.2295
G01 X12.5363 Y-0.1250
G01 X12.6003 Y-0.1250
G01 X12.6311 Y-0.2079
G01 X12.9529 Y-1.0126
G01 X12.9582 Y-1.0250
G01 X13.0235 Y-1.0250
G01 X13.0083 Y-0.9896
G01 X12.6870 Y-0.1863
G01 X12.6643 Y-0.1250
G01 X12.7283 Y-0.1250
G01 X12.7430 Y-0.1647
G01 X13.0637 Y-0.9666
G01 X13.0888 Y-1.0250
G01 X13.1540 Y-1.0250
G01 X13.1191 Y-0.9437
G01 X12.7990 Y-0.1431
G01 X12.7923 Y-0.1250
G01 X12.8564 Y-0.1250
G01 X13.1746 Y-0.9207
G01 X13.2193 Y-1.0250
G01 X13.2846 Y-1.0250
G01 X13.2300 Y-0.8977
G01 X12.9210 Y-0.1250
G01 X12.9856 Y-0.1250
G01 X13.2854 Y-0.8748
G01 X13.3499 Y-1.0250
G01 X13.4151 Y-1.0250
G01 X13.3409 Y-0.8518
G01 X13.0502 Y-0.1250
G01 X13.1148 Y-0.1250
G01 X13.3963 Y-0.8289
G01 X13.4804 Y-1.0250
G01 X13.5457 Y-1.0250
G01 X13.4517 Y-0.8059
G01 X13.1795 Y-0.1250
G01 X13.2441 Y-0.1250
G01 X13.5072 Y-0.7829
G01 X13.6110 Y-1.0250
G01 X13.6762 Y-1.0250
G01 X13.5626 Y-0.7600
G01 X13.3087 Y-0.1250
G01 X13.3733 Y-0.1250
G01 X13.6180 Y-0.7370
G01 X13.7415 Y-1.0250
G01 X13.8068 Y-1.0250
G01 X13.6735 Y-0.7141
G01 X13.4379 Y-0.1250
G01 X13.5025 Y-0.1250
G01 X13.7289 Y-0.6911
G01 X13.8721 Y-1.0250
G01 X13.9373 Y-1.0250
G01 X13.7843 Y-0.6681
G01 X13.5672 Y-0.1250
G01 X13.6318 Y-0.1250
G01 X13.8398 Y-0.6452
G01 X14.0026 Y-1.0250
G01 X14.0679 Y-1.0250
G01 X13.8952 Y-0.6222
G01 X13.6964 Y-0.1250
G01 X13.7610 Y-0.1250
G01 X13.9506 Y-0.5993
G01 X14.1332 Y-1.0250
G01 X14.1984 Y-1.0250
G01 X14.0061 Y-0.5763
G01 X13.8256 Y-0.1250
G01 X13.8902 Y-0.1250
G01 X14.0615 Y-0.5533
G01 X14.2637 Y-1.0250
G01 X14.3290 Y-1.0250
G01 X14.1169 Y-0.5304
G01 X13.9548 Y-0.1250
G01 X14.0195 Y-0.1250
G01 X14.1724 Y-0.5074
G01 X14.3943 Y-1.0250
G01 X14.4595 Y-1.0250
G01 X14.2278 Y-0.4844
G01 X14.0841 Y-0.1250
G01 X14.1487 Y-0.1250
G01 X14.2832 Y-0.4615
G01 X14.5248 Y-1.0250
G01 X14.5901 Y-1.0250
G01 X14.3387 Y-0.4385
G01 X14.2133 Y-0.1250
G01 X14.2779 Y-0.1250
G01 X14.3941 Y-0.4156
G01 X14.6554 Y-1.0250
G01 X14.7206 Y-1.0250
G01 X14.4495 Y-0.3926
G01 X14.3425 Y-0.1250
G01 X14.4071 Y-0.1250
G01 X14.5050 Y-0.3696
G01 X14.7859 Y-1.0250
G01 X14.8512 Y-1.0250
G01 X14.5604 Y-0.3467
G01 X14.4718 Y-0.1250
G01 X14.5364 Y-0.1250
G01 X14.6158 Y-0.3237
G01 X14.9165 Y-1.0250
G01 X14.9817 Y-1.0250
G01 X14.6713 Y-0.3008
G01 X14.6010 Y-0.1250
G01 X14.6656 Y-0.1250
G01 X14.7267 Y-0.2778
G01 X15.0470 Y-1.0250
G01 X15.1128 Y-1.0250
G01 X15.1044 Y-1.0067
G01 X14.7821 Y-0.2548
G01 X14.7302 Y-0.1250
G01 X14.7948 Y-0.1250
G01 X14.8376 Y-0.2319
G01 X15.1593 Y-0.9824
G01 X15.1788 Y-1.0250
G01 X15.2448 Y-1.0250
G01 X15.2141 Y-0.9581
G01 X14.8930 Y-0.2089
G01 X14.8595 Y-0.1250
G01 X14.9241 Y-0.1250
G01 X14.9484 Y-0.1860
G01 X15.2690 Y-0.9337
G01 X15.3108 Y-1.0250
G01 X15.3768 Y-1.0250
G01 X15.3238 Y-0.9094
G01 X15.0039 Y-0.1630
G01 X14.9887 Y-0.1250
G01 X15.0533 Y-0.1250
G01 X15.0593 Y-0.1400
G01 X15.3787 Y-0.8851
G01 X15.4428 Y-1.0250
G01 X15.5088 Y-1.0250
G01 X15.4335 Y-0.8608
G01 X15.1181 Y-0.1250
G01 X15.1834 Y-0.1250
G01 X15.4884 Y-0.8365
G01 X15.5748 Y-1.0250
G01 X15.6407 Y-1.0250
G01 X15.5432 Y-0.8122
G01 X15.2487 Y-0.1250
G01 X15.3140 Y-0.1250
G01 X15.5981 Y-0.7879
G01 X15.7067 Y-1.0250
G01 X15.7727 Y-1.0250
G01 X15.6530 Y-0.7635
G01 X15.3792 Y-0.1250
G01 X15.4445 Y-0.1250
G01 X15.7078 Y-0.7392
G01 X15.8387 Y-1.0250
G01 X15.9047 Y-1.0250
G01 X15.7627 Y-0.7149
G01 X15.5098 Y-0.1250
G01 X15.5751 Y-0.1250
G01 X15.8175 Y-0.6906
G01 X15.9707 Y-1.0250
G01 X16.0367 Y-1.0250
G01 X15.8724 Y-0.6663
G01 X15.6403 Y-0.1250
G01 X15.7056 Y-0.1250
G01 X15.9272 Y-0.6420
G01 X16.1027 Y-1.0250
G01 X16.1687 Y-1.0250
G01 X15.9821 Y-0.6177
G01 X15.7709 Y-0.1250
G01 X15.8362 Y-0.1250
G01 X16.0369 Y-0.5933
G01 X16.2346 Y-1.0250
G01 X16.3006 Y-1.0250
G01 X16.0918 Y-0.5690
G01 X15.9014 Y-0.1250
G01 X15.9667 Y-0.1250
G01 X16.1466 Y-0.5447
G01 X16.3666 Y-1.0250
G01 X16.4326 Y-1.0250
G01 X16.2015 Y-0.5204
G01 X16.0320 Y-0.1250
G01 X16.0973 Y-0.1250
G01 X16.2563 Y-0.4961
G01 X16.4986 Y-1.0250
G01 X16.5646 Y-1.0250
G01 X16.3112 Y-0.4718
G01 X16.1625 Y-0.1250
G01 X16.2278 Y-0.1250
G01 X16.3660 Y-0.4475
G01 X16.6306 Y-1.0250
G01 X16.6966 Y-1.0250
G01 X16.4209 Y-0.4231
G01 X16.2931 Y-0.1250
G01 X16.3584 Y-0.1250
G01 X16.4757 Y-0.3988
G01 X16.7626 Y-1.0250
G01 X16.8286 Y-1.0250
G01 X16.5306 Y-0.3745
G01 X16.4237 Y-0.1250
G01 X16.4889 Y-0.1250
G01 X16.5854 Y-0.3502
G01 X16.8945 Y-1.0250
G01 X16.9605 Y-1.0250
G01 X16.6403 Y-0.3259
G01 X16.5542 Y-0.1250
G01 X16.6195 Y-0.1250
G01 X16.6952 Y-0.3016
G01 X17.0180 Y-1.0065
G01 X17.0271 Y-1.0250
G01 X17.0938 Y-1.0250
G01 X17.0723 Y-0.9808
G01 X16.7500 Y-0.2773
G01 X16.6848 Y-0.1250
G01 X16.7500 Y-0.1250
G01 X16.8049 Y-0.2529
G01 X17.1265 Y-0.9552
G01 X17.1606 Y-1.0250
G01 X17.2274 Y-1.0250
G01 X17.1807 Y-0.9295
G01 X16.8597 Y-0.2286
G01 X16.8153 Y-0.1250
G01 X16.8806 Y-0.1250
G01 X16.9146 Y-0.2043
G01 X17.2350 Y-0.9039
G01 X17.2941 Y-1.0250
G01 X17.3609 Y-1.0250
G01 X17.2892 Y-0.8782
G01 X16.9694 Y-0.1800
G01 X16.9459 Y-0.1250
G01 X17.0111 Y-0.1250
G01 X17.0243 Y-0.1557
G01 X17.3435 Y-0.8525
G01 X17.4276 Y-1.0250
G01 X17.4944 Y-1.0250
G01 X17.3977 Y-0.8269
G01 X17.0764 Y-0.1250
G01 X17.1422 Y-0.1250
G01 X17.4519 Y-0.8012
G01 X17.5612 Y-1.0250
G01 X17.6279 Y-1.0250
G01 X17.5062 Y-0.7756
G01 X17.2082 Y-0.1250
G01 X17.2742 Y-0.1250
G01 X17.5604 Y-0.7499
G01 X17.6947 Y-1.0250
G01 X17.7614 Y-1.0250
G01 X17.6146 Y-0.7243
G01 X17.3402 Y-0.1250
G01 X17.4062 Y-0.1250
G01 X17.6689 Y-0.6986
G01 X17.8282 Y-1.0250
G01 X17.8950 Y-1.0250
G01 X17.7231 Y-0.6730
G01 X17.4722 Y-0.1250
G01 X17.5381 Y-0.1250
G01 X17.7774 Y-0.6473
G01 X17.9617 Y-1.0250
G01 X18.0285 Y-1.0250
G01 X17.8316 Y-0.6217
G01 X17.6041 Y-0.1250
G01 X17.6701 Y-0.1250
G01 X17.8858 Y-0.5960
G01 X18.0952 Y-1.0250
G01 X18.1620 Y-1.0250
G01 X17.9401 Y-0.5704
G01 X17.7361 Y-0.1250
G01 X17.8021 Y-0.1250
G01 X17.9943 Y-0.5447
G01 X18.2288 Y-1.0250
G01 X18.2955 Y-1.0250
G01 X18.0486 Y-0.5191
G01 X17.8681 Y-0.1250
G01 X17.9341 Y-0.1250
G01 X18.1028 Y-0.4934
G01 X18.3623 Y-1.0250
G01 X18.4290 Y-1.0250
G01 X18.1570 Y-0.4677
G01 X18.0001 Y-0.1250
G01 X18.0661 Y-0.1250
G01 X18.2113 Y-0.4421
G01 X18.4958 Y-1.0250
G01 X18.5626 Y-1.0250
G01 X18.2655 Y-0.4164
G01 X18.1320 Y-0.1250
G01 X18.1980 Y-0.1250
G01 X18.3198 Y-0.3908
G01 X18.6293 Y-1.0250
G01 X18.6961 Y-1.0250
G01 X18.3740 Y-0.3651
G01 X18.2640 Y-0.1250
G01 X18.3300 Y-0.1250
G01 X18.4282 Y-0.3395
G01 X18.7515 Y-1.0018
G01 X18.7636 Y-1.0250
G01 X18.8311 Y-1.0250
G01 X18.8051 Y-0.9749
G01 X18.4825 Y-0.3138
G01 X18.3960 Y-0.1250
G01 X18.4620 Y-0.1250
G01 X18.5367 Y-0.2882
G01 X18.8587 Y-0.9479
G01 X18.8987 Y-1.0250
G01 X18.9663 Y-1.0250
G01 X18.9123 Y-0.9209
G01 X18.5910 Y-0.2625
G01 X18.5280 Y-0.1250
G01 X18.5940 Y-0.1250
G01 X18.6452 Y-0.2369
G01 X18.9659 Y-0.8939
G01 X19.0339 Y-1.0250
G01 X19.1015 Y-1.0250
G01 X19.0195 Y-0.8669
G01 X18.6994 Y-0.2112
G01 X18.6600 Y-0.1250
G01 X18.7260 Y-0.1250
G01 X18.7537 Y-0.1856
G01 X19.0731 Y-0.8400
G01 X19.1691 Y-1.0250
G01 X19.2367 Y-1.0250
G01 X19.1267 Y-0.8130
G01 X18.8079 Y-0.1599
G01 X18.7919 Y-0.1250
G01 X18.8579 Y-0.1250
G01 X19.1803 Y-0.7860
G01 X19.3043 Y-1.0250
G01 X19.3719 Y-1.0250
G01 X19.2339 Y-0.7590
G01 X18.9244 Y-0.1250
G01 X18.9912 Y-0.1250
G01 X19.2874 Y-0.7321
G01 X19.4395 Y-1.0250
G01 X19.5070 Y-1.0250
G01 X19.3410 Y-0.7051
G01 X19.0579 Y-0.1250
G01 X19.1247 Y-0.1250
G01 X19.3946 Y-0.6781
G01 X19.5746 Y-1.0250
G01 X19.6422 Y-1.0250
G01 X19.4482 Y-0.6511
G01 X19.1915 Y-0.1250
G01 X19.2582 Y-0.1250
G01 X19.5018 Y-0.6242
G01 X19.7098 Y-1.0250
G01 X19.7774 Y-1.0250
G01 X19.5554 Y-0.5972
G01 X19.3250 Y-0.1250
G01 X19.3917 Y-0.1250
G01 X19.6090 Y-0.5702
G01 X19.8450 Y-1.0250
G01 X19.9126 Y-1.0250
G01 X19.6626 Y-0.5432
G01 X19.4585 Y-0.1250
G01 X19.5253 Y-0.1250
G01 X19.7162 Y-0.5162
G01 X19.9802 Y-1.0250
G01 X20.0478 Y-1.0250
G01 X19.7698 Y-0.4893
G01 X19.5920 Y-0.1250
G01 X19.6588 Y-0.1250
G01 X19.8234 Y-0.4623
G01 X20.1154 Y-1.0250
G01 X20.1829 Y-1.0250
G01 X19.8770 Y-0.4353
G01 X19.7255 Y-0.1250
G01 X19.7923 Y-0.1250
G01 X19.9306 Y-0.4083
G01 X20.2505 Y-1.0250
G01 X20.3187 Y-1.0250
G01 X20.3080 Y-1.0055
G01 X19.9842 Y-0.3814
G01 X19.8591 Y-0.1250
G01 X19.9258 Y-0.1250
G01 X20.0378 Y-0.3544
G01 X20.3609 Y-0.9772
G01 X20.3872 Y-1.0250
G01 X20.4557 Y-1.0250
G01 X20.4138 Y-0.9489
G01 X20.0913 Y-0.3274
G01 X19.9926 Y-0.1250
G01 X20.0593 Y-0.1250
G01 X20.1449 Y-0.3004
G01 X20.4667 Y-0.9207
G01 X20.5242 Y-1.0250
G01 X20.5927 Y-1.0250
G01 X20.5197 Y-0.8924
G01 X20.1985 Y-0.2735
G01 X20.1261 Y-0.1250
G01 X20.1929 Y-0.1250
G01 X20.2521 Y-0.2465
G01 X20.5726 Y-0.8641
G01 X20.6611 Y-1.0250
G01 X20.7296 Y-1.0250
G01 X20.6255 Y-0.8358
G01 X20.3057 Y-0.2195
G01 X20.2596 Y-0.1250
G01 X20.3264 Y-0.1250
G01 X20.3593 Y-0.1925
G01 X20.6784 Y-0.8075
G01 X20.7981 Y-1.0250
G01 X20.8666 Y-1.0250
G01 X20.7313 Y-0.7792
G01 X20.4129 Y-0.1656
G01 X20.3931 Y-0.1250
G01 X20.4599 Y-0.1250
G01 X20.4665 Y-0.1386
G01 X20.7842 Y-0.7510
G01 X20.9351 Y-1.0250
G01 X21.0036 Y-1.0250
G01 X20.8371 Y-0.7227
G01 X20.5271 Y-0.1250
G01 X20.5947 Y-0.1250
G01 X20.8901 Y-0.6944
G01 X21.0720 Y-1.0250
G01 X21.1405 Y-1.0250
G01 X20.9430 Y-0.6661
G01 X20.6622 Y-0.1250
G01 X20.7298 Y-0.1250
G01 X20.9959 Y-0.6378
G01 X21.2090 Y-1.0250
G01 X21.2775 Y-1.0250
G01 X21.0488 Y-0.6095
G01 X20.7974 Y-0.1250
G01 X20.8650 Y-0.1250
G01 X21.1017 Y-0.5813
G01 X21.3460 Y-1.0250
G01 X21.4145 Y-1.0250
G01 X21.1546 Y-0.5530
G01 X20.9326 Y-0.1250
G01 X21.0002 Y-0.1250
G01 X21.2076 Y-0.5247
G01 X21.4829 Y-1.0250
G01 X21.5514 Y-1.0250
G01 X21.2605 Y-0.4964
G01 X21.0678 Y-0.1250
G01 X21.1354 Y-0.1250
G01 X21.3134 Y-0.4681
G01 X21.6199 Y-1.0250
G01 X21.6884 Y-1.0250
G01 X21.3663 Y-0.4398
G01 X21.2030 Y-0.1250
G01 X21.2706 Y-0.1250
G01 X21.4192 Y-0.4116
G01 X21.7434 Y-1.0005
G01 X21.7577 Y-1.0250
G01 X21.8271 Y-1.0250
G01 X21.7956 Y-0.9709
G01 X21.4721 Y-0.3833
G01 X21.3381 Y-0.1250
G01 X21.4057 Y-0.1250
G01 X21.5250 Y-0.3550
G01 X21.8478 Y-0.9413
G01 X21.8965 Y-1.0250
G01 X21.9660 Y-1.0250
G01 X21.9000 Y-0.9118
G01 X21.5780 Y-0.3267
G01 X21.4733 Y-0.1250
G01 X21.5409 Y-0.1250
G01 X21.6309 Y-0.2984
G01 X21.9522 Y-0.8822
G01 X22.0354 Y-1.0250
G01 X22.1049 Y-1.0250
G01 X22.0044 Y-0.8526
G01 X21.6838 Y-0.2701
G01 X21.6085 Y-0.1250
G01 X21.6761 Y-0.1250
G01 X21.7367 Y-0.2419
G01 X22.0566 Y-0.8230
G01 X22.1743 Y-1.0250
G01 X22.2438 Y-1.0250
G01 X22.1088 Y-0.7935
G01 X21.7896 Y-0.2136
G01 X21.7437 Y-0.1250
G01 X21.8113 Y-0.1250
G01 X21.8425 Y-0.1853
G01 X22.1610 Y-0.7639
G01 X22.3132 Y-1.0250
G01 X22.3826 Y-1.0250
G01 X22.2132 Y-0.7343
G01 X21.8955 Y-0.1570
G01 X21.8789 Y-0.1250
G01 X21.9465 Y-0.1250
G01 X22.2654 Y-0.7047
G01 X22.4521 Y-1.0250
G01 X22.5215 Y-1.0250
G01 X22.3176 Y-0.6752
G01 X22.0148 Y-0.1250
G01 X22.0833 Y-0.1250
G01 X22.3698 Y-0.6456
G01 X22.5910 Y-1.0250
G01 X22.6604 Y-1.0250
G01 X22.4220 Y-0.6160
G01 X22.1518 Y-0.1250
G01 X22.2203 Y-0.1250
G01 X22.4742 Y-0.5864
G01 X22.7298 Y-1.0250
G01 X22.7993 Y-1.0250
G01 X22.5264 Y-0.5569
G01 X22.2888 Y-0.1250
G01 X22.3572 Y-0.1250
G01 X22.5786 Y-0.5273
G01 X22.8687 Y-1.0250
G01 X22.9382 Y-1.0250
G01 X22.6308 Y-0.4977
G01 X22.4257 Y-0.1250
G01 X22.4942 Y-0.1250
G01 X22.6830 Y-0.4682
G01 X23.0076 Y-1.0250
G01 X23.0780 Y-1.0250
G01 X23.0597 Y-0.9952
G01 X22.7353 Y-0.4386
G01 X22.5627 Y-0.1250
G01 X22.6312 Y-0.1250
G01 X22.7875 Y-0.4090
G01 X23.1111 Y-0.9644
G01 X23.1485 Y-1.0250
G01 X23.2190 Y-1.0250
G01 X23.1626 Y-0.9335
G01 X22.8397 Y-0.3794
G01 X22.6996 Y-0.1250
G01 X22.7681 Y-0.1250
G01 X22.8919 Y-0.3499
G01 X23.2141 Y-0.9027
G01 X23.2895 Y-1.0250
G01 X23.3599 Y-1.0250
G01 X23.2655 Y-0.8718
G01 X22.9441 Y-0.3203
G01 X22.8366 Y-0.1250
G01 X22.9051 Y-0.1250
G01 X22.9963 Y-0.2907
G01 X23.3170 Y-0.8410
G01 X23.4304 Y-1.0250
G01 X23.5009 Y-1.0250
G01 X23.3684 Y-0.8101
G01 X23.0485 Y-0.2611
G01 X22.9736 Y-0.1250
G01 X23.0421 Y-0.1250
G01 X23.1007 Y-0.2316
G01 X23.4199 Y-0.7793
G01 X23.5713 Y-1.0250
G01 X23.6418 Y-1.0250
G01 X23.4714 Y-0.7484
G01 X23.1529 Y-0.2020
G01 X23.1105 Y-0.1250
G01 X23.1790 Y-0.1250
G01 X23.2051 Y-0.1724
G01 X23.5228 Y-0.7176
G01 X23.7123 Y-1.0250
G01 X23.7828 Y-1.0250
G01 X23.5743 Y-0.6867
G01 X23.2573 Y-0.1428
G01 X23.2475 Y-0.1250
G01 X23.3164 Y-0.1250
G01 X23.6258 Y-0.6559
G01 X23.8532 Y-1.0250
G01 X23.9237 Y-1.0250
G01 X23.6772 Y-0.6250
G01 X23.3858 Y-0.1250
G01 X23.4553 Y-0.1250
G01 X23.7287 Y-0.5942
G01 X23.9942 Y-1.0250
G01 X24.0646 Y-1.0250
G01 X23.7802 Y-0.5634
G01 X23.5247 Y-0.1250
G01 X23.5941 Y-0.1250
G01 X23.8316 Y-0.5325
G01 X24.1351 Y-1.0250
G01 X24.2056 Y-1.0250
G01 X23.8831 Y-0.5017
G01 X23.6636 Y-0.1250
G01 X23.7330 Y-0.1250
G01 X23.9345 Y-0.4708
G01 X24.2594 Y-0.9980
G01 X24.2770 Y-1.0250
G01 X24.3486 Y-1.0250
G01 X24.3101 Y-0.9659
G01 X23.9860 Y-0.4400
G01 X23.8025 Y-0.1250
G01 X23.8719 Y-0.1250
G01 X24.0375 Y-0.4091
G01 X24.3608 Y-0.9338
G01 X24.4201 Y-1.0250
G01 X24.4917 Y-1.0250
G01 X24.4115 Y-0.9017
G01 X24.0889 Y-0.3783
G01 X23.9413 Y-0.1250
G01 X24.0108 Y-0.1250
G01 X24.1404 Y-0.3474
G01 X24.4621 Y-0.8696
G01 X24.5633 Y-1.0250
G01 X24.6349 Y-1.0250
G01 X24.5128 Y-0.8375
G01 X24.1919 Y-0.3166
G01 X24.0802 Y-0.1250
G01 X24.1497 Y-0.1250
G01 X24.2433 Y-0.2857
G01 X24.5635 Y-0.8054
G01 X24.7064 Y-1.0250
G01 X24.7780 Y-1.0250
G01 X24.6142 Y-0.7733
G01 X24.2948 Y-0.2549
G01 X24.2191 Y-0.1250
G01 X24.2886 Y-0.1250
G01 X24.3463 Y-0.2240
G01 X24.6649 Y-0.7412
G01 X24.8496 Y-1.0250
G01 X24.9211 Y-1.0250
G01 X24.7156 Y-0.7091
G01 X24.3977 Y-0.1932
G01 X24.3580 Y-0.1250
G01 X24.4274 Y-0.1250
G01 X24.4492 Y-0.1624
G01 X24.7663 Y-0.6770
G01 X24.9927 Y-1.0250
G01 X25.0643 Y-1.0250
G01 X24.8170 Y-0.6449
G01 X24.4969 Y-0.1250
G01 X24.5671 Y-0.1250
G01 X24.8677 Y-0.6128
G01 X25.1359 Y-1.0250
G01 X25.2074 Y-1.0250
G01 X24.9184 Y-0.5807
G01 X24.6376 Y-0.1250
G01 X24.7081 Y-0.1250
G01 X24.9691 Y-0.5486
G01 X25.2790 Y-1.0250
G01 X25.3509 Y-1.0250
G01 X25.0198 Y-0.5165
G01 X24.7785 Y-0.1250
G01 X24.8490 Y-0.1250
G01 X25.0704 Y-0.4844
G01 X25.3953 Y-0.9837
G01 X25.4236 Y-1.0250
G01 X25.4964 Y-1.0250
G01 X25.4452 Y-0.9504
G01 X25.1211 Y-0.4523
G01 X24.9195 Y-0.1250
G01 X24.9900 Y-0.1250
G01 X25.1718 Y-0.4202
G01 X25.4950 Y-0.9170
G01 X25.5692 Y-1.0250
G01 X25.6419 Y-1.0250
G01 X25.5449 Y-0.8837
G01 X25.2225 Y-0.3881
G01 X25.0604 Y-0.1250
G01 X25.1309 Y-0.1250
G01 X25.2732 Y-0.3560
G01 X25.5948 Y-0.8504
G01 X25.7147 Y-1.0250
G01 X25.7874 Y-1.0250
G01 X25.6447 Y-0.8170
G01 X25.3239 Y-0.3239
G01 X25.2014 Y-0.1250
G01 X25.2718 Y-0.1250
G01 X25.3746 Y-0.2918
G01 X25.6946 Y-0.7837
G01 X25.8602 Y-1.0250
G01 X25.9329 Y-1.0250
G01 X25.7445 Y-0.7504
G01 X25.4253 Y-0.2597
G01 X25.3423 Y-0.1250
G01 X25.4128 Y-0.1250
G01 X25.4760 Y-0.2276
G01 X25.7944 Y-0.7170
G01 X26.0057 Y-1.0250
G01 X26.0785 Y-1.0250
G01 X25.8443 Y-0.6837
G01 X25.5267 Y-0.1955
G01 X25.4832 Y-0.1250
G01 X25.5537 Y-0.1250
G01 X25.5774 Y-0.1634
G01 X25.8942 Y-0.6503
G01 X26.1512 Y-1.0250
G01 X26.2240 Y-1.0250
G01 X25.9440 Y-0.6170
G01 X25.6242 Y-0.1250
G01 X25.6955 Y-0.1250
G01 X25.9939 Y-0.5837
G01 X26.2967 Y-1.0250
G01 X26.3695 Y-1.0250
G01 X26.0438 Y-0.5503
G01 X25.7671 Y-0.1250
G01 X25.8387 Y-0.1250
G01 X26.0937 Y-0.5170
G01 X26.4190 Y-0.9912
G01 X26.4435 Y-1.0250
G01 X26.5175 Y-1.0250
G01 X26.4681 Y-0.9566
G01 X26.1436 Y-0.4837
G01 X25.9103 Y-0.1250
G01 X25.9818 Y-0.1250
G01 X26.1935 Y-0.4503
G01 X26.5171 Y-0.9221
G01 X26.5915 Y-1.0250
G01 X26.6656 Y-1.0250
G01 X26.5662 Y-0.8875
G01 X26.2434 Y-0.4170
G01 X26.0534 Y-0.1250
G01 X26.1250 Y-0.1250
G01 X26.2933 Y-0.3837
G01 X26.6152 Y-0.8530
G01 X26.7396 Y-1.0250
G01 X26.8136 Y-1.0250
G01 X26.6643 Y-0.8184
G01 X26.3431 Y-0.3503
G01 X26.1966 Y-0.1250
G01 X26.2681 Y-0.1250
G01 X26.3930 Y-0.3170
G01 X26.7134 Y-0.7839
G01 X26.8877 Y-1.0250
G01 X26.9617 Y-1.0250
G01 X26.7624 Y-0.7493
G01 X26.4429 Y-0.2837
G01 X26.3397 Y-0.1250
G01 X26.4113 Y-0.1250
G01 X26.4928 Y-0.2503
G01 X26.8115 Y-0.7148
G01 X27.0357 Y-1.0250
G01 X27.1097 Y-1.0250
G01 X26.8605 Y-0.6802
G01 X26.5427 Y-0.2170
G01 X26.4829 Y-0.1250
G01 X26.5544 Y-0.1250
G01 X26.5926 Y-0.1837
G01 X26.9096 Y-0.6457
G01 X27.1838 Y-1.0250
G01 X27.2578 Y-1.0250
G01 X26.9586 Y-0.6112
G01 X26.6425 Y-0.1503
G01 X26.6260 Y-0.1250
G01 X26.6979 Y-0.1250
G01 X27.0077 Y-0.5766
G01 X27.3318 Y-1.0250
G01 X27.4071 Y-1.0250
G01 X27.3824 Y-0.9926
G01 X27.0567 Y-0.5421
G01 X26.7706 Y-0.1250
G01 X26.8434 Y-0.1250
G01 X27.1058 Y-0.5075
G01 X27.4306 Y-0.9568
G01 X27.4825 Y-1.0250
G01 X27.5578 Y-1.0250
G01 X27.4788 Y-0.9211
G01 X27.1549 Y-0.4730
G01 X26.9162 Y-0.1250
G01 X26.9889 Y-0.1250
G01 X27.2039 Y-0.4384
G01 X27.5270 Y-0.8854
G01 X27.6332 Y-1.0250
G01 X27.7086 Y-1.0250
G01 X27.5752 Y-0.8496
G01 X27.2530 Y-0.4039
G01 X27.0617 Y-0.1250
G01 X27.1344 Y-0.1250
G01 X27.3020 Y-0.3693
G01 X27.6233 Y-0.8139
G01 X27.7840 Y-1.0250
G01 X27.8594 Y-1.0250
G01 X27.6715 Y-0.7781
G01 X27.3511 Y-0.3348
G01 X27.2072 Y-0.1250
G01 X27.2799 Y-0.1250
G01 X27.4001 Y-0.3002
G01 X27.7197 Y-0.7424
G01 X27.9348 Y-1.0250
G01 X28.0102 Y-1.0250
G01 X27.7679 Y-0.7067
G01 X27.4492 Y-0.2657
G01 X27.3527 Y-0.1250
G01 X27.4255 Y-0.1250
G01 X27.4982 Y-0.2311
G01 X27.8161 Y-0.6709
G01 X28.0856 Y-1.0250
G01 X28.1609 Y-1.0250
G01 X27.8643 Y-0.6352
G01 X27.5473 Y-0.1966
G01 X27.4982 Y-0.1250
G01 X27.5710 Y-0.1250
G01 X27.5963 Y-0.1620
G01 X27.9125 Y-0.5994
G01 X28.2363 Y-1.0250
G01 X28.3130 Y-1.0250
G01 X28.2866 Y-0.9920
G01 X27.9607 Y-0.5637
G01 X27.6437 Y-0.1250
G01 X27.7177 Y-0.1250
G01 X28.0089 Y-0.5279
G01 X28.3339 Y-0.9551
G01 X28.3899 Y-1.0250
G01 X28.4667 Y-1.0250
G01 X28.3812 Y-0.9182
G01 X28.0571 Y-0.4922
G01 X27.7917 Y-0.1250
G01 X27.8657 Y-0.1250
G01 X28.1053 Y-0.4565
G01 X28.4285 Y-0.8813
G01 X28.5436 Y-1.0250
G01 X28.6204 Y-1.0250
G01 X28.4758 Y-0.8444
G01 X28.1535 Y-0.4207
G01 X27.9397 Y-0.1250
G01 X28.0138 Y-0.1250
G01 X28.2017 Y-0.3850
G01 X28.5231 Y-0.8075
G01 X28.6972 Y-1.0250
G01 X28.7741 Y-1.0250
G01 X28.5704 Y-0.7705
G01 X28.2499 Y-0.3492
G01 X28.0878 Y-0.1250
G01 X28.1618 Y-0.1250
G01 X28.2980 Y-0.3135
G01 X28.6177 Y-0.7336
G01 X28.8509 Y-1.0250
G01 X28.9278 Y-1.0250
G01 X28.6650 Y-0.6967
G01 X28.3462 Y-0.2778
G01 X28.2359 Y-0.1250
G01 X28.3099 Y-0.1250
G01 X28.3944 Y-0.2420
G01 X28.7123 Y-0.6598
G01 X29.0046 Y-1.0250
G01 X29.0815 Y-1.0250
G01 X28.7596 Y-0.6229
G01 X28.4426 Y-0.2063
G01 X28.3839 Y-0.1250
G01 X28.4579 Y-0.1250
G01 X28.4908 Y-0.1705
G01 X28.8069 Y-0.5860
G01 X29.1331 Y-0.9935
G01 X29.1596 Y-1.0250
G01 X29.2380 Y-1.0250
G01 X29.1795 Y-0.9555
G01 X28.8542 Y-0.5491
G01 X28.5390 Y-0.1348
G01 X28.5320 Y-0.1250
G01 X28.6070 Y-0.1250
G01 X28.9015 Y-0.5121
G01 X29.2259 Y-0.9174
G01 X29.3164 Y-1.0250
G01 X29.3948 Y-1.0250
G01 X29.2722 Y-0.8794
G01 X28.9488 Y-0.4752
G01 X28.6824 Y-0.1250
G01 X28.7578 Y-0.1250
G01 X28.9961 Y-0.4383
G01 X29.3186 Y-0.8413
G01 X29.4732 Y-1.0250
G01 X29.5516 Y-1.0250
G01 X29.3650 Y-0.8032
G01 X29.0434 Y-0.4014
G01 X28.8331 Y-0.1250
G01 X28.9085 Y-0.1250
G01 X29.0907 Y-0.3645
G01 X29.4114 Y-0.7652
G01 X29.6301 Y-1.0250
G01 X29.7085 Y-1.0250
G01 X29.4578 Y-0.7271
G01 X29.1380 Y-0.3276
G01 X28.9839 Y-0.1250
G01 X29.0593 Y-0.1250
G01 X29.1853 Y-0.2907
G01 X29.5042 Y-0.6890
G01 X29.7869 Y-1.0250
G01 X29.8653 Y-1.0250
G01 X29.5505 Y-0.6510
G01 X29.2326 Y-0.2538
G01 X29.1347 Y-0.1250
G01 X29.2101 Y-0.1250
G01 X29.2799 Y-0.2168
G01 X29.5969 Y-0.6129
G01 X29.9235 Y-1.0011
G01 X29.9447 Y-1.0250
G01 X30.0248 Y-1.0250
G01 X29.9690 Y-0.9619
G01 X29.6433 Y-0.5748
G01 X29.3272 Y-0.1799
G01 X29.2855 Y-0.1250
G01 X29.3608 Y-0.1250
G01 X29.3745 Y-0.1430
G01 X29.6897 Y-0.5368
G01 X30.0144 Y-0.9227
G01 X30.1049 Y-1.0250
G01 X30.1850 Y-1.0250
G01 X30.0598 Y-0.8835
G01 X29.7361 Y-0.4987
G01 X29.4370 Y-0.1250
G01 X29.5138 Y-0.1250
G01 X29.7824 Y-0.4607
G01 X30.1053 Y-0.8443
G01 X30.2651 Y-1.0250
G01 X30.3451 Y-1.0250
G01 X30.1507 Y-0.8051
G01 X29.8288 Y-0.4226
G01 X29.5907 Y-0.1250
G01 X29.6675 Y-0.1250
G01 X29.8752 Y-0.3845
G01 X30.1961 Y-0.7659
G01 X30.4252 Y-1.0250
G01 X30.5053 Y-1.0250
G01 X30.2416 Y-0.7268
G01 X29.9216 Y-0.3465
G01 X29.7444 Y-0.1250
G01 X29.8212 Y-0.1250
G01 X29.9680 Y-0.3084
G01 X30.2870 Y-0.6876
G01 X30.5854 Y-1.0250
G01 X30.6658 Y-1.0250
G01 X30.3324 Y-0.6484
G01 X30.0143 Y-0.2703
G01 X29.8980 Y-0.1250
G01 X29.9749 Y-0.1250
G01 X30.0607 Y-0.2323
G01 X30.3779 Y-0.6092
G01 X30.7041 Y-0.9782
G01 X30.7477 Y-1.0250
G01 X30.8296 Y-1.0250
G01 X30.7486 Y-0.9379
G01 X30.4233 Y-0.5700
G01 X30.1071 Y-0.1942
G01 X30.0517 Y-0.1250
G01 X30.1286 Y-0.1250
G01 X30.1535 Y-0.1561
G01 X30.4687 Y-0.5308
G01 X30.7931 Y-0.8976
G01 X30.9114 Y-1.0250
G01 X30.9933 Y-1.0250
G01 X30.8375 Y-0.8573
G01 X30.5142 Y-0.4916
G01 X30.2057 Y-0.1250
G01 X30.2841 Y-0.1250
G01 X30.5596 Y-0.4524
G01 X30.8820 Y-0.8170
G01 X31.0752 Y-1.0250
G01 X31.1571 Y-1.0250
G01 X30.9264 Y-0.7767
G01 X30.6050 Y-0.4132
G01 X30.3625 Y-0.1250
G01 X30.4409 Y-0.1250
G01 X30.6505 Y-0.3740
G01 X30.9709 Y-0.7364
G01 X31.2390 Y-1.0250
G01 X31.3209 Y-1.0250
G01 X31.0153 Y-0.6961
G01 X30.6959 Y-0.3348
G01 X30.5193 Y-0.1250
G01 X30.5978 Y-0.1250
G01 X30.7413 Y-0.2957
G01 X31.0598 Y-0.6558
G01 X31.3870 Y-1.0081
G01 X31.4036 Y-1.0250
G01 X31.4874 Y-1.0250
G01 X31.4305 Y-0.9667
G01 X31.1043 Y-0.6155
G01 X30.7867 Y-0.2565
G01 X30.6762 Y-0.1250
G01 X30.7546 Y-0.1250
G01 X30.8322 Y-0.2173
G01 X31.1487 Y-0.5753
G01 X31.4739 Y-0.9254
G01 X31.5712 Y-1.0250
G01 X31.6550 Y-1.0250
G01 X31.5174 Y-0.8840
G01 X31.1932 Y-0.5350
G01 X30.8776 Y-0.1781
G01 X30.8330 Y-0.1250
G01 X30.9114 Y-0.1250
G01 X30.9230 Y-0.1389
G01 X31.2376 Y-0.4947
G01 X31.5609 Y-0.8426
G01 X31.7389 Y-1.0250
G01 X31.8227 Y-1.0250
G01 X31.6043 Y-0.8012
G01 X31.2821 Y-0.4544
G01 X30.9909 Y-0.1250
G01 X31.0710 Y-0.1250
G01 X31.3265 Y-0.4141
G01 X31.6478 Y-0.7599
G01 X31.9065 Y-1.0250
G01 X31.9903 Y-1.0250
G01 X31.6912 Y-0.7185
G01 X31.3710 Y-0.3738
G01 X31.1511 Y-0.1250
G01 X31.2311 Y-0.1250
G01 X31.4155 Y-0.3335
G01 X31.7347 Y-0.6771
G01 X32.0622 Y-1.0128
G01 X32.0748 Y-1.0250
G01 X32.1607 Y-1.0250
G01 X32.1047 Y-0.9704
G01 X31.7781 Y-0.6357
G01 X31.4599 Y-0.2932
G01 X31.3112 Y-0.1250
G01 X31.3913 Y-0.1250
G01 X31.5044 Y-0.2529
G01 X31.8216 Y-0.5944
G01 X32.1471 Y-0.9280
G01 X32.2466 Y-1.0250
G01 X32.3325 Y-1.0250
G01 X32.1895 Y-0.8855
G01 X31.8650 Y-0.5530
G01 X31.5488 Y-0.2126
G01 X31.4714 Y-0.1250
G01 X31.5515 Y-0.1250
G01 X31.5933 Y-0.1723
G01 X31.9085 Y-0.5116
G01 X32.2319 Y-0.8431
G01 X32.4184 Y-1.0250
G01 X32.5043 Y-1.0250
G01 X32.2744 Y-0.8007
G01 X31.9519 Y-0.4703
G01 X31.6316 Y-0.1250
G01 X31.7131 Y-0.1250
G01 X31.9954 Y-0.4289
G01 X32.3168 Y-0.7583
G01 X32.5902 Y-1.0250
G01 X32.6761 Y-1.0250
G01 X32.3592 Y-0.7158
G01 X32.0389 Y-0.3875
G01 X31.7950 Y-0.1250
G01 X31.8769 Y-0.1250
G01 X32.0823 Y-0.3461
G01 X32.4016 Y-0.6734
G01 X32.7289 Y-0.9927
G01 X32.7637 Y-1.0250
G01 X32.8518 Y-1.0250
G01 X32.7703 Y-0.9493
G01 X32.4441 Y-0.6310
G01 X32.1258 Y-0.3048
G01 X31.9588 Y-0.1250
G01 X32.0407 Y-0.1250
G01 X32.1692 Y-0.2634
G01 X32.4865 Y-0.5885
G01 X32.8116 Y-0.9058
G01 X32.9400 Y-1.0250
G01 X33.0281 Y-1.0250
G01 X32.8530 Y-0.8624
G01 X32.5289 Y-0.5461
G01 X32.2127 Y-0.2220
G01 X32.1226 Y-0.1250
G01 X32.2045 Y-0.1250
G01 X32.2561 Y-0.1807
G01 X32.5713 Y-0.5037
G01 X32.8944 Y-0.8189
G01 X33.1163 Y-1.0250
G01 X33.2044 Y-1.0250
G01 X32.9358 Y-0.7754
G01 X32.6138 Y-0.4613
G01 X32.2996 Y-0.1393
G01 X32.2864 Y-0.1250
G01 X32.3695 Y-0.1250
G01 X32.6562 Y-0.4188
G01 X32.9771 Y-0.7320
G01 X33.2926 Y-1.0250
G01 X33.3825 Y-1.0250
G01 X33.3459 Y-0.9927
G01 X33.0185 Y-0.6885
G01 X32.6986 Y-0.3764
G01 X32.4533 Y-0.1250
G01 X32.5372 Y-0.1250
G01 X32.7410 Y-0.3340
G01 X33.0599 Y-0.6451
G01 X33.3862 Y-0.9483
G01 X33.4731 Y-1.0250
G01 X33.5636 Y-1.0250
G01 X33.4265 Y-0.9038
G01 X33.1012 Y-0.6016
G01 X32.7835 Y-0.2916
G01 X32.6210 Y-0.1250
G01 X32.7048 Y-0.1250
G01 X32.8259 Y-0.2491
G01 X33.1426 Y-0.5582
G01 X33.4668 Y-0.8593
G01 X33.6542 Y-1.0250
G01 X33.7448 Y-1.0250
G01 X33.5071 Y-0.8149
G01 X33.1840 Y-0.5147
G01 X32.8683 Y-0.2067
G01 X32.7886 Y-0.1250
G01 X32.8725 Y-0.1250
G01 X32.9108 Y-0.1643
G01 X33.2254 Y-0.4713
G01 X33.5474 Y-0.7704
G01 X33.8354 Y-1.0250
G01 X33.9264 Y-1.0250
G01 X33.9159 Y-1.0162
G01 X33.5877 Y-0.7260
G01 X33.2667 Y-0.4278
G01 X32.9564 Y-0.1250
G01 X33.0423 Y-0.1250
G01 X33.3081 Y-0.3844
G01 X33.6280 Y-0.6815
G01 X33.9551 Y-0.9707
G01 X34.0196 Y-1.0250
G01 X34.1128 Y-1.0250
G01 X33.9943 Y-0.9253
G01 X33.6683 Y-0.6371
G01 X33.3495 Y-0.3409
G01 X33.1283 Y-0.1250
G01 X33.2142 Y-0.1250
G01 X33.3909 Y-0.2974
G01 X33.7086 Y-0.5926
G01 X34.0335 Y-0.8799
G01 X34.2060 Y-1.0250
G01 X34.2992 Y-1.0250
G01 X34.0727 Y-0.8344
G01 X33.7489 Y-0.5481
G01 X33.4322 Y-0.2540
G01 X33.3001 Y-0.1250
G01 X33.3860 Y-0.1250
G01 X33.4736 Y-0.2105
G01 X33.7892 Y-0.5037
G01 X34.1119 Y-0.7890
G01 X34.3924 Y-1.0250
G01 X34.4859 Y-1.0250
G01 X34.1510 Y-0.7436
G01 X33.8295 Y-0.4592
G01 X33.5150 Y-0.1671
G01 X33.4719 Y-0.1250
G01 X33.5579 Y-0.1250
G01 X33.8698 Y-0.4148
G01 X34.1902 Y-0.6982
G01 X34.5176 Y-0.9736
G01 X34.5819 Y-1.0250
G01 X34.6779 Y-1.0250
G01 X34.5556 Y-0.9272
G01 X34.2294 Y-0.6527
G01 X33.9101 Y-0.3703
G01 X33.6460 Y-0.1250
G01 X33.7342 Y-0.1250
G01 X33.9504 Y-0.3259
G01 X34.2686 Y-0.6073
G01 X34.5937 Y-0.8808
G01 X34.7739 Y-1.0250
G01 X34.8699 Y-1.0250
G01 X34.6318 Y-0.8344
G01 X34.3078 Y-0.5619
G01 X33.9906 Y-0.2814
G01 X33.8223 Y-0.1250
G01 X33.9105 Y-0.1250
G01 X34.0309 Y-0.2369
G01 X34.3470 Y-0.5164
G01 X34.6698 Y-0.7880
G01 X34.9659 Y-1.0250
G01 X35.0633 Y-1.0250
G01 X35.0361 Y-1.0044
G01 X34.7079 Y-0.7417
G01 X34.3862 Y-0.4710
G01 X34.0712 Y-0.1925
G01 X33.9986 Y-0.1250
G01 X34.0868 Y-0.1250
G01 X34.1115 Y-0.1480
G01 X34.4254 Y-0.4256
G01 X34.7459 Y-0.6953
G01 X35.0730 Y-0.9571
G01 X35.1624 Y-1.0250
G01 X35.2614 Y-1.0250
G01 X35.1099 Y-0.9098
G01 X34.7840 Y-0.6489
G01 X34.4646 Y-0.3801
G01 X34.1761 Y-0.1250
G01 X34.2667 Y-0.1250
G01 X34.5038 Y-0.3347
G01 X34.8221 Y-0.6025
G01 X35.1469 Y-0.8625
G01 X35.3605 Y-1.0250
G01 X35.4596 Y-1.0250
G01 X35.1838 Y-0.8152
G01 X34.8601 Y-0.5561
G01 X34.5429 Y-0.2893
G01 X34.3572 Y-0.1250
G01 X34.4478 Y-0.1250
G01 X34.5821 Y-0.2438
G01 X34.8982 Y-0.5098
G01 X35.2207 Y-0.7679
G01 X35.5494 Y-1.0180
G01 X35.5592 Y-1.0250
G01 X35.6616 Y-1.0250
G01 X35.5852 Y-0.9698
G01 X35.2576 Y-0.7206
G01 X34.9363 Y-0.4634
G01 X34.6213 Y-0.1984
G01 X34.5384 Y-0.1250
G01 X34.6289 Y-0.1250
G01 X34.6605 Y-0.1530
G01 X34.9743 Y-0.4170
G01 X35.2945 Y-0.6733
G01 X35.6209 Y-0.9216
G01 X35.7640 Y-1.0250
G01 X35.8664 Y-1.0250
G01 X35.6566 Y-0.8734
G01 X35.3314 Y-0.6260
G01 X35.0124 Y-0.3706
G01 X34.7205 Y-0.1250
G01 X34.8137 Y-0.1250
G01 X35.0505 Y-0.3242
G01 X35.3683 Y-0.5787
G01 X35.6924 Y-0.8252
G01 X35.9688 Y-1.0250
G01 X36.0720 Y-1.0250
G01 X36.0569 Y-1.0147
G01 X35.7281 Y-0.7770
G01 X35.4053 Y-0.5314
G01 X35.0885 Y-0.2779
G01 X34.9069 Y-0.1250
G01 X35.0001 Y-0.1250
G01 X35.1266 Y-0.2315
G01 X35.4422 Y-0.4841
G01 X35.7639 Y-0.7288
G01 X36.0915 Y-0.9656
G01 X36.1781 Y-1.0250
G01 X36.2841 Y-1.0250
G01 X36.1260 Y-0.9166
G01 X35.7996 Y-0.6806
G01 X35.4791 Y-0.4368
G01 X35.1646 Y-0.1851
G01 X35.0933 Y-0.1250
G01 X35.1864 Y-0.1250
G01 X35.2027 Y-0.1387
G01 X35.5160 Y-0.3895
G01 X35.8354 Y-0.6324
G01 X36.1606 Y-0.8675
G01 X36.3902 Y-1.0250
G01 X36.4962 Y-1.0250
G01 X36.1951 Y-0.8185
G01 X35.8711 Y-0.5843
G01 X35.5529 Y-0.3422
G01 X35.2816 Y-0.1250
G01 X35.3776 Y-0.1250
G01 X35.5898 Y-0.2949
G01 X35.9068 Y-0.5361
G01 X36.2297 Y-0.7694
G01 X36.5581 Y-0.9948
G01 X36.6047 Y-1.0250
G01 X36.7147 Y-1.0250
G01 X36.5915 Y-0.9449
G01 X36.2642 Y-0.7203
G01 X35.9426 Y-0.4879
G01 X35.6267 Y-0.2476
G01 X35.4737 Y-0.1250
G01 X35.5697 Y-0.1250
G01 X35.6637 Y-0.2003
G01 X35.9783 Y-0.4397
G01 X36.2988 Y-0.6713
G01 X36.6248 Y-0.8950
G01 X36.8247 Y-1.0250
G01 X36.9347 Y-1.0250
G01 X36.6581 Y-0.8451
G01 X36.3333 Y-0.6222
G01 X36.0141 Y-0.3915
G01 X35.7006 Y-0.1530
G01 X35.6657 Y-0.1250
G01 X35.7630 Y-0.1250
G01 X36.0498 Y-0.3433
G01 X36.3679 Y-0.5732
G01 X36.6915 Y-0.7952
G01 X37.0204 Y-1.0092
G01 X37.0461 Y-1.0250
G01 X37.1605 Y-1.0250
G01 X37.0525 Y-0.9585
G01 X36.7248 Y-0.7453
G01 X36.4024 Y-0.5241
G01 X36.0855 Y-0.2951
G01 X35.8620 Y-0.1250
G01 X35.9611 Y-0.1250
G01 X36.1213 Y-0.2469
G01 X36.4370 Y-0.4751
G01 X36.7581 Y-0.6954
G01 X37.0846 Y-0.9078
G01 X37.2748 Y-1.0250
G01 X37.3892 Y-1.0250
G01 X37.1167 Y-0.8571
G01 X36.7915 Y-0.6455
G01 X36.4715 Y-0.4260
G01 X36.1570 Y-0.1987
G01 X36.0602 Y-0.1250
G01 X36.1593 Y-0.1250
G01 X36.1928 Y-0.1505
G01 X36.5061 Y-0.3770
G01 X36.8248 Y-0.5956
G01 X37.1488 Y-0.8064
G01 X37.4779 Y-1.0092
G01 X37.5050 Y-1.0250
G01 X37.6242 Y-1.0250
G01 X37.5088 Y-0.9578
G01 X37.1809 Y-0.7558
G01 X36.8581 Y-0.5458
G01 X36.5406 Y-0.3279
G01 X36.2599 Y-0.1250
G01 X36.3624 Y-0.1250
G01 X36.5752 Y-0.2789
G01 X36.8915 Y-0.4959
G01 X37.2130 Y-0.7051
G01 X37.5396 Y-0.9063
G01 X37.7433 Y-1.0250
G01 X37.8625 Y-1.0250
G01 X37.5705 Y-0.8548
G01 X37.2451 Y-0.6544
G01 X36.9248 Y-0.4460
G01 X36.6097 Y-0.2298
G01 X36.4648 Y-0.1250
G01 X36.5672 Y-0.1250
G01 X36.6443 Y-0.1807
G01 X36.9581 Y-0.3961
G01 X37.2772 Y-0.6037
G01 X37.6013 Y-0.8034
G01 X37.9302 Y-0.9950
G01 X37.9847 Y-1.0250
G01 X38.1091 Y-1.0250
G01 X37.9598 Y-0.9428
G01 X37.6322 Y-0.7519
G01 X37.3093 Y-0.5530
G01 X36.9915 Y-0.3462
G01 X36.6788 Y-0.1317
G01 X36.6696 Y-0.1250
G01 X36.7752 Y-0.1250
G01 X37.0248 Y-0.2963
G01 X37.3414 Y-0.5023
G01 X37.6630 Y-0.7004
G01 X37.9893 Y-0.8906
G01 X38.2335 Y-1.0250
G01 X38.3585 Y-1.0250
G01 X38.3485 Y-1.0199
G01 X38.0189 Y-0.8384
G01 X37.6938 Y-0.6490
G01 X37.3735 Y-0.4516
G01 X37.0581 Y-0.2464
G01 X36.8812 Y-0.1250
G01 X36.9873 Y-0.1250
G01 X37.0915 Y-0.1965
G01 X37.4056 Y-0.4009
G01 X37.7247 Y-0.5975
G01 X38.0485 Y-0.7862
G01 X38.3768 Y-0.9669
G01 X38.4888 Y-1.0250
G01 X38.6191 Y-1.0250
G01 X38.4051 Y-0.9140
G01 X38.0781 Y-0.7340
G01 X37.7555 Y-0.5461
G01 X37.4377 Y-0.3502
G01 X37.1248 Y-0.1467
G01 X37.0933 Y-0.1250
G01 X37.2016 Y-0.1250
G01 X37.4698 Y-0.2995
G01 X37.7864 Y-0.4946
G01 X38.1076 Y-0.6818
G01 X38.4334 Y-0.8611
G01 X38.7493 Y-1.0250
G01 X38.8852 Y-1.0250
G01 X38.7904 Y-0.9788
G01 X38.4617 Y-0.8082
G01 X38.1372 Y-0.6296
G01 X37.8172 Y-0.4431
G01 X37.5019 Y-0.2488
G01 X37.3116 Y-0.1250
G01 X37.4216 Y-0.1250
G01 X37.5340 Y-0.1981
G01 X37.8481 Y-0.3917
G01 X38.1668 Y-0.5774
G01 X38.4899 Y-0.7553
G01 X38.8174 Y-0.9252
G01 X39.0220 Y-1.0250
G01 X39.1588 Y-1.0250
G01 X38.8444 Y-0.8716
G01 X38.5182 Y-0.7024
G01 X38.1964 Y-0.5252
G01 X37.8789 Y-0.3402
G01 X37.5661 Y-0.1475
G01 X37.5317 Y-0.1250
G01 X37.6441 Y-0.1250
G01 X37.9098 Y-0.2887
G01 X38.2259 Y-0.4730
G01 X38.5465 Y-0.6494
G01 X38.8713 Y-0.8180
G01 X39.2002 Y-0.9785
G01 X39.3018 Y-1.0250
G01 X39.4459 Y-1.0250
G01 X39.2258 Y-0.9242
G01 X38.8983 Y-0.7644
G01 X38.5748 Y-0.5965
G01 X38.2555 Y-0.4208
G01 X37.9406 Y-0.2373
G01 X37.7585 Y-0.1250
G01 X37.8728 Y-0.1250
G01 X37.9715 Y-0.1858
G01 X38.2851 Y-0.3686
G01 X38.6031 Y-0.5436
G01 X38.9253 Y-0.7108
G01 X39.2515 Y-0.8700
G01 X39.5906 Y-1.0250
G01 X39.7428 Y-1.0250
G01 X39.6058 Y-0.9663
G01 X39.2772 Y-0.8158
G01 X38.9523 Y-0.6572
G01 X38.6314 Y-0.4907
G01 X38.3146 Y-0.3164
G01 X38.0023 Y-0.1343
G01 X37.9872 Y-0.1250
G01 X38.1055 Y-0.1250
G01 X38.3442 Y-0.2642
G01 X38.6596 Y-0.4378
G01 X38.9792 Y-0.6036
G01 X39.3028 Y-0.7615
G01 X39.6301 Y-0.9115
G01 X39.8951 Y-1.0250
G01 X40.0519 Y-1.0250
G01 X39.9840 Y-0.9979
G01 X39.6545 Y-0.8566
G01 X39.3285 Y-0.7073
G01 X39.0062 Y-0.5500
G01 X38.6879 Y-0.3849
G01 X38.3738 Y-0.2120
G01 X38.2246 Y-0.1250
G01 X38.3438 Y-0.1250
G01 X38.4034 Y-0.1598
G01 X38.7162 Y-0.3320
G01 X39.0332 Y-0.4964
G01 X39.3541 Y-0.6530
G01 X39.6788 Y-0.8018
G01 X40.0070 Y-0.9424
G01 X40.2135 Y-1.0250
G01 X40.3762 Y-1.0250
G01 X40.3602 Y-1.0191
G01 X40.0300 Y-0.8870
G01 X39.7031 Y-0.7469
G01 X39.3798 Y-0.5988
G01 X39.0602 Y-0.4428
G01 X38.7445 Y-0.2790
G01 X38.4647 Y-0.1250
G01 X38.5891 Y-0.1250
G01 X38.7728 Y-0.2261
G01 X39.0871 Y-0.3892
G01 X39.4054 Y-0.5446
G01 X39.7274 Y-0.6920
G01 X40.0529 Y-0.8316
G01 X40.3818 Y-0.9631
G01 X40.5484 Y-1.0250
G01 X40.7206 Y-1.0250
G01 X40.4033 Y-0.9071
G01 X40.0759 Y-0.7761
G01 X39.7517 Y-0.6372
G01 X39.4311 Y-0.4903
G01 X39.1141 Y-0.3356
G01 X38.8011 Y-0.1732
G01 X38.7135 Y-0.1250
G01 X38.8385 Y-0.1250
G01 X39.1411 Y-0.2820
G01 X39.4567 Y-0.4361
G01 X39.7760 Y-0.5823
G01 X40.0988 Y-0.7207
G01 X40.4249 Y-0.8511
G01 X40.7541 Y-0.9735
G01 X40.9040 Y-1.0250
G01 X41.0884 Y-1.0250
G01 X40.7744 Y-0.9170
G01 X40.4465 Y-0.7951
G01 X40.1218 Y-0.6653
G01 X39.8003 Y-0.5275
G01 X39.4824 Y-0.3818
G01 X39.1681 Y-0.2284
G01 X38.9688 Y-0.1250
G01 X39.0990 Y-0.1250
G01 X39.1951 Y-0.1749
G01 X39.5080 Y-0.3276
G01 X39.8247 Y-0.4726
G01 X40.1448 Y-0.6099
G01 X40.4681 Y-0.7392
G01 X40.7946 Y-0.8605
G01 X41.1239 Y-0.9738
G01 X41.2856 Y-1.0250
G01 X41.4853 Y-1.0250
G01 X41.4733 Y-1.0216
G01 X41.1427 Y-0.9168
G01 X40.8148 Y-0.8040
G01 X40.4897 Y-0.6832
G01 X40.1677 Y-0.5544
G01 X39.8490 Y-0.4178
G01 X39.5337 Y-0.2734
G01 X39.2298 Y-0.1250
G01 X39.3666 Y-0.1250
G01 X39.5593 Y-0.2191
G01 X39.8733 Y-0.3629
G01 X40.1907 Y-0.4990
G01 X40.5113 Y-0.6272
G01 X40.8350 Y-0.7475
G01 X41.1615 Y-0.8599
G01 X41.4907 Y-0.9642
G01 X41.7007 Y-1.0250
G01 X41.9239 Y-1.0250
G01 X41.8384 Y-1.0025
G01 X41.5081 Y-0.9067
G01 X41.1804 Y-0.8029
G01 X40.8552 Y-0.6910
G01 X40.5329 Y-0.5712
G01 X40.2136 Y-0.4436
G01 X39.8976 Y-0.3081
G01 X39.5850 Y-0.1649
G01 X39.5033 Y-0.1250
G01 X39.6421 Y-0.1250
G01 X39.9219 Y-0.2532
G01 X40.2366 Y-0.3881
G01 X40.5545 Y-0.5152
G01 X40.8754 Y-0.6345
G01 X41.1992 Y-0.7459
G01 X41.5256 Y-0.8493
G01 X41.8544 Y-0.9447
G01 X42.1593 Y-1.0250
G01 X42.4161 Y-1.0250
G01 X42.2000 Y-0.9737
G01 X41.8704 Y-0.8868
G01 X41.5430 Y-0.7919
G01 X41.2180 Y-0.6889
G01 X40.8956 Y-0.5780
G01 X40.5761 Y-0.4593
G01 X40.2596 Y-0.3327
G01 X39.9462 Y-0.1984
G01 X39.7861 Y-0.1250
G01 X39.9302 Y-0.1250
G01 X39.9706 Y-0.1435
G01 X40.2825 Y-0.2773
G01 X40.5977 Y-0.4033
G01 X40.9159 Y-0.5216
G01 X41.2368 Y-0.6320
G01 X41.5604 Y-0.7345
G01 X41.8864 Y-0.8290
G01 X42.2146 Y-0.9155
G01 X42.5449 Y-0.9940
G01 X42.6917 Y-1.0250
G01 X42.9940 Y-1.0250
G01 X42.8886 Y-1.0054
G01 X42.5580 Y-0.9354
G01 X42.2292 Y-0.8573
G01 X41.9024 Y-0.7712
G01 X41.5778 Y-0.6771
G01 X41.2556 Y-0.5750
G01 X40.9361 Y-0.4651
G01 X40.6193 Y-0.3473
G01 X40.3055 Y-0.2218
G01 X40.0797 Y-0.1250
G01 X40.2320 Y-0.1250
G01 X40.3284 Y-0.1664
G01 X40.6409 Y-0.2913
G01 X40.9563 Y-0.4086
G01 X41.2745 Y-0.5180
G01 X41.5952 Y-0.6197
G01 X41.9184 Y-0.7134
G01 X42.2438 Y-0.7991
G01 X42.5712 Y-0.8769
G01 X42.9003 Y-0.9466
G01 X43.2311 Y-1.0082
G01 X43.3361 Y-1.0250
G01 X43.7399 Y-1.0250
G01 X43.5722 Y-1.0023
G01 X43.2414 Y-0.9490
G01 X42.9121 Y-0.8877
G01 X42.5843 Y-0.8183
G01 X42.2584 Y-0.7409
G01 X41.9344 Y-0.6555
G01 X41.6127 Y-0.5622
G01 X41.2933 Y-0.4611
G01 X40.9765 Y-0.3521
G01 X40.6625 Y-0.2354
G01 X40.3866 Y-0.1250
G01 X40.5482 Y-0.1250
G01 X40.6841 Y-0.1794
G01 X40.9967 Y-0.2956
G01 X41.3121 Y-0.4041
G01 X41.6301 Y-0.5048
G01 X41.9504 Y-0.5977
G01 X42.2729 Y-0.6827
G01 X42.5975 Y-0.7598
G01 X42.9238 Y-0.8289
G01 X43.2517 Y-0.8899
G01 X43.5810 Y-0.9429
G01 X43.9115 Y-0.9878
G01 X44.2485 Y-1.0250
G01 X45.1036 Y-1.0208
G01 X44.9112 Y-1.0137
G01 X44.5797 Y-0.9933
G01 X44.2489 Y-0.9648
G01 X43.9188 Y-0.9282
G01 X43.5898 Y-0.8836
G01 X43.2619 Y-0.8308
G01 X42.9355 Y-0.7700
G01 X42.6106 Y-0.7012
G01 X42.2875 Y-0.6245
G01 X41.9664 Y-0.5399
G01 X41.6475 Y-0.4474
G01 X41.3309 Y-0.3471
G01 X41.0169 Y-0.2391
G01 X40.7101 Y-0.1250
G01 X40.8823 Y-0.1250
G01 X41.0371 Y-0.1826
G01 X41.3497 Y-0.2901
G01 X41.6649 Y-0.3900
G01 X41.9824 Y-0.4821
G01 X42.3021 Y-0.5663
G01 X42.6237 Y-0.6427
G01 X42.9472 Y-0.7112
G01 X43.2722 Y-0.7717
G01 X43.5986 Y-0.8242
G01 X43.9262 Y-0.8687
G01 X44.2547 Y-0.9051
G01 X44.5841 Y-0.9335
G01 X44.9141 Y-0.9538
G01 X45.2445 Y-0.9659
G01 X45.3395 Y-0.9671
G01 X45.4758 Y-0.9088
G01 X45.2459 Y-0.9060
G01 X44.9170 Y-0.8938
G01 X44.5885 Y-0.8737
G01 X44.2606 Y-0.8454
G01 X43.9335 Y-0.8092
G01 X43.6074 Y-0.7649
G01 X43.2824 Y-0.7126
G01 X42.9589 Y-0.6523
G01 X42.6369 Y-0.5842
G01 X42.3167 Y-0.5081
G01 X41.9984 Y-0.4242
G01 X41.6823 Y-0.3326
G01 X41.3686 Y-0.2332
G01 X41.0545 Y-0.1250
G01 X41.2387 Y-0.1250
G01 X41.3874 Y-0.1762
G01 X41.6997 Y-0.2752
G01 X42.0144 Y-0.3664
G01 X42.3313 Y-0.4499
G01 X42.6500 Y-0.5256
G01 X42.9706 Y-0.5935
G01 X43.2927 Y-0.6535
G01 X43.6162 Y-0.7055
G01 X43.9409 Y-0.7496
G01 X44.2665 Y-0.7857
G01 X44.5930 Y-0.8138
G01 X44.9200 Y-0.8339
G01 X45.2474 Y-0.8460
G01 X45.5745 Y-0.8500
G01 X45.6557 Y-0.7890
G01 X45.5750 Y-0.7900
G01 X45.2489 Y-0.7860
G01 X44.9229 Y-0.7740
G01 X44.5974 Y-0.7540
G01 X44.2724 Y-0.7260
G01 X43.9482 Y-0.6901
G01 X43.6250 Y-0.6462
G01 X43.3030 Y-0.5943
G01 X42.9823 Y-0.5346
G01 X42.6632 Y-0.4671
G01 X42.3458 Y-0.3917
G01 X42.0304 Y-0.3086
G01 X41.7172 Y-0.2177
G01 X41.4245 Y-0.1250
G01 X41.6232 Y-0.1250
G01 X41.7346 Y-0.1603
G01 X42.0464 Y-0.2508
G01 X42.3604 Y-0.3335
G01 X42.6763 Y-0.4085
G01 X42.9940 Y-0.4758
G01 X43.3132 Y-0.5352
G01 X43.6338 Y-0.5868
G01 X43.9555 Y-0.6305
G01 X44.2783 Y-0.6663
G01 X44.6018 Y-0.6942
G01 X44.9259 Y-0.7141
G01 X45.2504 Y-0.7260
G01 X45.5750 Y-0.7300
G01 X45.7228 Y-0.7282
G01 X45.7783 Y-0.6675
G01 X45.5750 Y-0.6700
G01 X45.2518 Y-0.6660
G01 X44.9288 Y-0.6541
G01 X44.6062 Y-0.6343
G01 X44.2842 Y-0.6066
G01 X43.9629 Y-0.5710
G01 X43.6426 Y-0.5275
G01 X43.3235 Y-0.4761
G01 X43.0057 Y-0.4169
G01 X42.6895 Y-0.3500
G01 X42.3750 Y-0.2753
G01 X42.0624 Y-0.1929
G01 X41.8283 Y-0.1250
G01 X42.0437 Y-0.1250
G01 X42.0784 Y-0.1351
G01 X42.3896 Y-0.2171
G01 X42.7026 Y-0.2915
G01 X43.0174 Y-0.3581
G01 X43.3337 Y-0.4170
G01 X43.6514 Y-0.4681
G01 X43.9702 Y-0.5114
G01 X44.2900 Y-0.5469
G01 X44.6106 Y-0.5745
G01 X44.9318 Y-0.5942
G01 X45.2533 Y-0.6061
G01 X45.5750 Y-0.6100
G01 X45.8259 Y-0.6069
G01 X45.8674 Y-0.5464
G01 X45.5750 Y-0.5500
G01 X45.2548 Y-0.5461
G01 X44.9347 Y-0.5343
G01 X44.6150 Y-0.5146
G01 X44.2959 Y-0.4872
G01 X43.9776 Y-0.4519
G01 X43.6602 Y-0.4088
G01 X43.3440 Y-0.3579
G01 X43.0291 Y-0.2992
G01 X42.7158 Y-0.2329
G01 X42.4041 Y-0.1589
G01 X42.2756 Y-0.1250
G01 X42.5212 Y-0.1250
G01 X42.7289 Y-0.1744
G01 X43.0408 Y-0.2404
G01 X43.3542 Y-0.2988
G01 X43.6690 Y-0.3494
G01 X43.9849 Y-0.3923
G01 X44.3018 Y-0.4274
G01 X44.6194 Y-0.4548
G01 X44.9376 Y-0.4744
G01 X45.2562 Y-0.4861
G01 X45.5750 Y-0.4900
G01 X45.8938 Y-0.4861
G01 X45.9038 Y-0.4857
G01 X45.9330 Y-0.4246
G01 X45.8924 Y-0.4261
G01 X45.5750 Y-0.4300
G01 X45.2577 Y-0.4261
G01 X44.9406 Y-0.4144
G01 X44.6238 Y-0.3950
G01 X44.3077 Y-0.3677
G01 X43.9923 Y-0.3328
G01 X43.6778 Y-0.2901
G01 X43.3645 Y-0.2396
G01 X43.0525 Y-0.1816
G01 X42.7856 Y-0.1250
G01 X43.0767 Y-0.1250
G01 X43.3748 Y-0.1805
G01 X43.6866 Y-0.2307
G01 X43.9996 Y-0.2732
G01 X44.3136 Y-0.3080
G01 X44.6283 Y-0.3351
G01 X44.9435 Y-0.3545
G01 X45.2592 Y-0.3661
G01 X45.5750 Y-0.3700
G01 X45.8909 Y-0.3661
G01 X45.9585 Y-0.3636
G00 Z0.5000
G00 X45.9802 Y-0.3028
G01 F50.00
G01 Z-0.0500
G01 F100.00
G01 X45.8894 Y-0.3061
G01 X45.5750 Y-0.3100
G01 X45.2607 Y-0.3061
G01 X44.9465 Y-0.2946
G01 X44.6327 Y-0.2753
G01 X44.3194 Y-0.2483
G01 X44.0070 Y-0.2137
G01 X43.6954 Y-0.1714
G01 X43.4076 Y-0.1250
G01 X43.8002 Y-0.1250
G01 X44.0143 Y-0.1541
G01 X44.3253 Y-0.1886
G01 X44.6371 Y-0.2155
G01 X44.9494 Y-0.2346
G01 X45.2621 Y-0.2462
G01 X45.5750 Y-0.2500
G01 X45.8879 Y-0.2462
G01 X45.9959 Y-0.2422
G01 X46.0092 Y-0.1817
G01 X45.8865 Y-0.1862
G01 X45.5750 Y-0.1900
G01 X45.2636 Y-0.1862
G01 X44.9524 Y-0.1747
G01 X44.6415 Y-0.1556
G01 X44.3312 Y-0.1289
G01 X44.2964 Y-0.1250
G00 Z0.5000
G00 X43.8691 Y0.1250
G01 F50.00
G01 Z-0.0500
G01 F100.00
G01 X44.1278 Y0.2513
G01 X44.4304 Y0.4083
G01 X44.7290 Y0.5727
G01 X44.8750 Y0.6577
G01 X44.8750 Y0.5883
G01 X44.7586 Y0.5205
G01 X44.4586 Y0.3554
G01 X44.1547 Y0.1977
G01 X44.0058 Y0.1250
G01 X44.1426 Y0.1250
G01 X44.1817 Y0.1441
G01 X44.4869 Y0.3025
G01 X44.7882 Y0.4683
G01 X44.8750 Y0.5189
G01 X44.8750 Y0.4494
G01 X44.8177 Y0.4161
G01 X44.5152 Y0.2496
G01 X44.2752 Y0.1250
G01 X44.4055 Y0.1250
G01 X44.5435 Y0.1966
G01 X44.8473 Y0.3639
G01 X44.8750 Y0.3800
G01 X44.8750 Y0.3106
G01 X44.5718 Y0.1437
G01 X44.5358 Y0.1250
G01 X44.6622 Y0.1250
G01 X44.8750 Y0.2421
G01 X44.8750 Y0.1736
G01 X44.7867 Y0.1250
G00 Z0.5000
G00 X45.0412 Y-0.1180
G01 F50.00
G01 Z-0.0500
G01 F100.00
G01 X45.2651 Y-0.1262
G01 X45.5750 Y-0.1300
G01 X45.8850 Y-0.1262
G01 X46.0182 Y-0.1213
G01 X46.0232 Y-0.0611
G01 X45.8835 Y-0.0662
G01 X45.5750 Y-0.0700
G01 X45.2666 Y-0.0662
G01 X45.1094 Y-0.0604
G00 Z0.5000
G00 X45.1250 Y-0.0010
G01 F50.00
G01 Z-0.0500
G01 F100.00
G01 X45.2680 Y-0.0062
G01 X45.5750 Y-0.0100
G01 X45.8820 Y-0.0062
G01 X46.0250 Y-0.0010
G01 X46.0250 Y0.0591
G01 X45.8806 Y0.0537
G01 X45.5750 Y0.0500
G01 X45.2695 Y0.0537
G01 X45.1250 Y0.0591
G01 X45.1250 Y0.1191
G01 X45.2710 Y0.1137
G01 X45.5750 Y0.1100
G01 X45.8791 Y0.1137
G01 X46.0250 Y0.1191
G01 X46.0250 Y0.1791
G01 X45.8776 Y0.1737
G01 X45.5750 Y0.1700
G01 X45.2724 Y0.1737
G01 X45.1250 Y0.1791
G01 X45.1250 Y0.2392
G01 X45.2739 Y0.2337
G01 X45.5750 Y0.2300
G01 X45.8762 Y0.2337
G01 X46.0250 Y0.2392
G01 X46.0250 Y0.2992
G01 X45.8747 Y0.2937
G01 X45.5750 Y0.2900
G01 X45.2754 Y0.2937
G01 X45.1250 Y0.2992
G01 X45.1250 Y0.3593
G01 X45.2769 Y0.3537
G01 X45.5750 Y0.3500
G01 X45.8732 Y0.3537
G01 X46.0250 Y0.3593
G01 X46.0250 Y0.4193
G01 X45.8717 Y0.4136
G01 X45.5750 Y0.4100
G01 X45.2783 Y0.4136
G01 X45.1250 Y0.4193
G01 X45.1250 Y0.4793
G01 X45.2798 Y0.4736
G01 X45.5750 Y0.4700
G01 X45.8703 Y0.4736
G01 X46.0250 Y0.4793
G01 X46.0250 Y0.5394
G01 X45.8688 Y0.5336
G01 X45.5750 Y0.5300
G01 X45.2813 Y0.5336
G01 X45.1250 Y0.5394
G01 X45.1250 Y0.5994
G01 X45.2828 Y0.5936
G01 X45.5750 Y0.5900
G01 X45.8673 Y0.5936
G01 X46.0250 Y0.5994
G01 X46.0250 Y0.6594
G01 X45.8659 Y0.6536
G01 X45.5750 Y0.6500
G01 X45.2842 Y0.6536
G01 X45.1250 Y0.6594
G01 X45.1250 Y0.7195
G01 X45.2857 Y0.7136
G01 X45.5750 Y0.7100
G01 X45.8644 Y0.7136
G01 X46.0250 Y0.7195
G01 X46.0250 Y0.7795
G01 X45.8629 Y0.7735
G01 X45.5750 Y0.7700
G01 X45.2872 Y0.7735
G01 X45.1250 Y0.7795
G01 X45.1250 Y0.8395
G01 X45.2886 Y0.8335
G01 X45.5750 Y0.8300
G01 X45.8614 Y0.8335
G01 X46.0250 Y0.8395
G01 X46.0250 Y0.8996
G01 X45.8600 Y0.8935
G01 X45.5750 Y0.8900
G01 X45.2901 Y0.8935
G01 X45.1250 Y0.8996
G01 X45.1250 Y0.9596
G01 X45.2916 Y0.9535
G01 X45.5750 Y0.9500
G01 X45.8585 Y0.9535
G01 X46.0250 Y0.9596
G01 X46.0250 Y1.0196
G01 X45.8570 Y1.0135
G01 X45.5750 Y1.0100
G01 X45.2931 Y1.0135
G01 X45.1250 Y1.0196
G01 X45.1250 Y1.0797
G01 X45.2945 Y1.0734
G01 X45.5750 Y1.0700
G01 X45.8555 Y1.0734
G01 X46.0250 Y1.0797
G01 X46.0250 Y1.1397
G01 X45.8541 Y1.1334
G01 X45.5750 Y1.1300
G01 X45.2960 Y1.1334
G01 X45.1250 Y1.1397
G01 X45.1250 Y1.1998
G01 X45.2975 Y1.1934
G01 X45.5750 Y1.1900
G01 X45.8526 Y1.1934
G01 X46.0250 Y1.1998
G01 X46.0250 Y1.2598
G01 X45.8511 Y1.2534
G01 X45.5750 Y1.2500
G01 X45.2989 Y1.2534
G01 X45.1250 Y1.2598
G01 X45.1250 Y1.3198
G01 X45.3004 Y1.3134
G01 X45.5750 Y1.3100
G01 X45.8497 Y1.3134
G01 X46.0250 Y1.3198
G01 X46.0250 Y1.3799
G01 X45.8482 Y1.3734
G01 X45.5750 Y1.3700
G01 X45.3019 Y1.3734
G01 X45.1250 Y1.3799
G01 X45.1250 Y1.4399
G01 X45.3034 Y1.4333
G01 X45.5750 Y1.4300
G01 X45.8467 Y1.4333
G01 X46.0250 Y1.4399
G01 X46.0250 Y1.4999
G01 X45.8452 Y1.4933
G01 X45.5750 Y1.4900
G01 X45.3048 Y1.4933
G01 X45.1250 Y1.4999
G01 X45.1250 Y1.5600
G01 X45.3063 Y1.5533
G01 X45.5750 Y1.5500
G01 X45.8438 Y1.5533
G01 X46.0250 Y1.5600
G01 X46.0250 Y1.6200
G01 X45.8423 Y1.6133
G01 X45.5750 Y1.6100
G01 X45.3078 Y1.6133
G01 X45.1250 Y1.6200
G01 X45.1250 Y1.6800
G01 X45.3093 Y1.6733
G01 X45.5750 Y1.6700
G01 X45.8408 Y1.6733
G01 X46.0250 Y1.6800
G01 X46.0250 Y1.7401
G01 X45.8393 Y1.7332
G01 X45.5750 Y1.7300
G01 X45.3107 Y1.7332
G01 X45.1250 Y1.7401
G01 X45.1250 Y1.8001
G01 X45.3122 Y1.7932
G01 X45.5750 Y1.7900
G01 X45.8379 Y1.7932
G01 X46.0250 Y1.8001
G01 X46.0250 Y1.8602
G01 X45.8364 Y1.8532
G01 X45.5750 Y1.8500
G01 X45.3137 Y1.8532
G01 X45.1250 Y1.8602
G01 X45.1250 Y1.9202
G01 X45.3151 Y1.9132
G01 X45.5750 Y1.9100
G01 X45.8349 Y1.9132
G01 X46.0250 Y1.9202
G01 X46.0250 Y1.9802
G01 X45.8335 Y1.9732
G01 X45.5750 Y1.9700
G01 X45.3166 Y1.9732
G01 X45.1250 Y1.9802
G01 X45.1250 Y2.0403
G01 X45.3181 Y2.0332
G01 X45.5750 Y2.0300
G01 X45.8320 Y2.0332
G01 X46.0250 Y2.0403
G01 X46.0250 Y2.1003
G01 X45.8305 Y2.0931
G01 X45.5750 Y2.0900
G01 X45.3196 Y2.0931
G01 X45.1250 Y2.1003
G01 X45.1250 Y2.1603
G01 X45.3210 Y2.1531
G01 X45.5750 Y2.1500
G01 X45.8290 Y2.1531
G01 X46.0250 Y2.1603
G01 X46.0250 Y2.2204
G01 X45.8276 Y2.2131
G01 X45.5750 Y2.2100
G01 X45.3225 Y2.2131
G01 X45.1250 Y2.2204
G01 X45.1250 Y2.2804
G01 X45.3240 Y2.2731
G01 X45.5750 Y2.2700
G01 X45.8261 Y2.2731
G01 X46.0250 Y2.2804
G01 X46.0250 Y2.3404
G01 X45.8246 Y2.3331
G01 X45.5750 Y2.3300
G01 X45.3255 Y2.3331
G01 X45.1250 Y2.3404
G01 X45.1250 Y2.4005
G01 X45.3269 Y2.3930
G01 X45.5750 Y2.3900
G01 X45.8231 Y2.3930
G01 X46.0250 Y2.4005
G01 X46.0250 Y2.4605
G01 X45.8217 Y2.4530
G01 X45.5750 Y2.4500
G01 X45.3284 Y2.4530
G01 X45.1250 Y2.4605
G01 X45.1250 Y2.5206
G01 X45.3299 Y2.5130
G01 X45.5750 Y2.5100
G01 X45.8202 Y2.5130
G01 X46.0250 Y2.5206
G01 X46.0250 Y2.5806
G01 X45.8187 Y2.5730
G01 X45.5750 Y2.5700
G01 X45.3313 Y2.5730
G01 X45.1250 Y2.5806
G01 X45.1250 Y2.6406
G01 X45.3328 Y2.6330
G01 X45.5750 Y2.6300
G01 X45.8173 Y2.6330
G01 X46.0250 Y2.6406
G01 X46.0250 Y2.7007
G01 X45.8158 Y2.6930
G01 X45.5750 Y2.6900
G01 X45.3343 Y2.6930
G01 X45.1250 Y2.7007
G01 X45.1250 Y2.7607
G01 X45.3358 Y2.7529
G01 X45.5750 Y2.7500
G01 X45.8143 Y2.7529
G01 X46.0250 Y2.7607
G01 X46.0250 Y2.8207
G01 X45.8128 Y2.8129
G01 X45.5750 Y2.8100
G01 X45.3372 Y2.8129
G01 X45.1250 Y2.8207
G01 X45.1250 Y2.8808
G01 X45.3387 Y2.8729
G01 X45.5750 Y2.8700
G01 X45.8114 Y2.8729
G01 X46.0250 Y2.8808
G01 X46.0250 Y2.9408
G01 X45.8099 Y2.9329
G01 X45.5750 Y2.9300
G01 X45.3402 Y2.9329
G01 X45.1250 Y2.9408
G01 X45.1250 Y3.0008
G01 X45.3417 Y2.9929
G01 X45.5750 Y2.9900
G01 X45.8084 Y2.9929
G01 X46.0250 Y3.0008
G01 X46.0250 Y3.0609
G01 X45.8070 Y3.0528
G01 X45.5750 Y3.0500
G01 X45.3431 Y3.0528
G01 X45.1250 Y3.0609
G01 X45.1250 Y3.1209
G01 X45.3446 Y3.1128
G01 X45.5750 Y3.1100
G01 X45.8055 Y3.1128
G01 X46.0250 Y3.1209
G01 X46.0250 Y3.1810
G01 X45.8040 Y3.1728
G01 X45.5750 Y3.1700
G01 X45.3461 Y3.1728
G01 X45.1250 Y3.1810
G01 X45.1250 Y3.2410
G01 X45.3475 Y3.2328
G01 X45.5750 Y3.2300
G01 X45.8025 Y3.2328
G01 X46.0250 Y3.2410
G01 X46.0250 Y3.3010
G01 X45.8011 Y3.2928
G01 X45.5750 Y3.2900
G01 X45.3490 Y3.2928
G01 X45.1250 Y3.3010
G01 X45.1250 Y3.3611
G01 X45.3505 Y3.3528
G01 X45.5750 Y3.3500
G01 X45.7996 Y3.3528
G01 X46.0250 Y3.3611
G01 X46.0250 Y3.4212
G01 X45.7981 Y3.4127
G01 X45.5750 Y3.4100
G01 X45.3520 Y3.4127
G01 X45.1250 Y3.4212
G01 X45.1250 Y3.4813
G01 X45.3534 Y3.4727
G01 X45.5750 Y3.4700
G01 X45.7966 Y3.4727
G01 X46.0250 Y3.4813
G01 X46.0250 Y3.5414
G01 X45.7952 Y3.5327
G01 X45.5750 Y3.5300
G01 X45.3549 Y3.5327
G01 X45.1250 Y3.5414
G01 X45.1250 Y3.6015
G01 X45.1378 Y3.6007
G01 X45.3564 Y3.5927
G01 X45.5750 Y3.5900
G01 X45.7937 Y3.5927
G01 X46.0122 Y3.6007
G01 X46.0250 Y3.6015
G01 X46.0250 Y3.6616
G01 X46.0093 Y3.6607
G01 X45.7922 Y3.6527
G01 X45.5750 Y3.6500
G01 X45.3578 Y3.6527
G01 X45.1408 Y3.6607
G01 X45.1250 Y3.6616
G01 X45.1250 Y3.7217
G01 X45.1437 Y3.7206
G01 X45.3593 Y3.7126
G01 X45.5750 Y3.7100
G01 X45.7908 Y3.7126
G01 X46.0063 Y3.7206
G01 X46.0250 Y3.7217
G01 X46.0250 Y3.7818
G01 X46.0034 Y3.7805
G01 X45.7893 Y3.7726
G01 X45.5750 Y3.7700
G01 X45.3608 Y3.7726
G01 X45.1467 Y3.7805
G01 X45.1250 Y3.7818
G01 X45.1250 Y3.8420
G01 X45.1496 Y3.8404
G01 X45.3623 Y3.8326
G01 X45.5750 Y3.8300
G01 X45.7878 Y3.8326
G01 X46.0005 Y3.8404
G01 X46.0250 Y3.8420
G01 X46.0250 Y3.9021
G01 X45.9975 Y3.9004
G01 X45.7863 Y3.8926
G01 X45.5750 Y3.8900
G01 X45.3637 Y3.8926
G01 X45.1526 Y3.9004
G01 X45.1250 Y3.9021
G01 X45.1250 Y3.9622
G01 X45.1555 Y3.9603
G01 X45.3652 Y3.9526
G01 X45.5750 Y3.9500
G01 X45.7849 Y3.9526
G01 X45.9946 Y3.9603
G01 X46.0250 Y3.9622
G01 X46.0250 Y4.0223
G01 X45.9916 Y4.0202
G01 X45.7834 Y4.0126
G01 X45.5750 Y4.0100
G01 X45.3667 Y4.0126
G01 X45.1585 Y4.0202
G01 X45.1250 Y4.0223
G01 X45.1250 Y4.0824
G01 X45.1614 Y4.0802
G01 X45.3682 Y4.0725
G01 X45.5750 Y4.0700
G01 X45.7819 Y4.0725
G01 X45.9887 Y4.0802
G01 X46.0250 Y4.0824
G01 X46.0250 Y4.1425
G01 X45.9857 Y4.1401
G01 X45.7804 Y4.1325
G01 X45.5750 Y4.1300
G01 X45.3696 Y4.1325
G01 X45.1643 Y4.1401
G01 X45.1250 Y4.1425
G01 X45.1250 Y4.2026
G01 X45.1673 Y4.2000
G01 X45.3711 Y4.1925
G01 X45.5750 Y4.1900
G01 X45.7790 Y4.1925
G01 X45.9828 Y4.2000
G01 X46.0250 Y4.2026
G01 X46.0250 Y4.2627
G01 X45.9798 Y4.2599
G01 X45.7775 Y4.2525
G01 X45.5750 Y4.2500
G01 X45.3726 Y4.2525
G01 X45.1702 Y4.2599
G01 X45.1250 Y4.2627
G01 X45.1250 Y4.3228
G01 X45.1732 Y4.3199
G01 X45.3740 Y4.3125
G01 X45.5750 Y4.3100
G01 X45.7760 Y4.3125
G01 X45.9769 Y4.3199
G01 X46.0250 Y4.3228
G01 X46.0250 Y4.3829
G01 X45.9740 Y4.3798
G01 X45.7746 Y4.3724
G01 X45.5750 Y4.3700
G01 X45.3755 Y4.3724
G01 X45.1761 Y4.3798
G01 X45.1250 Y4.3829
G01 X45.1250 Y4.4430
G01 X45.1791 Y4.4397
G01 X45.3770 Y4.4324
G01 X45.5750 Y4.4300
G01 X45.7731 Y4.4324
G01 X45.9710 Y4.4397
G01 X46.0250 Y4.4430
G01 X46.0250 Y4.5031
G01 X45.9681 Y4.4996
G01 X45.7716 Y4.4924
G01 X45.5750 Y4.4900
G01 X45.3785 Y4.4924
G01 X45.1820 Y4.4996
G01 X45.1250 Y4.5031
G01 X45.1250 Y4.5633
G01 X45.1849 Y4.5596
G01 X45.3799 Y4.5524
G01 X45.5750 Y4.5500
G01 X45.7701 Y4.5524
G01 X45.9651 Y4.5596
G01 X46.0250 Y4.5633
G01 X46.0250 Y4.6234
G01 X45.9622 Y4.6195
G01 X45.7687 Y4.6124
G01 X45.5750 Y4.6100
G01 X45.3814 Y4.6124
G01 X45.1879 Y4.6195
G01 X45.1250 Y4.6234
G01 X45.1250 Y4.6835
G01 X45.1908 Y4.6794
G01 X45.3829 Y4.6724
G01 X45.5750 Y4.6700
G01 X45.7672 Y4.6724
G01 X45.9592 Y4.6794
G01 X46.0250 Y4.6835
G01 X46.0250 Y4.7436
G01 X45.9563 Y4.7394
G01 X45.7657 Y4.7323
G01 X45.5750 Y4.7300
G01 X45.3844 Y4.7323
G01 X45.1938 Y4.7394
G01 X45.1250 Y4.7436
G01 X45.1250 Y4.8037
G01 X45.1967 Y4.7993
G01 X45.3858 Y4.7923
G01 X45.5750 Y4.7900
G01 X45.7643 Y4.7923
G01 X45.9533 Y4.7993
G01 X46.0250 Y4.8037
G01 X46.0250 Y4.8638
G01 X45.9504 Y4.8592
G01 X45.7628 Y4.8523
G01 X45.5750 Y4.8500
G01 X45.3873 Y4.8523
G01 X45.1997 Y4.8592
G01 X45.1250 Y4.8638
G01 X45.1250 Y4.9239
G01 X45.2026 Y4.9191
G01 X45.3888 Y4.9123
G01 X45.5750 Y4.9100
G01 X45.7613 Y4.9123
G01 X45.9475 Y4.9191
G01 X46.0250 Y4.9239
G01 X46.0250 Y4.9840
G01 X45.9445 Y4.9791
G01 X45.7598 Y4.9723
G01 X45.5750 Y4.9700
G01 X45.3902 Y4.9723
G01 X45.2056 Y4.9791
G01 X45.1250 Y4.9840
G01 X45.1250 Y5.0441
G01 X45.2085 Y5.0390
G01 X45.3917 Y5.0322
G01 X45.5750 Y5.0300
G01 X45.7584 Y5.0322
G01 X45.9416 Y5.0390
G01 X46.0250 Y5.0441
G01 X46.0250 Y5.1042
G01 X45.9386 Y5.0989
G01 X45.7569 Y5.0922
G01 X45.5750 Y5.0900
G01 X45.3932 Y5.0922
G01 X45.2114 Y5.0989
G01 X45.1250 Y5.1042
G01 X45.1250 Y5.1643
G01 X45.2144 Y5.1589
G01 X45.3947 Y5.1522
G01 X45.5750 Y5.1500
G01 X45.7554 Y5.1522
G01 X45.9357 Y5.1589
G01 X46.0250 Y5.1643
G01 X46.0250 Y5.2245
G01 X45.9327 Y5.2188
G01 X45.7539 Y5.2122
G01 X45.5750 Y5.2100
G01 X45.3961 Y5.2122
G01 X45.2173 Y5.2188
G01 X45.1250 Y5.2245
G01 X45.1250 Y5.2846
G01 X45.2203 Y5.2787
G01 X45.3976 Y5.2722
G01 X45.5750 Y5.2700
G01 X45.7525 Y5.2722
G01 X45.9298 Y5.2787
G01 X46.0250 Y5.2846
G01 X46.0250 Y5.3447
G01 X45.9269 Y5.3386
G01 X45.7510 Y5.3322
G01 X45.5750 Y5.3300
G01 X45.3991 Y5.3322
G01 X45.2232 Y5.3386
G01 X45.1250 Y5.3447
G01 X45.1250 Y5.4048
G01 X45.2262 Y5.3986
G01 X45.4005 Y5.3921
G01 X45.5750 Y5.3900
G01 X45.7495 Y5.3921
G01 X45.9239 Y5.3986
G01 X46.0250 Y5.4048
G01 X46.0250 Y5.4649
G01 X45.9210 Y5.4585
G01 X45.7481 Y5.4521
G01 X45.5750 Y5.4500
G01 X45.4020 Y5.4521
G01 X45.2291 Y5.4585
G01 X45.1250 Y5.4649
G01 X45.1250 Y5.5250
G01 X45.2321 Y5.5184
G01 X45.4035 Y5.5121
G01 X45.5750 Y5.5100
G01 X45.7466 Y5.5121
G01 X45.9180 Y5.5184
G01 X46.0250 Y5.5250
G01 X46.0250 Y5.5851
G01 X45.9151 Y5.5783
G01 X45.7451 Y5.5721
G01 X45.5750 Y5.5700
G01 X45.4050 Y5.5721
G01 X45.2350 Y5.5783
G01 X45.1250 Y5.5851
G01 X45.1250 Y5.6452
G01 X45.2379 Y5.6383
G01 X45.4064 Y5.6321
G01 X45.5750 Y5.6300
G01 X45.7436 Y5.6321
G01 X45.9121 Y5.6383
G01 X46.0250 Y5.6452
G01 X46.0250 Y5.7053
G01 X45.9092 Y5.6982
G01 X45.7422 Y5.6921
G01 X45.5750 Y5.6900
G01 X45.4079 Y5.6921
G01 X45.2409 Y5.6982
G01 X45.1250 Y5.7053
G01 X45.1250 Y5.7654
G01 X45.2438 Y5.7581
G01 X45.4094 Y5.7520
G01 X45.5750 Y5.7500
G01 X45.7407 Y5.7520
G01 X45.9062 Y5.7581
G01 X46.0250 Y5.7654
G01 X46.0250 Y5.8255
G01 X45.9033 Y5.8181
G01 X45.7392 Y5.8120
G01 X45.5750 Y5.8100
G01 X45.4109 Y5.8120
G01 X45.2468 Y5.8181
G01 X45.1250 Y5.8255
G01 X45.1250 Y5.8856
G01 X45.2497 Y5.8780
G01 X45.4123 Y5.8720
G01 X45.5750 Y5.8700
G01 X45.7377 Y5.8720
G01 X45.9004 Y5.8780
G01 X46.0250 Y5.8856
G01 X46.0250 Y5.9458
G01 X45.8974 Y5.9379
G01 X45.7363 Y5.9320
G01 X45.5750 Y5.9300
G01 X45.4138 Y5.9320
G01 X45.2527 Y5.9379
G01 X45.1250 Y5.9458
G01 X45.1250 Y6.0059
G01 X45.2556 Y5.9978
G01 X45.4153 Y5.9920
G01 X45.5750 Y5.9900
G01 X45.7348 Y5.9920
G01 X45.8945 Y5.9978
G01 X46.0250 Y6.0059
G01 X46.0250 Y6.0660
G01 X45.8915 Y6.0578
G01 X45.7333 Y6.0519
G01 X45.5750 Y6.0500
G01 X45.4167 Y6.0519
G01 X45.2586 Y6.0578
G01 X45.1250 Y6.0660
G01 X45.1250 Y6.1261
G01 X45.2615 Y6.1177
G01 X45.4182 Y6.1119
G01 X45.5750 Y6.1100
G01 X45.7319 Y6.1119
G01 X45.8886 Y6.1177
G01 X46.0250 Y6.1261
G01 X46.0250 Y6.1862
G01 X45.8856 Y6.1776
G01 X45.7304 Y6.1719
G01 X45.5750 Y6.1700
G01 X45.4197 Y6.1719
G01 X45.2644 Y6.1776
G01 X45.1250 Y6.1862
G01 X45.1250 Y6.2463
G01 X45.2674 Y6.2376
G01 X45.4212 Y6.2319
G01 X45.5750 Y6.2300
G01 X45.7289 Y6.2319
G01 X45.8827 Y6.2376
G01 X46.0250 Y6.2463
G01 X46.0250 Y6.3064
G01 X45.8797 Y6.2975
G01 X45.7274 Y6.2919
G01 X45.5750 Y6.2900
G01 X45.4226 Y6.2919
G01 X45.2703 Y6.2975
G01 X45.1250 Y6.3064
G01 X45.1250 Y6.3665
G01 X45.2733 Y6.3574
G01 X45.4241 Y6.3519
G01 X45.5750 Y6.3500
G01 X45.7260 Y6.3519
G01 X45.8768 Y6.3574
G01 X46.0250 Y6.3665
G01 X46.0250 Y6.4267
G01 X45.8739 Y6.4173
G01 X45.7245 Y6.4118
G01 X45.5750 Y6.4100
G01 X45.4256 Y6.4118
G01 X45.2762 Y6.4173
G01 X45.1250 Y6.4267
G01 X45.1250 Y6.4869
G01 X45.2792 Y6.4773
G01 X45.4271 Y6.4718
G01 X45.5750 Y6.4700
G01 X45.7230 Y6.4718
G01 X45.8709 Y6.4773
G01 X46.0250 Y6.4869
G01 X46.0250 Y6.5471
G01 X45.8680 Y6.5372
G01 X45.7215 Y6.5318
G01 X45.5750 Y6.5300
G01 X45.4285 Y6.5318
G01 X45.2821 Y6.5372
G01 X45.1250 Y6.5471
G01 X45.1250 Y6.6073
G01 X45.1403 Y6.6060
G01 X45.2850 Y6.5971
G01 X45.4300 Y6.5918
G01 X45.5750 Y6.5900
G01 X45.7201 Y6.5918
G01 X45.8650 Y6.5971
G01 X46.0098 Y6.6060
G01 X46.0250 Y6.6073
G01 X46.0250 Y6.6675
G01 X46.0054 Y6.6659
G01 X45.8621 Y6.6570
G01 X45.7186 Y6.6518
G01 X45.5750 Y6.6500
G01 X45.4315 Y6.6518
G01 X45.2880 Y6.6570
G01 X45.1447 Y6.6659
G01 X45.1250 Y6.6675
G01 X45.1250 Y6.7278
G01 X45.1491 Y6.7257
G01 X45.2909 Y6.7170
G01 X45.4329 Y6.7117
G01 X45.5750 Y6.7100
G01 X45.7171 Y6.7117
G01 X45.8591 Y6.7170
G01 X46.0010 Y6.7257
G01 X46.0250 Y6.7278
G01 X46.0250 Y6.7880
G01 X45.9966 Y6.7855
G01 X45.8562 Y6.7769
G01 X45.7157 Y6.7717
G01 X45.5750 Y6.7700
G01 X45.4344 Y6.7717
G01 X45.2939 Y6.7769
G01 X45.1535 Y6.7855
G01 X45.1250 Y6.7880
G01 X45.1250 Y6.8482
G01 X45.1579 Y6.8454
G01 X45.2968 Y6.8368
G01 X45.4359 Y6.8317
G01 X45.5750 Y6.8300
G01 X45.7142 Y6.8317
G01 X45.8533 Y6.8368
G01 X45.9921 Y6.8454
G01 X46.0250 Y6.8482
G01 X46.0250 Y6.9084
G01 X45.9877 Y6.9052
G01 X45.8503 Y6.8968
G01 X45.7127 Y6.8917
G01 X45.5750 Y6.8900
G01 X45.4374 Y6.8917
G01 X45.2998 Y6.8968
G01 X45.1623 Y6.9052
G01 X45.1250 Y6.9084
G01 X45.1250 Y6.9686
G01 X45.1668 Y6.9650
G01 X45.3027 Y6.9567
G01 X45.4388 Y6.9517
G01 X45.5750 Y6.9500
G01 X45.7112 Y6.9517
G01 X45.8474 Y6.9567
G01 X45.9833 Y6.9650
G01 X46.0250 Y6.9686
G01 X46.0250 Y7.0288
G01 X45.9789 Y7.0249
G01 X45.8444 Y7.0166
G01 X45.7098 Y7.0117
G01 X45.5750 Y7.0100
G01 X45.4403 Y7.0117
G01 X45.3057 Y7.0166
G01 X45.1712 Y7.0249
G01 X45.1250 Y7.0288
G01 X45.1250 Y7.0891
G01 X45.1756 Y7.0847
G01 X45.3086 Y7.0765
G01 X45.4418 Y7.0716
G01 X45.5750 Y7.0700
G01 X45.7083 Y7.0716
G01 X45.8415 Y7.0765
G01 X45.9745 Y7.0847
G01 X46.0250 Y7.0891
G01 X46.0250 Y7.1493
G01 X45.9701 Y7.1446
G01 X45.8385 Y7.1365
G01 X45.7068 Y7.1316
G01 X45.5750 Y7.1300
G01 X45.4433 Y7.1316
G01 X45.3115 Y7.1365
G01 X45.1800 Y7.1446
G01 X45.1250 Y7.1493
G01 X45.1250 Y7.2095
G01 X45.1844 Y7.2044
G01 X45.3145 Y7.1964
G01 X45.4447 Y7.1916
G01 X45.5750 Y7.1900
G01 X45.7054 Y7.1916
G01 X45.8356 Y7.1964
G01 X45.9657 Y7.2044
G01 X46.0250 Y7.2095
G01 X46.0250 Y7.2697
G01 X45.9613 Y7.2642
G01 X45.8326 Y7.2563
G01 X45.7039 Y7.2516
G01 X45.5750 Y7.2500
G01 X45.4462 Y7.2516
G01 X45.3174 Y7.2563
G01 X45.1888 Y7.2642
G01 X45.1250 Y7.2697
G01 X45.1250 Y7.3299
G01 X45.1932 Y7.3241
G01 X45.3204 Y7.3163
G01 X45.4477 Y7.3116
G01 X45.5750 Y7.3100
G01 X45.7024 Y7.3116
G01 X45.8297 Y7.3163
G01 X45.9568 Y7.3241
G01 X46.0250 Y7.3299
G01 X46.0250 Y7.3902
G01 X45.9524 Y7.3839
G01 X45.8268 Y7.3762
G01 X45.7009 Y7.3715
G01 X45.5750 Y7.3700
G01 X45.4491 Y7.3715
G01 X45.3233 Y7.3762
G01 X45.1977 Y7.3839
G01 X45.1250 Y7.3902
G01 X45.1250 Y7.4504
G01 X45.2021 Y7.4437
G01 X45.3263 Y7.4361
G01 X45.4506 Y7.4315
G01 X45.5750 Y7.4300
G01 X45.6995 Y7.4315
G01 X45.8238 Y7.4361
G01 X45.9480 Y7.4437
G01 X46.0250 Y7.4504
G01 X46.0250 Y7.5106
G01 X45.9436 Y7.5036
G01 X45.8209 Y7.4960
G01 X45.6980 Y7.4915
G01 X45.5750 Y7.4900
G01 X45.4521 Y7.4915
G01 X45.3292 Y7.4960
G01 X45.2065 Y7.5036
G01 X45.1250 Y7.5106
G01 X45.1250 Y7.5708
G01 X45.2109 Y7.5634
G01 X45.3322 Y7.5560
G01 X45.4536 Y7.5515
G01 X45.5750 Y7.5500
G01 X45.6965 Y7.5515
G01 X45.8179 Y7.5560
G01 X45.9392 Y7.5634
G01 X46.0250 Y7.5708
G01 X46.0250 Y7.6310
G01 X45.9348 Y7.6232
G01 X45.8150 Y7.6159
G01 X45.6950 Y7.6115
G01 X45.5750 Y7.6100
G01 X45.4550 Y7.6115
G01 X45.3351 Y7.6159
G01 X45.2153 Y7.6232
G01 X45.1250 Y7.6310
G01 X45.1250 Y7.6912
G01 X45.2197 Y7.6831
G01 X45.3380 Y7.6758
G01 X45.4565 Y7.6715
G01 X45.5750 Y7.6700
G01 X45.6936 Y7.6715
G01 X45.8120 Y7.6758
G01 X45.9304 Y7.6831
G01 X46.0250 Y7.6912
G01 X46.0250 Y7.7515
G01 X45.9259 Y7.7429
G01 X45.8091 Y7.7357
G01 X45.6921 Y7.7314
G01 X45.5750 Y7.7300
G01 X45.4580 Y7.7314
G01 X45.3410 Y7.7357
G01 X45.2241 Y7.7429
G01 X45.1250 Y7.7515
G01 X45.1250 Y7.8117
G01 X45.2285 Y7.8028
G01 X45.3439 Y7.7957
G01 X45.4594 Y7.7914
G01 X45.5750 Y7.7900
G01 X45.6906 Y7.7914
G01 X45.8061 Y7.7957
G01 X45.9215 Y7.8028
G01 X46.0250 Y7.8117
G01 X46.0250 Y7.8719
G01 X45.9171 Y7.8626
G01 X45.8032 Y7.8556
G01 X45.6892 Y7.8514
G01 X45.5750 Y7.8500
G01 X45.4609 Y7.8514
G01 X45.3469 Y7.8556
G01 X45.2330 Y7.8626
G01 X45.1250 Y7.8719
G01 X45.1250 Y7.9321
G01 X45.2374 Y7.9224
G01 X45.3498 Y7.9155
G01 X45.4624 Y7.9114
G01 X45.5750 Y7.9100
G01 X45.6877 Y7.9114
G01 X45.8003 Y7.9155
G01 X45.9127 Y7.9224
G01 X46.0250 Y7.9321
G01 X46.0250 Y7.9925
G01 X45.9083 Y7.9823
G01 X45.7973 Y7.9755
G01 X45.6862 Y7.9714
G01 X45.5750 Y7.9700
G01 X45.4639 Y7.9714
G01 X45.3528 Y7.9755
G01 X45.2418 Y7.9823
G01 X45.1250 Y7.9925
G01 X45.1250 Y8.0528
G01 X45.1369 Y8.0515
G01 X45.2462 Y8.0421
G01 X45.3557 Y8.0354
G01 X45.4653 Y8.0313
G01 X45.5750 Y8.0300
G01 X45.6847 Y8.0313
G01 X45.7944 Y8.0354
G01 X45.9039 Y8.0421
G01 X46.0132 Y8.0515
G01 X46.0250 Y8.0528
G01 X46.0250 Y8.1132
G01 X46.0073 Y8.1112
G01 X45.8995 Y8.1019
G01 X45.7914 Y8.0953
G01 X45.6833 Y8.0913
G01 X45.5750 Y8.0900
G01 X45.4668 Y8.0913
G01 X45.3586 Y8.0953
G01 X45.2506 Y8.1019
G01 X45.1428 Y8.1112
G01 X45.1250 Y8.1132
G01 X45.1250 Y8.1736
G01 X45.1487 Y8.1709
G01 X45.2550 Y8.1618
G01 X45.3616 Y8.1552
G01 X45.4683 Y8.1513
G01 X45.5750 Y8.1500
G01 X45.6818 Y8.1513
G01 X45.7885 Y8.1552
G01 X45.8950 Y8.1618
G01 X46.0014 Y8.1709
G01 X46.0250 Y8.1736
G01 X46.0250 Y8.2339
G01 X45.9955 Y8.2307
G01 X45.8906 Y8.2216
G01 X45.7855 Y8.2152
G01 X45.6803 Y8.2113
G01 X45.5750 Y8.2100
G01 X45.4698 Y8.2113
G01 X45.3645 Y8.2152
G01 X45.2594 Y8.2216
G01 X45.1545 Y8.2307
G01 X45.1250 Y8.2339
G01 X45.1250 Y8.2943
G01 X45.1604 Y8.2904
G01 X45.2639 Y8.2815
G01 X45.3675 Y8.2751
G01 X45.4712 Y8.2713
G01 X45.5750 Y8.2700
G01 X45.6788 Y8.2713
G01 X45.7826 Y8.2751
G01 X45.8862 Y8.2815
G01 X45.9896 Y8.2904
G01 X46.0250 Y8.2943
G01 X46.0250 Y8.3547
G01 X45.9838 Y8.3501
G01 X45.8818 Y8.3413
G01 X45.7796 Y8.3350
G01 X45.6774 Y8.3313
G01 X45.5750 Y8.3300
G01 X45.4727 Y8.3313
G01 X45.3704 Y8.3350
G01 X45.2683 Y8.3413
G01 X45.1663 Y8.3501
G01 X45.1250 Y8.3547
G01 X45.1250 Y8.4150
G01 X45.1722 Y8.4098
G01 X45.2727 Y8.4011
G01 X45.3734 Y8.3950
G01 X45.4742 Y8.3912
G01 X45.5750 Y8.3900
G01 X45.6759 Y8.3912
G01 X45.7767 Y8.3950
G01 X45.8774 Y8.4011
G01 X45.9779 Y8.4098
G01 X46.0250 Y8.4150
G01 X46.0250 Y8.4754
G01 X45.9720 Y8.4695
G01 X45.8730 Y8.4610
G01 X45.7738 Y8.4549
G01 X45.6744 Y8.4512
G01 X45.5750 Y8.4500
G01 X45.4756 Y8.4512
G01 X45.3763 Y8.4549
G01 X45.2771 Y8.4610
G01 X45.1781 Y8.4695
G01 X45.1250 Y8.4754
G01 X45.1250 Y8.5357
G01 X45.1839 Y8.5292
G01 X45.2815 Y8.5208
G01 X45.3793 Y8.5148
G01 X45.4771 Y8.5112
G01 X45.5750 Y8.5100
G01 X45.6730 Y8.5112
G01 X45.7708 Y8.5148
G01 X45.8686 Y8.5208
G01 X45.9661 Y8.5292
G01 X46.0250 Y8.5357
G01 X46.0250 Y8.5961
G01 X45.9602 Y8.5889
G01 X45.8641 Y8.5806
G01 X45.7679 Y8.5747
G01 X45.6715 Y8.5712
G01 X45.5750 Y8.5700
G01 X45.4786 Y8.5712
G01 X45.3822 Y8.5747
G01 X45.2859 Y8.5806
G01 X45.1898 Y8.5889
G01 X45.1250 Y8.5961
G01 X45.1250 Y8.6565
G01 X45.1957 Y8.6486
G01 X45.2903 Y8.6405
G01 X45.3851 Y8.6347
G01 X45.4801 Y8.6312
G01 X45.5750 Y8.6300
G01 X45.6700 Y8.6312
G01 X45.7649 Y8.6347
G01 X45.8597 Y8.6405
G01 X45.9544 Y8.6486
G01 X46.0250 Y8.6565
G01 X46.0250 Y8.7168
G01 X45.9485 Y8.7083
G01 X45.8553 Y8.7003
G01 X45.7620 Y8.6946
G01 X45.6685 Y8.6911
G01 X45.5750 Y8.6900
G01 X45.4815 Y8.6911
G01 X45.3881 Y8.6946
G01 X45.2948 Y8.7003
G01 X45.2016 Y8.7083
G01 X45.1250 Y8.7168
G01 X45.1250 Y8.7772
G01 X45.2075 Y8.7681
G01 X45.2992 Y8.7602
G01 X45.3910 Y8.7545
G01 X45.4830 Y8.7511
G01 X45.5750 Y8.7500
G01 X45.6671 Y8.7511
G01 X45.7590 Y8.7545
G01 X45.8509 Y8.7602
G01 X45.9426 Y8.7681
G01 X46.0250 Y8.7772
G01 X46.0250 Y8.8376
G01 X45.9367 Y8.8278
G01 X45.8465 Y8.8200
G01 X45.7561 Y8.8144
G01 X45.6656 Y8.8111
G01 X45.5750 Y8.8100
G01 X45.4845 Y8.8111
G01 X45.3940 Y8.8144
G01 X45.3036 Y8.8200
G01 X45.2134 Y8.8278
G01 X45.1250 Y8.8376
G01 X45.1250 Y8.8981
G01 X45.2192 Y8.8875
G01 X45.3080 Y8.8798
G01 X45.3969 Y8.8744
G01 X45.4860 Y8.8711
G01 X45.5750 Y8.8700
G01 X45.6641 Y8.8711
G01 X45.7532 Y8.8744
G01 X45.8421 Y8.8798
G01 X45.9308 Y8.8875
G01 X46.0250 Y8.8981
G01 X46.0250 Y8.9586
G01 X46.0120 Y8.9568
G01 X45.9250 Y8.9472
G01 X45.8377 Y8.9397
G01 X45.7502 Y8.9343
G01 X45.6626 Y8.9311
G01 X45.5750 Y8.9300
G01 X45.4874 Y8.9311
G01 X45.3999 Y8.9343
G01 X45.3124 Y8.9397
G01 X45.2251 Y8.9472
G01 X45.1380 Y8.9568
G01 X45.1250 Y8.9586
G01 X45.1250 Y9.0192
G01 X45.1454 Y9.0164
G01 X45.2310 Y9.0069
G01 X45.3168 Y8.9995
G01 X45.4028 Y8.9942
G01 X45.4889 Y8.9911
G01 X45.5750 Y8.9900
G01 X45.6612 Y8.9911
G01 X45.7473 Y8.9942
G01 X45.8332 Y8.9995
G01 X45.9191 Y9.0069
G01 X46.0047 Y9.0164
G01 X46.0250 Y9.0192
G01 X46.0250 Y9.0797
G01 X45.9974 Y9.0759
G01 X45.9132 Y9.0666
G01 X45.8288 Y9.0593
G01 X45.7443 Y9.0542
G01 X45.6597 Y9.0510
G01 X45.5750 Y9.0500
G01 X45.4904 Y9.0510
G01 X45.4058 Y9.0542
G01 X45.3212 Y9.0593
G01 X45.2369 Y9.0666
G01 X45.1527 Y9.0759
G01 X45.1250 Y9.0797
G01 X45.1250 Y9.1403
G01 X45.1601 Y9.1355
G01 X45.2428 Y9.1263
G01 X45.3257 Y9.1192
G01 X45.4087 Y9.1141
G01 X45.4918 Y9.1110
G01 X45.5750 Y9.1100
G01 X45.6582 Y9.1110
G01 X45.7414 Y9.1141
G01 X45.8244 Y9.1192
G01 X45.9073 Y9.1263
G01 X45.9900 Y9.1355
G01 X46.0250 Y9.1403
G01 X46.0250 Y9.2008
G01 X45.9827 Y9.1950
G01 X45.9014 Y9.1860
G01 X45.8200 Y9.1790
G01 X45.7384 Y9.1740
G01 X45.6568 Y9.1710
G01 X45.5750 Y9.1700
G01 X45.4933 Y9.1710
G01 X45.4116 Y9.1740
G01 X45.3301 Y9.1790
G01 X45.2486 Y9.1860
G01 X45.1674 Y9.1950
G01 X45.1250 Y9.2008
G01 X45.1250 Y9.2613
G01 X45.1748 Y9.2546
G01 X45.2545 Y9.2457
G01 X45.3345 Y9.2389
G01 X45.4146 Y9.2339
G01 X45.4948 Y9.2310
G01 X45.5750 Y9.2300
G01 X45.6553 Y9.2310
G01 X45.7355 Y9.2339
G01 X45.8156 Y9.2389
G01 X45.8956 Y9.2457
G01 X45.9753 Y9.2546
G01 X46.0250 Y9.2613
G01 X46.0250 Y9.3219
G01 X45.9680 Y9.3141
G01 X45.8897 Y9.3055
G01 X45.8112 Y9.2987
G01 X45.7325 Y9.2939
G01 X45.6538 Y9.2910
G01 X45.5750 Y9.2900
G01 X45.4963 Y9.2910
G01 X45.4175 Y9.2939
G01 X45.3389 Y9.2987
G01 X45.2604 Y9.3055
G01 X45.1821 Y9.3141
G01 X45.1250 Y9.3219
G01 X45.1250 Y9.3824
G01 X45.1894 Y9.3737
G01 X45.2663 Y9.3652
G01 X45.3433 Y9.3585
G01 X45.4205 Y9.3538
G01 X45.4977 Y9.3509
G01 X45.5750 Y9.3500
G01 X45.6523 Y9.3509
G01 X45.7296 Y9.3538
G01 X45.8068 Y9.3585
G01 X45.8838 Y9.3652
G01 X45.9606 Y9.3737
G01 X46.0250 Y9.3824
G01 X46.0250 Y9.4430
G01 X45.9533 Y9.4332
G01 X45.8779 Y9.4249
G01 X45.8024 Y9.4184
G01 X45.7267 Y9.4137
G01 X45.6509 Y9.4109
G01 X45.5750 Y9.4100
G01 X45.4992 Y9.4109
G01 X45.4234 Y9.4137
G01 X45.3477 Y9.4184
G01 X45.2722 Y9.4249
G01 X45.1968 Y9.4332
G01 X45.1250 Y9.4430
G01 X45.1250 Y9.5037
G01 X45.2041 Y9.4928
G01 X45.2780 Y9.4846
G01 X45.3521 Y9.4782
G01 X45.4264 Y9.4736
G01 X45.5007 Y9.4709
G01 X45.5750 Y9.4700
G01 X45.6494 Y9.4709
G01 X45.7237 Y9.4736
G01 X45.7979 Y9.4782
G01 X45.8720 Y9.4846
G01 X45.9459 Y9.4928
G01 X46.0250 Y9.5037
G01 X46.0250 Y9.5644
G01 X46.0108 Y9.5621
G01 X45.9386 Y9.5523
G01 X45.8661 Y9.5443
G01 X45.7935 Y9.5380
G01 X45.7208 Y9.5336
G01 X45.6479 Y9.5309
G01 X45.5750 Y9.5300
G01 X45.5021 Y9.5309
G01 X45.4293 Y9.5336
G01 X45.3566 Y9.5380
G01 X45.2839 Y9.5443
G01 X45.2115 Y9.5523
G01 X45.1392 Y9.5621
G01 X45.1250 Y9.5644
G01 X45.1250 Y9.6252
G01 X45.1481 Y9.6215
G01 X45.2188 Y9.6119
G01 X45.2898 Y9.6040
G01 X45.3610 Y9.5979
G01 X45.4323 Y9.5935
G01 X45.5036 Y9.5909
G01 X45.5750 Y9.5900
G01 X45.6465 Y9.5909
G01 X45.7178 Y9.5935
G01 X45.7891 Y9.5979
G01 X45.8603 Y9.6040
G01 X45.9313 Y9.6119
G01 X46.0020 Y9.6215
G01 X46.0250 Y9.6252
G01 X46.0250 Y9.6860
G01 X45.9932 Y9.6808
G01 X45.9239 Y9.6714
G01 X45.8544 Y9.6637
G01 X45.7847 Y9.6577
G01 X45.7149 Y9.6534
G01 X45.6450 Y9.6509
G01 X45.5750 Y9.6500
G01 X45.5051 Y9.6509
G01 X45.4352 Y9.6534
G01 X45.3654 Y9.6577
G01 X45.2957 Y9.6637
G01 X45.2262 Y9.6714
G01 X45.1569 Y9.6808
G01 X45.1250 Y9.6860
G01 X45.1250 Y9.7467
G01 X45.1657 Y9.7402
G01 X45.2335 Y9.7310
G01 X45.3016 Y9.7234
G01 X45.3698 Y9.7176
G01 X45.4381 Y9.7134
G01 X45.5066 Y9.7108
G01 X45.5750 Y9.7100
G01 X45.6435 Y9.7108
G01 X45.7119 Y9.7134
G01 X45.7803 Y9.7176
G01 X45.8485 Y9.7234
G01 X45.9166 Y9.7310
G01 X45.9844 Y9.7402
G01 X46.0250 Y9.7467
G01 X46.0250 Y9.8075
G01 X45.9756 Y9.7995
G01 X45.9092 Y9.7905
G01 X45.8426 Y9.7831
G01 X45.7759 Y9.7774
G01 X45.7090 Y9.7733
G01 X45.6420 Y9.7708
G01 X45.5750 Y9.7700
G01 X45.5080 Y9.7708
G01 X45.4411 Y9.7733
G01 X45.3742 Y9.7774
G01 X45.3075 Y9.7831
G01 X45.2409 Y9.7905
G01 X45.1745 Y9.7995
G01 X45.1250 Y9.8075
G01 X45.1250 Y9.8683
G01 X45.1833 Y9.8589
G01 X45.2482 Y9.8501
G01 X45.3133 Y9.8429
G01 X45.3786 Y9.8372
G01 X45.4440 Y9.8332
G01 X45.5095 Y9.8308
G01 X45.5750 Y9.8300
G01 X45.6406 Y9.8308
G01 X45.7060 Y9.8332
G01 X45.7715 Y9.8372
G01 X45.8367 Y9.8429
G01 X45.9019 Y9.8501
G01 X45.9668 Y9.8589
G01 X46.0250 Y9.8683
G01 X46.0250 Y9.9291
G01 X45.9580 Y9.9182
G01 X45.8945 Y9.9096
G01 X45.8309 Y9.9026
G01 X45.7670 Y9.8971
G01 X45.7031 Y9.8931
G01 X45.6391 Y9.8908
G01 X45.5750 Y9.8900
G01 X45.5110 Y9.8908
G01 X45.4470 Y9.8931
G01 X45.3830 Y9.8971
G01 X45.3192 Y9.9026
G01 X45.2555 Y9.9096
G01 X45.1921 Y9.9182
G01 X45.1250 Y9.9291
G01 X45.1250 Y9.9902
G01 X45.1391 Y9.9875
G01 X45.2009 Y9.9776
G01 X45.2629 Y9.9692
G01 X45.3251 Y9.9623
G01 X45.3874 Y9.9569
G01 X45.4499 Y9.9531
G01 X45.5125 Y9.9508
G01 X45.5750 Y9.9500
G01 X45.6376 Y9.9508
G01 X45.7002 Y9.9531
G01 X45.7626 Y9.9569
G01 X45.8250 Y9.9623
G01 X45.8872 Y9.9692
G01 X45.9492 Y9.9776
G01 X46.0110 Y9.9875
G01 X46.0250 Y9.9902
G01 X46.0250 Y10.0512
G01 X46.0007 Y10.0467
G01 X45.9404 Y10.0370
G01 X45.8798 Y10.0287
G01 X45.8191 Y10.0220
G01 X45.7582 Y10.0167
G01 X45.6972 Y10.0130
G01 X45.6361 Y10.0107
G01 X45.5750 Y10.0100
G01 X45.5139 Y10.0107
G01 X45.4529 Y10.0130
G01 X45.3919 Y10.0167
G01 X45.3310 Y10.0220
G01 X45.2702 Y10.0287
G01 X45.2097 Y10.0370
G01 X45.1493 Y10.0467
G01 X45.1250 Y10.0512
G01 X45.1250 Y10.1122
G01 X45.1596 Y10.1058
G01 X45.2185 Y10.0963
G01 X45.2776 Y10.0883
G01 X45.3369 Y10.0817
G01 X45.3963 Y10.0766
G01 X45.4558 Y10.0729
G01 X45.5154 Y10.0707
G01 X45.5750 Y10.0700
G01 X45.6347 Y10.0707
G01 X45.6943 Y10.0729
G01 X45.7538 Y10.0766
G01 X45.8132 Y10.0817
G01 X45.8725 Y10.0883
G01 X45.9316 Y10.0963
G01 X45.9905 Y10.1058
G01 X46.0250 Y10.1122
G01 X46.0250 Y10.1732
G01 X45.9802 Y10.1649
G01 X45.9228 Y10.1557
G01 X45.8652 Y10.1478
G01 X45.8073 Y10.1414
G01 X45.7494 Y10.1364
G01 X45.6913 Y10.1329
G01 X45.6332 Y10.1307
G01 X45.5750 Y10.1300
G01 X45.5169 Y10.1307
G01 X45.4587 Y10.1329
G01 X45.4007 Y10.1364
G01 X45.3427 Y10.1414
G01 X45.2849 Y10.1478
G01 X45.2273 Y10.1557
G01 X45.1699 Y10.1649
G01 X45.1250 Y10.1732
G01 X45.1250 Y10.2343
G01 X45.1801 Y10.2240
G01 X45.2361 Y10.2150
G01 X45.2923 Y10.2074
G01 X45.3486 Y10.2011
G01 X45.4051 Y10.1963
G01 X45.4617 Y10.1928
G01 X45.5183 Y10.1907
G01 X45.5750 Y10.1900
G01 X45.6317 Y10.1907
G01 X45.6884 Y10.1928
G01 X45.7450 Y10.1963
G01 X45.8015 Y10.2011
G01 X45.8578 Y10.2074
G01 X45.9140 Y10.2150
G01 X45.9700 Y10.2240
G01 X46.0250 Y10.2343
G01 X46.0250 Y10.2956
G01 X45.9597 Y10.2831
G01 X45.9052 Y10.2744
G01 X45.8505 Y10.2669
G01 X45.7956 Y10.2608
G01 X45.7406 Y10.2561
G01 X45.6854 Y10.2527
G01 X45.6303 Y10.2507
G01 X45.5750 Y10.2500
G01 X45.5198 Y10.2507
G01 X45.4646 Y10.2527
G01 X45.4095 Y10.2561
G01 X45.3545 Y10.2608
G01 X45.2996 Y10.2669
G01 X45.2449 Y10.2744
G01 X45.1904 Y10.2831
G01 X45.1250 Y10.2956
G01 X45.1250 Y10.3569
G01 X45.1478 Y10.3521
G01 X45.2006 Y10.3422
G01 X45.2537 Y10.3337
G01 X45.3070 Y10.3265
G01 X45.3604 Y10.3205
G01 X45.4139 Y10.3159
G01 X45.4676 Y10.3126
G01 X45.5213 Y10.3107
G01 X45.5750 Y10.3100
G01 X45.6288 Y10.3107
G01 X45.6825 Y10.3126
G01 X45.7361 Y10.3159
G01 X45.7897 Y10.3205
G01 X45.8431 Y10.3265
G01 X45.8964 Y10.3337
G01 X45.9494 Y10.3422
G01 X46.0023 Y10.3521
G01 X46.0250 Y10.3569
G01 X46.0250 Y10.4182
G01 X45.9906 Y10.4109
G01 X45.9392 Y10.4014
G01 X45.8876 Y10.3931
G01 X45.8358 Y10.3860
G01 X45.7838 Y10.3803
G01 X45.7317 Y10.3758
G01 X45.6796 Y10.3726
G01 X45.6273 Y10.3706
G01 X45.5750 Y10.3700
G01 X45.5228 Y10.3706
G01 X45.4705 Y10.3726
G01 X45.4183 Y10.3758
G01 X45.3663 Y10.3803
G01 X45.3143 Y10.3860
G01 X45.2625 Y10.3931
G01 X45.2109 Y10.4014
G01 X45.1595 Y10.4109
G01 X45.1250 Y10.4182
G01 X45.1250 Y10.4795
G01 X45.1712 Y10.4698
G01 X45.2211 Y10.4605
G01 X45.2713 Y10.4524
G01 X45.3216 Y10.4456
G01 X45.3721 Y10.4400
G01 X45.4228 Y10.4356
G01 X45.4735 Y10.4325
G01 X45.5242 Y10.4306
G01 X45.5750 Y10.4300
G01 X45.6258 Y10.4306
G01 X45.6766 Y10.4325
G01 X45.7273 Y10.4356
G01 X45.7779 Y10.4400
G01 X45.8284 Y10.4456
G01 X45.8788 Y10.4524
G01 X45.9289 Y10.4605
G01 X45.9789 Y10.4698
G01 X46.0250 Y10.4795
G01 X46.0250 Y10.5411
G01 X45.9672 Y10.5286
G01 X45.9187 Y10.5196
G01 X45.8700 Y10.5118
G01 X45.8211 Y10.5051
G01 X45.7721 Y10.4997
G01 X45.7229 Y10.4954
G01 X45.6737 Y10.4924
G01 X45.6244 Y10.4906
G01 X45.5750 Y10.4900
G01 X45.5257 Y10.4906
G01 X45.4764 Y10.4924
G01 X45.4272 Y10.4954
G01 X45.3780 Y10.4997
G01 X45.3290 Y10.5051
G01 X45.2801 Y10.5118
G01 X45.2314 Y10.5196
G01 X45.1829 Y10.5286
G01 X45.1250 Y10.5411
G01 X45.1250 Y10.6028
G01 X45.1478 Y10.5974
G01 X45.1946 Y10.5875
G01 X45.2417 Y10.5787
G01 X45.2889 Y10.5711
G01 X45.3363 Y10.5647
G01 X45.3839 Y10.5594
G01 X45.4316 Y10.5553
G01 X45.4794 Y10.5523
G01 X45.5272 Y10.5506
G01 X45.5750 Y10.5500
G01 X45.6229 Y10.5506
G01 X45.6707 Y10.5523
G01 X45.7185 Y10.5553
G01 X45.7662 Y10.5594
G01 X45.8137 Y10.5647
G01 X45.8612 Y10.5711
G01 X45.9084 Y10.5787
G01 X45.9555 Y10.5875
G01 X46.0023 Y10.5974
G01 X46.0250 Y10.6028
G01 X46.0250 Y10.6644
G01 X45.9891 Y10.6559
G01 X45.9438 Y10.6463
G01 X45.8982 Y10.6378
G01 X45.8524 Y10.6305
G01 X45.8064 Y10.6242
G01 X45.7603 Y10.6191
G01 X45.7141 Y10.6151
G01 X45.6678 Y10.6123
G01 X45.6214 Y10.6106
G01 X45.5750 Y10.6100
G01 X45.5287 Y10.6106
G01 X45.4823 Y10.6123
G01 X45.4360 Y10.6151
G01 X45.3898 Y10.6191
G01 X45.3437 Y10.6242
G01 X45.2977 Y10.6305
G01 X45.2519 Y10.6378
G01 X45.2063 Y10.6463
G01 X45.1609 Y10.6559
G01 X45.1250 Y10.6644
G01 X45.1250 Y10.7263
G01 X45.1741 Y10.7145
G01 X45.2180 Y10.7052
G01 X45.2622 Y10.6969
G01 X45.3065 Y10.6898
G01 X45.3510 Y10.6838
G01 X45.3957 Y10.6788
G01 X45.4404 Y10.6750
G01 X45.4852 Y10.6722
G01 X45.5301 Y10.6706
G01 X45.5750 Y10.6700
G01 X45.6199 Y10.6706
G01 X45.6648 Y10.6722
G01 X45.7097 Y10.6750
G01 X45.7544 Y10.6788
G01 X45.7990 Y10.6838
G01 X45.8436 Y10.6898
G01 X45.8879 Y10.6969
G01 X45.9321 Y10.7052
G01 X45.9760 Y10.7145
G01 X46.0250 Y10.7263
G01 X46.0250 Y10.7883
G01 X46.0051 Y10.7830
G01 X45.9628 Y10.7730
G01 X45.9203 Y10.7640
G01 X45.8776 Y10.7561
G01 X45.8348 Y10.7492
G01 X45.7917 Y10.7433
G01 X45.7485 Y10.7385
G01 X45.7052 Y10.7348
G01 X45.6619 Y10.7321
G01 X45.6185 Y10.7305
G01 X45.5750 Y10.7300
G01 X45.5316 Y10.7305
G01 X45.4882 Y10.7321
G01 X45.4448 Y10.7348
G01 X45.4015 Y10.7385
G01 X45.3584 Y10.7433
G01 X45.3153 Y10.7492
G01 X45.2724 Y10.7561
G01 X45.2297 Y10.7640
G01 X45.1872 Y10.7730
G01 X45.1450 Y10.7830
G01 X45.1250 Y10.7883
G01 X45.1250 Y10.8503
G01 X45.1595 Y10.8412
G01 X45.2004 Y10.8315
G01 X45.2414 Y10.8229
G01 X45.2827 Y10.8152
G01 X45.3241 Y10.8085
G01 X45.3657 Y10.8029
G01 X45.4074 Y10.7982
G01 X45.4492 Y10.7946
G01 X45.4911 Y10.7921
G01 X45.5331 Y10.7905
G01 X45.5750 Y10.7900
G01 X45.6170 Y10.7905
G01 X45.6589 Y10.7921
G01 X45.7008 Y10.7946
G01 X45.7426 Y10.7982
G01 X45.7844 Y10.8029
G01 X45.8259 Y10.8085
G01 X45.8674 Y10.8152
G01 X45.9086 Y10.8229
G01 X45.9497 Y10.8315
G01 X45.9905 Y10.8412
G01 X46.0250 Y10.8503
G01 X46.0250 Y10.9126
G01 X45.9760 Y10.8994
G01 X45.9366 Y10.8901
G01 X45.8969 Y10.8817
G01 X45.8571 Y10.8743
G01 X45.8171 Y10.8679
G01 X45.7770 Y10.8624
G01 X45.7368 Y10.8579
G01 X45.6964 Y10.8545
G01 X45.6560 Y10.8520
G01 X45.6155 Y10.8505
G01 X45.5750 Y10.8500
G01 X45.5345 Y10.8505
G01 X45.4941 Y10.8520
G01 X45.4537 Y10.8545
G01 X45.4133 Y10.8579
G01 X45.3731 Y10.8624
G01 X45.3329 Y10.8679
G01 X45.2930 Y10.8743
G01 X45.2531 Y10.8817
G01 X45.2135 Y10.8901
G01 X45.1741 Y10.8994
G01 X45.1250 Y10.9126
G01 X45.1250 Y10.9751
G01 X45.1510 Y10.9676
G01 X45.1887 Y10.9577
G01 X45.2267 Y10.9486
G01 X45.2648 Y10.9406
G01 X45.3032 Y10.9334
G01 X45.3417 Y10.9272
G01 X45.3804 Y10.9220
G01 X45.4192 Y10.9177
G01 X45.4581 Y10.9143
G01 X45.4970 Y10.9119
G01 X45.5360 Y10.9105
G01 X45.5750 Y10.9100
G01 X45.6141 Y10.9105
G01 X45.6531 Y10.9119
G01 X45.6920 Y10.9143
G01 X45.7309 Y10.9177
G01 X45.7697 Y10.9220
G01 X45.8083 Y10.9272
G01 X45.8469 Y10.9334
G01 X45.8852 Y10.9406
G01 X45.9234 Y10.9486
G01 X45.9614 Y10.9577
G01 X45.9991 Y10.9676
G01 X46.0250 Y10.9751
G01 X46.0250 Y11.0377
G01 X45.9831 Y11.0254
G01 X45.9468 Y11.0159
G01 X45.9103 Y11.0072
G01 X45.8735 Y10.9994
G01 X45.8366 Y10.9925
G01 X45.7995 Y10.9866
G01 X45.7623 Y10.9815
G01 X45.7250 Y10.9774
G01 X45.6876 Y10.9741
G01 X45.6501 Y10.9718
G01 X45.6126 Y10.9705
G01 X45.5750 Y10.9700
G01 X45.5375 Y10.9705
G01 X45.5000 Y10.9718
G01 X45.4625 Y10.9741
G01 X45.4251 Y10.9774
G01 X45.3877 Y10.9815
G01 X45.3505 Y10.9866
G01 X45.3135 Y10.9925
G01 X45.2765 Y10.9994
G01 X45.2398 Y11.0072
G01 X45.2033 Y11.0159
G01 X45.1670 Y11.0254
G01 X45.1250 Y11.0377
G01 X45.1250 Y11.1007
G01 X45.1483 Y11.0933
G01 X45.1830 Y11.0832
G01 X45.2179 Y11.0741
G01 X45.2530 Y11.0657
G01 X45.2883 Y11.0582
G01 X45.3237 Y11.0516
G01 X45.3593 Y11.0459
G01 X45.3951 Y11.0411
G01 X45.4310 Y11.0371
G01 X45.4669 Y11.0340
G01 X45.5029 Y11.0318
G01 X45.5390 Y11.0304
G01 X45.5750 Y11.0300
G01 X45.6111 Y11.0304
G01 X45.6472 Y11.0318
G01 X45.6832 Y11.0340
G01 X45.7191 Y11.0371
G01 X45.7550 Y11.0411
G01 X45.7907 Y11.0459
G01 X45.8264 Y11.0516
G01 X45.8618 Y11.0582
G01 X45.8971 Y11.0657
G01 X45.9322 Y11.0741
G01 X45.9671 Y11.0832
G01 X46.0018 Y11.0933
G01 X46.0250 Y11.1007
G01 X46.0250 Y11.1638
G01 X45.9843 Y11.1507
G01 X45.9511 Y11.1411
G01 X45.9176 Y11.1323
G01 X45.8840 Y11.1243
G01 X45.8501 Y11.1171
G01 X45.8161 Y11.1108
G01 X45.7819 Y11.1053
G01 X45.7476 Y11.1006
G01 X45.7132 Y11.0968
G01 X45.6788 Y11.0938
G01 X45.6442 Y11.0917
G01 X45.6096 Y11.0904
G01 X45.5750 Y11.0900
G01 X45.5404 Y11.0904
G01 X45.5059 Y11.0917
G01 X45.4713 Y11.0938
G01 X45.4368 Y11.0968
G01 X45.4024 Y11.1006
G01 X45.3681 Y11.1053
G01 X45.3340 Y11.1108
G01 X45.3000 Y11.1171
G01 X45.2661 Y11.1243
G01 X45.2324 Y11.1323
G01 X45.1990 Y11.1411
G01 X45.1657 Y11.1507
G01 X45.1250 Y11.1638
G01 X45.1250 Y11.2273
G01 X45.1516 Y11.2181
G01 X45.1832 Y11.2081
G01 X45.2150 Y11.1989
G01 X45.2470 Y11.1905
G01 X45.2793 Y11.1828
G01 X45.3117 Y11.1759
G01 X45.3442 Y11.1699
G01 X45.3770 Y11.1646
G01 X45.4098 Y11.1602
G01 X45.4427 Y11.1565
G01 X45.4757 Y11.1537
G01 X45.5088 Y11.1516
G01 X45.5419 Y11.1504
G01 X45.5750 Y11.1500
G01 X45.6082 Y11.1504
G01 X45.6413 Y11.1516
G01 X45.6743 Y11.1537
G01 X45.7074 Y11.1565
G01 X45.7403 Y11.1602
G01 X45.7731 Y11.1646
G01 X45.8058 Y11.1699
G01 X45.8384 Y11.1759
G01 X45.8708 Y11.1828
G01 X45.9031 Y11.1905
G01 X45.9351 Y11.1989
G01 X45.9669 Y11.2081
G01 X45.9985 Y11.2181
G01 X46.0250 Y11.2273
G01 X46.0250 Y11.2911
G01 X46.0096 Y11.2854
G01 X45.9797 Y11.2751
G01 X45.9495 Y11.2655
G01 X45.9191 Y11.2567
G01 X45.8885 Y11.2487
G01 X45.8577 Y11.2413
G01 X45.8267 Y11.2348
G01 X45.7956 Y11.2290
G01 X45.7643 Y11.2240
G01 X45.7329 Y11.2197
G01 X45.7015 Y11.2162
G01 X45.6699 Y11.2135
G01 X45.6383 Y11.2116
G01 X45.6067 Y11.2104
G01 X45.5750 Y11.2100
G01 X45.5434 Y11.2104
G01 X45.5117 Y11.2116
G01 X45.4801 Y11.2135
G01 X45.4486 Y11.2162
G01 X45.4171 Y11.2197
G01 X45.3858 Y11.2240
G01 X45.3545 Y11.2290
G01 X45.3234 Y11.2348
G01 X45.2924 Y11.2413
G01 X45.2616 Y11.2487
G01 X45.2310 Y11.2567
G01 X45.2006 Y11.2655
G01 X45.1704 Y11.2751
G01 X45.1404 Y11.2854
G01 X45.1250 Y11.2911
G01 X45.1250 Y11.3553
G01 X45.1607 Y11.3419
G01 X45.1892 Y11.3321
G01 X45.2180 Y11.3230
G01 X45.2470 Y11.3146
G01 X45.2762 Y11.3069
G01 X45.3055 Y11.2999
G01 X45.3351 Y11.2936
G01 X45.3648 Y11.2881
G01 X45.3946 Y11.2833
G01 X45.4245 Y11.2793
G01 X45.4545 Y11.2759
G01 X45.4846 Y11.2733
G01 X45.5147 Y11.2715
G01 X45.5449 Y11.2704
G01 X45.5750 Y11.2700
G01 X45.6052 Y11.2704
G01 X45.6354 Y11.2715
G01 X45.6655 Y11.2733
G01 X45.6956 Y11.2759
G01 X45.7256 Y11.2793
G01 X45.7555 Y11.2833
G01 X45.7853 Y11.2881
G01 X45.8150 Y11.2936
G01 X45.8445 Y11.2999
G01 X45.8739 Y11.3069
G01 X45.9031 Y11.3146
G01 X45.9321 Y11.3230
G01 X45.9609 Y11.3321
G01 X45.9894 Y11.3419
G01 X46.0250 Y11.3553
G01 X46.0250 Y11.4200
G01 X45.9961 Y11.4084
G01 X45.9692 Y11.3984
G01 X45.9420 Y11.3891
G01 X45.9147 Y11.3804
G01 X45.8871 Y11.3724
G01 X45.8593 Y11.3651
G01 X45.8314 Y11.3584
G01 X45.8033 Y11.3525
G01 X45.7751 Y11.3472
G01 X45.7467 Y11.3427
G01 X45.7183 Y11.3388
G01 X45.6897 Y11.3356
G01 X45.6611 Y11.3332
G01 X45.6324 Y11.3314
G01 X45.6038 Y11.3304
G01 X45.5750 Y11.3300
G01 X45.5463 Y11.3304
G01 X45.5176 Y11.3314
G01 X45.4890 Y11.3332
G01 X45.4604 Y11.3356
G01 X45.4318 Y11.3388
G01 X45.4034 Y11.3427
G01 X45.3750 Y11.3472
G01 X45.3468 Y11.3525
G01 X45.3187 Y11.3584
G01 X45.2908 Y11.3651
G01 X45.2630 Y11.3724
G01 X45.2354 Y11.3804
G01 X45.2080 Y11.3891
G01 X45.1809 Y11.3984
G01 X45.1540 Y11.4084
G01 X45.1250 Y11.4200
G01 X45.1250 Y11.4853
G01 X45.1503 Y11.4745
G01 X45.1756 Y11.4644
G01 X45.2011 Y11.4549
G01 X45.2269 Y11.4460
G01 X45.2528 Y11.4378
G01 X45.2790 Y11.4302
G01 X45.3053 Y11.4233
G01 X45.3318 Y11.4170
G01 X45.3585 Y11.4113
G01 X45.3853 Y11.4063
G01 X45.4122 Y11.4020
G01 X45.4392 Y11.3983
G01 X45.4662 Y11.3953
G01 X45.4934 Y11.3930
G01 X45.5206 Y11.3913
G01 X45.5478 Y11.3903
G01 X45.5750 Y11.3900
G01 X45.6023 Y11.3903
G01 X45.6295 Y11.3913
G01 X45.6567 Y11.3930
G01 X45.6838 Y11.3953
G01 X45.7109 Y11.3983
G01 X45.7379 Y11.4020
G01 X45.7648 Y11.4063
G01 X45.7916 Y11.4113
G01 X45.8182 Y11.4170
G01 X45.8447 Y11.4233
G01 X45.8711 Y11.4302
G01 X45.8973 Y11.4378
G01 X45.9232 Y11.4460
G01 X45.9490 Y11.4549
G01 X45.9745 Y11.4644
G01 X45.9998 Y11.4745
G01 X46.0250 Y11.4853
G01 X46.0250 Y11.5513
G01 X46.0005 Y11.5401
G01 X45.9769 Y11.5299
G01 X45.9529 Y11.5204
G01 X45.9288 Y11.5114
G01 X45.9044 Y11.5030
G01 X45.8798 Y11.4952
G01 X45.8551 Y11.4880
G01 X45.8302 Y11.4815
G01 X45.8051 Y11.4755
G01 X45.7799 Y11.4702
G01 X45.7545 Y11.4655
G01 X45.7291 Y11.4614
G01 X45.7036 Y11.4579
G01 X45.6780 Y11.4551
G01 X45.6523 Y11.4528
G01 X45.6266 Y11.4513
G01 X45.6008 Y11.4503
G01 X45.5750 Y11.4500
G01 X45.5493 Y11.4503
G01 X45.5235 Y11.4513
G01 X45.4978 Y11.4528
G01 X45.4721 Y11.4551
G01 X45.4465 Y11.4579
G01 X45.4210 Y11.4614
G01 X45.3955 Y11.4655
G01 X45.3702 Y11.4702
G01 X45.3450 Y11.4755
G01 X45.3199 Y11.4815
G01 X45.2950 Y11.4880
G01 X45.2702 Y11.4952
G01 X45.2457 Y11.5030
G01 X45.2213 Y11.5114
G01 X45.1971 Y11.5204
G01 X45.1732 Y11.5299
G01 X45.1495 Y11.5401
G01 X45.1250 Y11.5513
G01 X45.1250 Y11.6182
G01 X45.1518 Y11.6051
G01 X45.1738 Y11.5949
G01 X45.1962 Y11.5854
G01 X45.2187 Y11.5763
G01 X45.2415 Y11.5679
G01 X45.2645 Y11.5600
G01 X45.2877 Y11.5526
G01 X45.3110 Y11.5459
G01 X45.3345 Y11.5397
G01 X45.3581 Y11.5341
G01 X45.3819 Y11.5290
G01 X45.4058 Y11.5246
G01 X45.4298 Y11.5207
G01 X45.4539 Y11.5174
G01 X45.4780 Y11.5148
G01 X45.5022 Y11.5127
G01 X45.5265 Y11.5112
G01 X45.5507 Y11.5103
G01 X45.5750 Y11.5100
G01 X45.5993 Y11.5103
G01 X45.6236 Y11.5112
G01 X45.6479 Y11.5127
G01 X45.6721 Y11.5148
G01 X45.6962 Y11.5174
G01 X45.7203 Y11.5207
G01 X45.7443 Y11.5246
G01 X45.7682 Y11.5290
G01 X45.7919 Y11.5341
G01 X45.8156 Y11.5397
G01 X45.8391 Y11.5459
G01 X45.8624 Y11.5526
G01 X45.8856 Y11.5600
G01 X45.9086 Y11.5679
G01 X45.9313 Y11.5763
G01 X45.9539 Y11.5854
G01 X45.9762 Y11.5949
G01 X45.9983 Y11.6051
G01 X46.0250 Y11.6182
G01 X46.0250 Y11.6862
G01 X45.9932 Y11.6693
G01 X45.9727 Y11.6593
G01 X45.9519 Y11.6498
G01 X45.9309 Y11.6408
G01 X45.9097 Y11.6323
G01 X45.8883 Y11.6244
G01 X45.8668 Y11.6169
G01 X45.8450 Y11.6100
G01 X45.8231 Y11.6037
G01 X45.8010 Y11.5979
G01 X45.7788 Y11.5926
G01 X45.7565 Y11.5879
G01 X45.7340 Y11.5837
G01 X45.7115 Y11.5801
G01 X45.6889 Y11.5770
G01 X45.6662 Y11.5745
G01 X45.6435 Y11.5725
G01 X45.6207 Y11.5711
G01 X45.5979 Y11.5703
G01 X45.5750 Y11.5700
G01 X45.5522 Y11.5703
G01 X45.5294 Y11.5711
G01 X45.5066 Y11.5725
G01 X45.4839 Y11.5745
G01 X45.4612 Y11.5770
G01 X45.4386 Y11.5801
G01 X45.4160 Y11.5837
G01 X45.3936 Y11.5879
G01 X45.3713 Y11.5926
G01 X45.3491 Y11.5979
G01 X45.3270 Y11.6037
G01 X45.3051 Y11.6100
G01 X45.2833 Y11.6169
G01 X45.2617 Y11.6244
G01 X45.2403 Y11.6323
G01 X45.2191 Y11.6408
G01 X45.1982 Y11.6498
G01 X45.1774 Y11.6593
G01 X45.1569 Y11.6693
G01 X45.1250 Y11.6862
G01 X45.1250 Y11.7555
G01 X45.1462 Y11.7430
G01 X45.1649 Y11.7327
G01 X45.1839 Y11.7229
G01 X45.2031 Y11.7135
G01 X45.2225 Y11.7046
G01 X45.2421 Y11.6962
G01 X45.2619 Y11.6883
G01 X45.2819 Y11.6809
G01 X45.3021 Y11.6739
G01 X45.3225 Y11.6675
G01 X45.3430 Y11.6615
G01 X45.3636 Y11.6561
G01 X45.3844 Y11.6511
G01 X45.4053 Y11.6467
G01 X45.4263 Y11.6428
G01 X45.4474 Y11.6394
G01 X45.4685 Y11.6365
G01 X45.4898 Y11.6342
G01 X45.5110 Y11.6324
G01 X45.5323 Y11.6310
G01 X45.5537 Y11.6303
G01 X45.5750 Y11.6300
G01 X45.5964 Y11.6303
G01 X45.6177 Y11.6310
G01 X45.6390 Y11.6324
G01 X45.6603 Y11.6342
G01 X45.6815 Y11.6365
G01 X45.7027 Y11.6394
G01 X45.7238 Y11.6428
G01 X45.7448 Y11.6467
G01 X45.7657 Y11.6511
G01 X45.7864 Y11.6561
G01 X45.8071 Y11.6615
G01 X45.8276 Y11.6675
G01 X45.8479 Y11.6739
G01 X45.8681 Y11.6809
G01 X45.8881 Y11.6883
G01 X45.9080 Y11.6962
G01 X45.9276 Y11.7046
G01 X45.9470 Y11.7135
G01 X45.9662 Y11.7229
G01 X45.9852 Y11.7327
G01 X46.0039 Y11.7430
G01 X46.0250 Y11.7555
G01 X46.0250 Y11.8265
G01 X45.9915 Y11.8052
G01 X45.9569 Y11.7856
G01 X45.9214 Y11.7678
G01 X45.9033 Y11.7595
G01 X45.8666 Y11.7443
G01 X45.8479 Y11.7373
G01 X45.8102 Y11.7249
G01 X45.7719 Y11.7143
G01 X45.7331 Y11.7056
G01 X45.7135 Y11.7019
G01 X45.6939 Y11.6988
G01 X45.6544 Y11.6939
G01 X45.6148 Y11.6910
G01 X45.5750 Y11.6900
G01 X45.5552 Y11.6902
G01 X45.5155 Y11.6922
G01 X45.4956 Y11.6939
G01 X45.4562 Y11.6988
G01 X45.4170 Y11.7056
G01 X45.3782 Y11.7143
G01 X45.3399 Y11.7249
G01 X45.3210 Y11.7309
G01 X45.2835 Y11.7443
G01 X45.2651 Y11.7517
G01 X45.2287 Y11.7678
G01 X45.2109 Y11.7765
G01 X45.1758 Y11.7952
G01 X45.1586 Y11.8052
G01 X45.1250 Y11.8265
G01 X45.1250 Y11.9000
G01 X45.1432 Y11.8868
G01 X45.1738 Y11.8664
G01 X45.2054 Y11.8474
G01 X45.2378 Y11.8301
G01 X45.2544 Y11.8220
G01 X45.2880 Y11.8071
G01 X45.3224 Y11.7938
G01 X45.3573 Y11.7823
G01 X45.3928 Y11.7725
G01 X45.4287 Y11.7644
G01 X45.4468 Y11.7610
G01 X45.4832 Y11.7556
G01 X45.5199 Y11.7520
G01 X45.5566 Y11.7502
G01 X45.5934 Y11.7502
G01 X45.6302 Y11.7520
G01 X45.6486 Y11.7536
G01 X45.6851 Y11.7581
G01 X45.7033 Y11.7610
G01 X45.7394 Y11.7682
G01 X45.7751 Y11.7772
G01 X45.7928 Y11.7823
G01 X45.8277 Y11.7938
G01 X45.8450 Y11.8003
G01 X45.8790 Y11.8143
G01 X45.8957 Y11.8220
G01 X45.9122 Y11.8301
G01 X45.9447 Y11.8474
G01 X45.9606 Y11.8567
G01 X45.9917 Y11.8764
G01 X46.0069 Y11.8868
G01 X46.0250 Y11.9000
G01 X46.0250 Y11.9769
G01 X45.9995 Y11.9560
G01 X45.9723 Y11.9359
G01 X45.9442 Y11.9171
G01 X45.9151 Y11.8996
G01 X45.8853 Y11.8837
G01 X45.8547 Y11.8692
G01 X45.8234 Y11.8562
G01 X45.7915 Y11.8448
G01 X45.7591 Y11.8350
G01 X45.7262 Y11.8268
G01 X45.6930 Y11.8202
G01 X45.6595 Y11.8152
G01 X45.6258 Y11.8119
G01 X45.5920 Y11.8102
G01 X45.5581 Y11.8102
G01 X45.5243 Y11.8119
G01 X45.5074 Y11.8133
G01 X45.4738 Y11.8175
G01 X45.4404 Y11.8233
G01 X45.4239 Y11.8268
G01 X45.3910 Y11.8350
G01 X45.3586 Y11.8448
G01 X45.3426 Y11.8503
G01 X45.3110 Y11.8625
G01 X45.2954 Y11.8692
G01 X45.2648 Y11.8837
G01 X45.2498 Y11.8915
G01 X45.2203 Y11.9082
G01 X45.2059 Y11.9171
G01 X45.1777 Y11.9359
G01 X45.1505 Y11.9560
G01 X45.1250 Y11.9769
G01 X45.1250 Y12.0592
G01 X45.1406 Y12.0437
G01 X45.1520 Y12.0332
G01 X45.1754 Y12.0130
G01 X45.1997 Y11.9940
G01 X45.2123 Y11.9849
G01 X45.2380 Y11.9677
G01 X45.2645 Y11.9518
G01 X45.2918 Y11.9373
G01 X45.3197 Y11.9240
G01 X45.3339 Y11.9180
G01 X45.3628 Y11.9068
G01 X45.3922 Y11.8971
G01 X45.4220 Y11.8889
G01 X45.4521 Y11.8821
G01 X45.4826 Y11.8768
G01 X45.4979 Y11.8747
G01 X45.5133 Y11.8730
G01 X45.5441 Y11.8708
G01 X45.5750 Y11.8700
G01 X45.6060 Y11.8708
G01 X45.6368 Y11.8730
G01 X45.6675 Y11.8768
G01 X45.6827 Y11.8793
G01 X45.7131 Y11.8853
G01 X45.7431 Y11.8928
G01 X45.7727 Y11.9018
G01 X45.8018 Y11.9122
G01 X45.8161 Y11.9180
G01 X45.8444 Y11.9305
G01 X45.8720 Y11.9444
G01 X45.8989 Y11.9596
G01 X45.9250 Y11.9762
G01 X45.9378 Y11.9849
G01 X45.9626 Y12.0033
G01 X45.9865 Y12.0230
G01 X46.0094 Y12.0437
G01 X46.0250 Y12.0592
G01 X46.0250 Y12.1502
G01 X46.0066 Y12.1277
G01 X45.9879 Y12.1070
G01 X45.9781 Y12.0969
G01 X45.9681 Y12.0872
G01 X45.9473 Y12.0684
G01 X45.9257 Y12.0506
G01 X45.9032 Y12.0340
G01 X45.8917 Y12.0261
G01 X45.8681 Y12.0111
G01 X45.8560 Y12.0041
G01 X45.8313 Y11.9909
G01 X45.8060 Y11.9789
G01 X45.7802 Y11.9682
G01 X45.7671 Y11.9633
G01 X45.7405 Y11.9545
G01 X45.7135 Y11.9471
G01 X45.6999 Y11.9438
G01 X45.6862 Y11.9410
G01 X45.6587 Y11.9362
G01 X45.6448 Y11.9343
G01 X45.6170 Y11.9315
G01 X45.5890 Y11.9302
G01 X45.5610 Y11.9302
G01 X45.5331 Y11.9315
G01 X45.5192 Y11.9327
G01 X45.4914 Y11.9362
G01 X45.4776 Y11.9384
G01 X45.4501 Y11.9438
G01 X45.4230 Y11.9506
G01 X45.3962 Y11.9588
G01 X45.3699 Y11.9682
G01 X45.3440 Y11.9789
G01 X45.3188 Y11.9909
G01 X45.2941 Y12.0041
G01 X45.2701 Y12.0184
G01 X45.2468 Y12.0340
G01 X45.2244 Y12.0506
G01 X45.2027 Y12.0684
G01 X45.1820 Y12.0872
G01 X45.1622 Y12.1070
G01 X45.1434 Y12.1277
G01 X45.1250 Y12.1502
G01 X45.1250 Y12.2600
G01 X45.1313 Y12.2486
G01 X45.1442 Y12.2272
G01 X45.1581 Y12.2063
G01 X45.1654 Y12.1962
G01 X45.1808 Y12.1765
G01 X45.1889 Y12.1669
G01 X45.2057 Y12.1483
G01 X45.2144 Y12.1394
G01 X45.2325 Y12.1221
G01 X45.2419 Y12.1138
G01 X45.2613 Y12.0979
G01 X45.2712 Y12.0904
G01 X45.2917 Y12.0760
