(G-CODE GENERATED BY FLATCAM v8.994 - www.flatcam.org - Version Date: 2020/11/7)

(Name: F_Cu_04_cnc)
(Type: G-code from Geometry)
(Units: MM)

(Created on Lundi, 02 août 2021 at 18:14)

(This preprocessor is the default preprocessor used by FlatCAM.)
(It is made to work with MACH3 compatible motion controllers.)

(TOOL DIAMETER: 0.1 mm)
(Feedrate_XY: 100.0 mm/min)
(Feedrate_Z: 50.0 mm/min)
(Feedrate rapids 1500.0 mm/min)

(Z_Cut: -0.05 mm)
(Z_Move: 1.0 mm)
(Z Start: None mm)
(Z End: 5.0 mm)
(X,Y End: None mm)
(Steps per circle: 64)
(Preprocessor Geometry: default)

(X range:    0.2500 ...   42.5751  mm)
(Y range:    0.4249 ...   24.6500  mm)

(Spindle Speed: 2000.0 RPM)
G21
G90
G94

G01 F100.00

M5
G00 Z5.0000
G00 X0.0000 Y0.0000
T1
M6    
(MSG, Change to Tool Dia = 0.1000)
M0
G00 Z5.0000
M03 S500
G4 P0.5
M03 S1000
G4 P0.5
M03 S15000
G4 P0.5
M03 S2000.0
G01 F100.00
G00 X2.1157 Y5.3999
G01 F50.00
G01 Z-0.0500
G01 F100.00
G01 X2.0914 Y5.3854
G01 X2.0648 Y5.3728
G01 X2.0371 Y5.3629
G01 X2.0085 Y5.3558
G01 X1.9794 Y5.3514
G01 X1.9512 Y5.3500
G01 X1.8501 Y5.3500
G01 X1.8501 Y4.9281
G01 X1.9288 Y4.8493
G01 X2.1922 Y4.8466
G01 X2.3078 Y4.8580
G01 X2.3228 Y4.8625
G01 X2.3373 Y4.8662
G01 X2.3569 Y4.8691
G01 X2.3730 Y4.8698
G01 X2.3904 Y4.8690
G01 X2.4075 Y4.8664
G01 X2.4232 Y4.8625
G01 X2.4408 Y4.8564
G01 X2.4586 Y4.8477
G01 X2.4714 Y4.8400
G01 X2.4834 Y4.8311
G01 X2.4982 Y4.8180
G01 X2.5114 Y4.8032
G01 X2.5202 Y4.7911
G01 X2.5279 Y4.7784
G01 X2.5366 Y4.7605
G01 X2.5428 Y4.7430
G01 X2.5467 Y4.7273
G01 X2.5489 Y4.7126
G01 X2.5501 Y4.6928
G01 X2.5501 Y3.5107
G01 X2.5493 Y3.4946
G01 X2.5468 Y3.4689
G01 X2.5501 Y3.3547
G01 X2.5501 Y2.6453
G01 X2.5468 Y2.5311
G01 X2.5580 Y2.4172
G01 X2.5895 Y2.3135
G01 X2.6405 Y2.2180
G01 X2.7093 Y2.1343
G01 X2.7930 Y2.0655
G01 X2.8885 Y2.0145
G01 X2.9922 Y1.9830
G01 X3.1069 Y1.9717
G01 X3.1954 Y1.9736
G01 X3.2749 Y2.0531
G01 X3.2749 Y2.4730
G01 X3.2753 Y2.4820
G01 X3.2540 Y2.4874
G01 X3.2275 Y2.4969
G01 X3.2020 Y2.5089
G01 X3.1798 Y2.5221
G01 X3.1533 Y2.5419
G01 X3.1342 Y2.5592
G01 X3.1153 Y2.5801
G01 X3.0985 Y2.6028
G01 X3.0839 Y2.6270
G01 X3.0719 Y2.6525
G01 X3.0631 Y2.6767
G01 X3.0551 Y2.7088
G01 X3.0514 Y2.7343
G01 X3.0500 Y2.7625
G01 X3.0500 Y3.2387
G01 X3.0512 Y3.2640
G01 X3.0545 Y3.2880
G01 X3.0617 Y3.3184
G01 X3.0694 Y3.3414
G01 X3.0792 Y3.3636
G01 X3.0931 Y3.3888
G01 X3.1081 Y3.4108
G01 X3.1235 Y3.4294
G01 X3.1447 Y3.4507
G01 X3.1642 Y3.4669
G01 X3.1842 Y3.4807
G01 X3.2104 Y3.4954
G01 X3.2336 Y3.5056
G01 X3.2577 Y3.5137
G01 X3.2835 Y3.5199
G01 X3.2999 Y3.5223
G01 X3.2999 Y4.8200
G01 X3.2238 Y4.8200
G01 X3.2177 Y4.8205
G01 X3.2105 Y4.8222
G01 X3.2047 Y4.8243
G01 X3.1993 Y4.8271
G01 X3.1942 Y4.8306
G01 X3.1888 Y4.8355
G01 X3.1848 Y4.8402
G01 X3.1809 Y4.8464
G01 X3.1779 Y4.8532
G01 X3.1762 Y4.8590
G01 X3.1754 Y4.8639
G01 X3.1750 Y4.8700
G01 X3.1750 Y5.3999
G01 X2.1157 Y5.3999
G00 Z1.0000
G00 X0.7621 Y7.6157
G01 F50.00
G01 Z-0.0500
G01 F100.00
G01 X0.7703 Y7.5916
G01 X0.7805 Y7.5684
G01 X0.7949 Y7.5421
G01 X0.8120 Y7.5174
G01 X0.8283 Y7.4979
G01 X0.8479 Y7.4783
G01 X0.8711 Y7.4592
G01 X0.8921 Y7.4449
G01 X0.9163 Y7.4315
G01 X0.9416 Y7.4203
G01 X0.9657 Y7.4121
G01 X0.9960 Y7.4049
G01 X1.0223 Y7.4013
G01 X1.0500 Y7.4000
G01 X1.9500 Y7.4000
G01 X1.9794 Y7.4014
G01 X2.0085 Y7.4058
G01 X2.0394 Y7.4137
G01 X2.0648 Y7.4228
G01 X2.0892 Y7.4343
G01 X2.1167 Y7.4506
G01 X2.1422 Y7.4697
G01 X2.1621 Y7.4879
G01 X2.1803 Y7.5078
G01 X2.1994 Y7.5333
G01 X2.2157 Y7.5608
G01 X2.2272 Y7.5852
G01 X2.2363 Y7.6106
G01 X2.2447 Y7.6439
G01 X2.2486 Y7.6706
G01 X2.2500 Y7.6988
G01 X2.2500 Y8.0999
G01 X3.1750 Y8.0999
G01 X3.1750 Y7.5688
G01 X3.1754 Y7.5639
G01 X3.1765 Y7.5579
G01 X3.1779 Y7.5532
G01 X3.1803 Y7.5475
G01 X3.1828 Y7.5433
G01 X3.1863 Y7.5383
G01 X3.1896 Y7.5346
G01 X3.1942 Y7.5306
G01 X3.2014 Y7.5259
G01 X3.2082 Y7.5229
G01 X3.2165 Y7.5207
G01 X3.2250 Y7.5200
G01 X3.8750 Y7.5200
G01 X3.8799 Y7.5202
G01 X3.8860 Y7.5212
G01 X3.8918 Y7.5229
G01 X3.8964 Y7.5248
G01 X3.9017 Y7.5278
G01 X3.9077 Y7.5321
G01 X3.9120 Y7.5364
G01 X3.9166 Y7.5422
G01 X3.9202 Y7.5486
G01 X3.9225 Y7.5543
G01 X3.9243 Y7.5615
G01 X3.9250 Y7.5688
G01 X3.9250 Y9.1300
G01 X3.9248 Y9.1349
G01 X3.9238 Y9.1410
G01 X3.9225 Y9.1457
G01 X3.9202 Y9.1514
G01 X3.9166 Y9.1578
G01 X3.9129 Y9.1627
G01 X3.9077 Y9.1679
G01 X3.9017 Y9.1722
G01 X3.8964 Y9.1752
G01 X3.8895 Y9.1778
G01 X3.8823 Y9.1795
G01 X3.8762 Y9.1800
G01 X3.2238 Y9.1800
G01 X3.2165 Y9.1793
G01 X3.2093 Y9.1775
G01 X3.2014 Y9.1741
G01 X3.1952 Y9.1702
G01 X3.1905 Y9.1662
G01 X3.1863 Y9.1617
G01 X3.1828 Y9.1567
G01 X3.1803 Y9.1525
G01 X3.1779 Y9.1468
G01 X3.1765 Y9.1421
G01 X3.1754 Y9.1361
G01 X3.1750 Y9.1312
G01 X3.1750 Y8.6001
G01 X2.1157 Y8.6001
G01 X2.0914 Y8.6146
G01 X2.0648 Y8.6272
G01 X2.0371 Y8.6371
G01 X2.0085 Y8.6442
G01 X1.9794 Y8.6486
G01 X1.9512 Y8.6500
G01 X1.8501 Y8.6500
G01 X1.8502 Y8.9264
G01 X1.9007 Y8.9504
G01 X1.9702 Y8.9919
G01 X2.0383 Y9.0422
G01 X2.1010 Y9.0990
G01 X2.1563 Y9.1598
G01 X2.2067 Y9.2278
G01 X2.2496 Y9.2993
G01 X2.2853 Y9.3747
G01 X2.3134 Y9.4533
G01 X2.3337 Y9.5342
G01 X2.3456 Y9.6142
G01 X2.3499 Y9.7025
G01 X2.3459 Y9.7833
G01 X2.3337 Y9.8658
G01 X2.3134 Y9.9467
G01 X2.2853 Y10.0253
G01 X2.2496 Y10.1007
G01 X2.2067 Y10.1722
G01 X2.1571 Y10.2392
G01 X2.1010 Y10.3010
G01 X2.0392 Y10.3571
G01 X1.9722 Y10.4067
G01 X1.9007 Y10.4496
G01 X1.8230 Y10.4862
G01 X1.7467 Y10.5134
G01 X1.6658 Y10.5337
G01 X1.5833 Y10.5459
G01 X1.4975 Y10.5499
G01 X1.4167 Y10.5459
G01 X1.3366 Y10.5341
G01 X1.2556 Y10.5141
G01 X1.1747 Y10.4853
G01 X1.1015 Y10.4507
G01 X1.0278 Y10.4067
G01 X0.9589 Y10.3555
G01 X0.8990 Y10.3010
G01 X0.8445 Y10.2411
G01 X0.7933 Y10.1722
G01 X0.7504 Y10.1007
G01 X0.7138 Y10.0230
G01 X0.6866 Y9.9467
G01 X0.6669 Y9.8682
G01 X0.6542 Y9.7845
G01 X0.6501 Y9.6975
G01 X0.6541 Y9.6167
G01 X0.6663 Y9.5342
G01 X0.6866 Y9.4533
G01 X0.7138 Y9.3770
G01 X0.7510 Y9.2982
G01 X0.7933 Y9.2278
G01 X0.8414 Y9.1627
G01 X0.8998 Y9.0981
G01 X0.9608 Y9.0429
G01 X1.0268 Y8.9939
G01 X1.0993 Y8.9504
G01 X1.1499 Y8.9264
G01 X1.1498 Y8.6500
G01 X1.0488 Y8.6500
G01 X1.0182 Y8.6483
G01 X0.9915 Y8.6442
G01 X0.9629 Y8.6371
G01 X0.9352 Y8.6272
G01 X0.9086 Y8.6146
G01 X0.8833 Y8.5994
G01 X0.8597 Y8.5819
G01 X0.8379 Y8.5621
G01 X0.8181 Y8.5403
G01 X0.8006 Y8.5167
G01 X0.7854 Y8.4914
G01 X0.7728 Y8.4648
G01 X0.7629 Y8.4371
G01 X0.7558 Y8.4085
G01 X0.7517 Y8.3818
G01 X0.7500 Y8.3500
G01 X0.7500 Y7.6988
G01 X0.7513 Y7.6723
G01 X0.7547 Y7.6472
G01 X0.7621 Y7.6157
G00 Z1.0000
G00 X4.1498 Y9.1732
G01 F50.00
G01 Z-0.0500
G01 F100.00
G01 X4.1442 Y9.1694
G01 X4.1396 Y9.1654
G01 X4.1356 Y9.1608
G01 X4.1321 Y9.1557
G01 X4.1293 Y9.1503
G01 X4.1272 Y9.1445
G01 X4.1257 Y9.1385
G01 X4.1250 Y9.1312
G01 X4.1250 Y7.5700
G01 X4.1257 Y7.5615
G01 X4.1279 Y7.5532
G01 X4.1298 Y7.5486
G01 X4.1328 Y7.5433
G01 X4.1363 Y7.5383
G01 X4.1405 Y7.5338
G01 X4.1452 Y7.5298
G01 X4.1504 Y7.5265
G01 X4.1559 Y7.5238
G01 X4.1617 Y7.5218
G01 X4.1677 Y7.5205
G01 X4.1738 Y7.5200
G01 X4.2499 Y7.5200
G01 X4.2499 Y7.3988
G01 X4.2511 Y7.3755
G01 X4.2547 Y7.3512
G01 X4.2614 Y7.3251
G01 X4.2689 Y7.3043
G01 X4.2783 Y7.2843
G01 X4.2920 Y7.2611
G01 X4.3075 Y7.2404
G01 X4.3232 Y7.2232
G01 X5.0856 Y6.4607
G01 X5.0809 Y6.4536
G01 X5.0775 Y6.4457
G01 X5.0757 Y6.4385
G01 X5.0750 Y6.4300
G01 X5.0750 Y4.8700
G01 X5.0754 Y4.8639
G01 X5.0765 Y4.8579
G01 X5.0784 Y4.8520
G01 X5.0815 Y4.8454
G01 X5.0848 Y4.8402
G01 X5.0896 Y4.8346
G01 X5.0942 Y4.8306
G01 X5.0999 Y4.8268
G01 X5.0998 Y3.5250
G01 X5.0863 Y3.5250
G01 X5.0581 Y3.5235
G01 X5.0314 Y3.5195
G01 X5.0052 Y3.5130
G01 X4.9752 Y3.5021
G01 X4.9520 Y3.4911
G01 X4.9288 Y3.4772
G01 X4.9033 Y3.4581
G01 X4.8842 Y3.4408
G01 X4.8653 Y3.4199
G01 X4.8485 Y3.3972
G01 X4.8352 Y3.3752
G01 X4.8210 Y3.3452
G01 X4.8124 Y3.3210
G01 X4.8055 Y3.2936
G01 X4.8014 Y3.2657
G01 X4.8000 Y3.2387
G01 X4.8000 Y2.7625
G01 X4.8014 Y2.7343
G01 X4.8058 Y2.7052
G01 X4.8124 Y2.6790
G01 X4.8210 Y2.6548
G01 X4.8339 Y2.6270
G01 X4.8485 Y2.6028
G01 X4.8637 Y2.5820
G01 X4.8842 Y2.5592
G01 X4.9070 Y2.5387
G01 X4.9278 Y2.5235
G01 X4.9520 Y2.5089
G01 X4.9798 Y2.4960
G01 X5.0040 Y2.4874
G01 X5.0290 Y2.4811
G01 X5.0593 Y2.4764
G01 X5.0875 Y2.4750
G01 X5.6625 Y2.4750
G01 X5.6907 Y2.4764
G01 X5.7198 Y2.4808
G01 X5.7460 Y2.4874
G01 X5.7725 Y2.4969
G01 X5.7980 Y2.5089
G01 X5.8202 Y2.5221
G01 X5.8467 Y2.5419
G01 X5.8658 Y2.5592
G01 X5.8847 Y2.5801
G01 X5.9015 Y2.6028
G01 X5.9148 Y2.6248
G01 X5.9290 Y2.6548
G01 X5.9376 Y2.6790
G01 X5.9445 Y2.7064
G01 X5.9486 Y2.7343
G01 X5.9500 Y2.7613
G01 X5.9500 Y3.2375
G01 X5.9486 Y3.2657
G01 X5.9445 Y3.2936
G01 X5.9376 Y3.3210
G01 X5.9281 Y3.3475
G01 X5.9161 Y3.3730
G01 X5.9001 Y3.3992
G01 X5.8831 Y3.4217
G01 X5.8658 Y3.4408
G01 X5.8467 Y3.4581
G01 X5.8222 Y3.4765
G01 X5.8001 Y3.4898
G01 X5.8002 Y4.8268
G01 X5.8058 Y4.8306
G01 X5.8104 Y4.8346
G01 X5.8152 Y4.8402
G01 X5.8185 Y4.8454
G01 X5.8212 Y4.8509
G01 X5.8232 Y4.8567
G01 X5.8246 Y4.8639
G01 X5.8250 Y4.8700
G01 X5.8250 Y6.4300
G01 X5.8246 Y6.4361
G01 X5.8232 Y6.4433
G01 X5.8207 Y6.4503
G01 X5.8179 Y6.4557
G01 X5.8137 Y6.4617
G01 X5.8095 Y6.4662
G01 X5.8038 Y6.4709
G01 X5.7975 Y6.4747
G01 X5.7918 Y6.4771
G01 X5.7835 Y6.4793
G01 X5.7762 Y6.4800
G01 X5.6981 Y6.4800
G01 X5.6953 Y6.4988
G01 X5.6893 Y6.5226
G01 X5.6811 Y6.5457
G01 X5.6717 Y6.5657
G01 X5.6565 Y6.5910
G01 X5.6433 Y6.6087
G01 X5.6285 Y6.6251
G01 X4.7501 Y7.5036
G01 X4.7501 Y7.5200
G01 X4.8275 Y7.5201
G01 X4.8335 Y7.5207
G01 X4.8383 Y7.5218
G01 X4.8475 Y7.5253
G01 X4.8528 Y7.5284
G01 X4.8586 Y7.5330
G01 X4.8629 Y7.5373
G01 X4.8666 Y7.5422
G01 X4.8702 Y7.5486
G01 X4.8725 Y7.5543
G01 X4.8740 Y7.5602
G01 X4.8749 Y7.5675
G01 X4.8750 Y9.1312
G01 X4.8745 Y9.1373
G01 X4.8728 Y9.1445
G01 X4.8707 Y9.1503
G01 X4.8679 Y9.1557
G01 X4.8644 Y9.1608
G01 X4.8604 Y9.1654
G01 X4.8558 Y9.1694
G01 X4.8501 Y9.1732
G01 X4.8502 Y9.4850
G01 X5.8150 Y10.4499
G01 X5.9264 Y10.4498
G01 X5.9504 Y10.3993
G01 X5.9919 Y10.3298
G01 X6.0422 Y10.2617
G01 X6.0990 Y10.1990
G01 X6.1598 Y10.1437
G01 X6.2278 Y10.0933
G01 X6.2993 Y10.0504
G01 X6.3747 Y10.0147
G01 X6.4556 Y9.9859
G01 X6.5366 Y9.9659
G01 X6.6167 Y9.9541
G01 X6.6975 Y9.9501
G01 X6.7833 Y9.9541
G01 X6.8634 Y9.9659
G01 X6.9467 Y9.9866
G01 X7.0253 Y10.0147
G01 X7.1007 Y10.0504
G01 X7.1712 Y10.0926
G01 X7.2411 Y10.1445
G01 X7.3010 Y10.1990
G01 X7.3571 Y10.2608
G01 X7.4081 Y10.3298
G01 X7.4496 Y10.3993
G01 X7.4848 Y10.4736
G01 X7.5134 Y10.5533
G01 X7.5337 Y10.6342
G01 X7.5459 Y10.7167
G01 X7.5500 Y10.7988
G01 X7.5459 Y10.8833
G01 X7.5339 Y10.9646
G01 X7.5134 Y11.0467
G01 X7.4946 Y11.0994
G01 X7.7450 Y11.3499
G01 X9.5731 Y11.3498
G01 X9.5839 Y11.3270
G01 X9.5971 Y11.3048
G01 X9.6137 Y11.2820
G01 X9.6342 Y11.2592
G01 X9.6551 Y11.2403
G01 X9.6798 Y11.2221
G01 X9.7020 Y11.2089
G01 X9.7252 Y11.1979
G01 X9.7540 Y11.1874
G01 X9.7838 Y11.1801
G01 X9.8093 Y11.1764
G01 X9.8375 Y11.1750
G01 X10.4137 Y11.1750
G01 X10.4407 Y11.1764
G01 X10.4686 Y11.1805
G01 X10.4960 Y11.1874
G01 X10.5236 Y11.1974
G01 X10.5502 Y11.2102
G01 X10.5722 Y11.2235
G01 X10.5930 Y11.2387
G01 X10.6158 Y11.2592
G01 X10.6347 Y11.2801
G01 X10.6529 Y11.3048
G01 X10.6661 Y11.3270
G01 X10.6771 Y11.3502
G01 X10.6876 Y11.3790
G01 X10.6947 Y11.4076
G01 X10.6986 Y11.4343
G01 X10.7000 Y11.4625
G01 X10.7000 Y11.9387
G01 X10.6986 Y11.9657
G01 X10.6945 Y11.9936
G01 X10.6876 Y12.0210
G01 X10.6776 Y12.0486
G01 X10.6648 Y12.0752
G01 X10.6515 Y12.0972
G01 X10.6363 Y12.1180
G01 X10.6158 Y12.1408
G01 X10.5949 Y12.1597
G01 X10.5702 Y12.1779
G01 X10.5480 Y12.1911
G01 X10.5248 Y12.2021
G01 X10.4960 Y12.2126
G01 X10.4686 Y12.2195
G01 X10.4407 Y12.2236
G01 X10.4125 Y12.2250
G01 X9.8375 Y12.2250
G01 X9.8069 Y12.2233
G01 X9.7814 Y12.2195
G01 X9.7540 Y12.2126
G01 X9.7252 Y12.2021
G01 X9.7020 Y12.1911
G01 X9.6778 Y12.1765
G01 X9.6533 Y12.1581
G01 X9.6342 Y12.1408
G01 X9.6153 Y12.1199
G01 X9.5971 Y12.0952
G01 X9.5839 Y12.0730
G01 X9.5731 Y12.0501
G01 X7.6000 Y12.0501
G01 X7.5657 Y12.0485
G01 X7.5317 Y12.0434
G01 X7.5007 Y12.0357
G01 X7.4660 Y12.0235
G01 X7.4328 Y12.0076
G01 X7.4055 Y11.9911
G01 X7.3779 Y11.9707
G01 X7.3524 Y11.9476
G01 X6.9994 Y11.5946
G01 X6.9467 Y11.6134
G01 X6.8646 Y11.6339
G01 X6.7833 Y11.6459
G01 X6.6988 Y11.6500
G01 X6.6167 Y11.6459
G01 X6.5342 Y11.6337
G01 X6.4533 Y11.6134
G01 X6.3736 Y11.5848
G01 X6.2993 Y11.5496
G01 X6.2278 Y11.5067
G01 X6.1608 Y11.4571
G01 X6.0998 Y11.4019
G01 X6.0429 Y11.3392
G01 X5.9939 Y11.2732
G01 X5.9504 Y11.2007
G01 X5.9264 Y11.1501
G01 X5.6688 Y11.1501
G01 X5.6357 Y11.1485
G01 X5.6029 Y11.1436
G01 X5.5684 Y11.1351
G01 X5.5338 Y11.1225
G01 X5.5049 Y11.1088
G01 X5.4775 Y11.0925
G01 X5.4479 Y11.0707
G01 X5.4224 Y11.0476
G01 X4.2507 Y9.8758
G01 X4.2293 Y9.8521
G01 X4.2103 Y9.8265
G01 X4.1901 Y9.7929
G01 X4.1765 Y9.7640
G01 X4.1649 Y9.7316
G01 X4.1566 Y9.6983
G01 X4.1518 Y9.6668
G01 X4.1499 Y9.6300
G01 X4.1498 Y9.1732
G00 Z1.0000
G00 X5.1250 Y7.5200
G01 F50.00
G01 Z-0.0500
G01 F100.00
G01 X5.7762 Y7.5200
G01 X5.7835 Y7.5207
G01 X5.7907 Y7.5225
G01 X5.7975 Y7.5253
G01 X5.8028 Y7.5284
G01 X5.8077 Y7.5321
G01 X5.8120 Y7.5364
G01 X5.8159 Y7.5412
G01 X5.8185 Y7.5454
G01 X5.8212 Y7.5509
G01 X5.8228 Y7.5555
G01 X5.8243 Y7.5615
G01 X5.8249 Y7.5675
G01 X5.8250 Y7.9999
G01 X6.8175 Y7.9998
G01 X7.0250 Y7.7923
G01 X7.0250 Y7.4125
G01 X7.0266 Y7.3843
G01 X7.0300 Y7.3613
G01 X7.0363 Y7.3363
G01 X7.0450 Y7.3120
G01 X7.0549 Y7.2910
G01 X7.0692 Y7.2667
G01 X7.0831 Y7.2479
G01 X7.1037 Y7.2252
G01 X7.1210 Y7.2096
G01 X7.1417 Y7.1942
G01 X7.1638 Y7.1810
G01 X7.1848 Y7.1710
G01 X7.2137 Y7.1606
G01 X7.2363 Y7.1550
G01 X7.2606 Y7.1514
G01 X7.2875 Y7.1500
G01 X7.7125 Y7.1500
G01 X7.7382 Y7.1513
G01 X7.7661 Y7.1556
G01 X7.7887 Y7.1613
G01 X7.8107 Y7.1691
G01 X7.8362 Y7.1810
G01 X7.8583 Y7.1942
G01 X7.8790 Y7.2096
G01 X7.8998 Y7.2287
G01 X7.9154 Y7.2460
G01 X7.9293 Y7.2647
G01 X7.9434 Y7.2877
G01 X7.9550 Y7.3120
G01 X7.9637 Y7.3363
G01 X7.9700 Y7.3613
G01 X7.9738 Y7.3880
G01 X7.9750 Y7.4125
G01 X7.9750 Y7.7923
G01 X8.2535 Y8.0709
G01 X10.2355 Y8.0708
G01 X10.2356 Y7.2120
G01 X10.2365 Y7.2047
G01 X10.2389 Y7.1965
G01 X10.2420 Y7.1899
G01 X10.2468 Y7.1828
G01 X10.2528 Y7.1766
G01 X10.2588 Y7.1723
G01 X10.2664 Y7.1683
G01 X10.2734 Y7.1660
G01 X10.2794 Y7.1649
G01 X10.2855 Y7.1645
G01 X13.7145 Y7.1645
G01 X13.7206 Y7.1649
G01 X13.7266 Y7.1660
G01 X13.7348 Y7.1688
G01 X13.7423 Y7.1729
G01 X13.7481 Y7.1775
G01 X13.7539 Y7.1837
G01 X13.7580 Y7.1899
G01 X13.7616 Y7.1977
G01 X13.7638 Y7.2060
G01 X13.7645 Y7.2133
G01 X13.7645 Y9.6275
G01 X13.7641 Y9.6336
G01 X13.7630 Y9.6396
G01 X13.7602 Y9.6478
G01 X13.7561 Y9.6553
G01 X13.7507 Y9.6620
G01 X13.7453 Y9.6669
G01 X13.7381 Y9.6716
G01 X13.7302 Y9.6750
G01 X13.7230 Y9.6768
G01 X13.7145 Y9.6775
G01 X10.2855 Y9.6775
G01 X10.2757 Y9.6765
G01 X10.2675 Y9.6741
G01 X10.2598 Y9.6704
G01 X10.2528 Y9.6654
G01 X10.2476 Y9.6602
G01 X10.2433 Y9.6542
G01 X10.2393 Y9.6466
G01 X10.2367 Y9.6385
G01 X10.2356 Y9.6300
G01 X10.2355 Y8.7711
G01 X8.1085 Y8.7711
G01 X8.0730 Y8.7693
G01 X8.0378 Y8.7639
G01 X8.0069 Y8.7561
G01 X7.9768 Y8.7454
G01 X7.9434 Y8.7298
G01 X7.9120 Y8.7107
G01 X7.8864 Y8.6917
G01 X7.8618 Y8.6695
G01 X7.6673 Y8.4750
G01 X7.3327 Y8.4750
G01 X7.2092 Y8.5985
G01 X7.1846 Y8.6207
G01 X7.1570 Y8.6411
G01 X7.1276 Y8.6588
G01 X7.0942 Y8.6744
G01 X7.0641 Y8.6851
G01 X7.0332 Y8.6929
G01 X6.9980 Y8.6983
G01 X6.9625 Y8.7001
G01 X5.8250 Y8.7002
G01 X5.8249 Y9.1325
G01 X5.8245 Y9.1373
G01 X5.8232 Y9.1433
G01 X5.8212 Y9.1491
G01 X5.8185 Y9.1546
G01 X5.8159 Y9.1588
G01 X5.8120 Y9.1636
G01 X5.8077 Y9.1679
G01 X5.8028 Y9.1716
G01 X5.7964 Y9.1752
G01 X5.7895 Y9.1778
G01 X5.7823 Y9.1795
G01 X5.7750 Y9.1800
G01 X5.1250 Y9.1800
G01 X5.1189 Y9.1796
G01 X5.1129 Y9.1785
G01 X5.1047 Y9.1757
G01 X5.0972 Y9.1716
G01 X5.0905 Y9.1662
G01 X5.0856 Y9.1608
G01 X5.0815 Y9.1546
G01 X5.0779 Y9.1468
G01 X5.0757 Y9.1385
G01 X5.0750 Y9.1312
G01 X5.0750 Y7.5700
G01 X5.0760 Y7.5602
G01 X5.0788 Y7.5509
G01 X5.0834 Y7.5422
G01 X5.0896 Y7.5346
G01 X5.0972 Y7.5284
G01 X5.1059 Y7.5238
G01 X5.1152 Y7.5210
G01 X5.1250 Y7.5200
G00 Z1.0000
G00 X6.9994 Y14.9946
G01 F50.00
G01 Z-0.0500
G01 F100.00
G01 X6.9467 Y15.0134
G01 X6.8646 Y15.0339
G01 X6.7833 Y15.0459
G01 X6.6988 Y15.0500
G01 X6.6167 Y15.0459
G01 X6.5342 Y15.0337
G01 X6.4533 Y15.0134
G01 X6.3736 Y14.9848
G01 X6.2993 Y14.9496
G01 X6.2278 Y14.9067
G01 X6.1608 Y14.8571
G01 X6.0990 Y14.8010
G01 X6.0429 Y14.7392
G01 X5.9933 Y14.6722
G01 X5.9504 Y14.6007
G01 X5.9143 Y14.5241
G01 X5.8866 Y14.4467
G01 X5.8663 Y14.3658
G01 X5.8541 Y14.2833
G01 X5.8500 Y14.2000
G01 X5.8541 Y14.1167
G01 X5.8663 Y14.0342
G01 X5.8866 Y13.9533
G01 X5.9147 Y13.8747
G01 X5.9504 Y13.7993
G01 X5.9933 Y13.7278
G01 X6.0429 Y13.6608
G01 X6.0990 Y13.5990
G01 X6.1608 Y13.5429
G01 X6.2278 Y13.4933
G01 X6.2993 Y13.4504
G01 X6.3759 Y13.4142
G01 X6.4533 Y13.3866
G01 X6.5318 Y13.3669
G01 X6.6167 Y13.3541
G01 X6.7025 Y13.3501
G01 X6.7833 Y13.3541
G01 X6.8658 Y13.3663
G01 X6.9491 Y13.3874
G01 X7.0253 Y13.4147
G01 X7.1007 Y13.4504
G01 X7.1722 Y13.4933
G01 X7.2373 Y13.5414
G01 X7.3010 Y13.5990
G01 X7.3586 Y13.6627
G01 X7.4068 Y13.7278
G01 X7.4496 Y13.7993
G01 X7.4862 Y13.8770
G01 X7.5134 Y13.9533
G01 X7.5334 Y14.0330
G01 X7.5461 Y14.1191
G01 X7.5500 Y14.2000
G01 X7.5460 Y14.2821
G01 X7.5334 Y14.3670
G01 X7.5134 Y14.4467
G01 X7.4946 Y14.4994
G01 X7.9450 Y14.9499
G01 X9.5731 Y14.9498
G01 X9.5839 Y14.9270
G01 X9.5971 Y14.9048
G01 X9.6137 Y14.8820
G01 X9.6342 Y14.8592
G01 X9.6551 Y14.8403
G01 X9.6798 Y14.8221
G01 X9.7020 Y14.8089
G01 X9.7252 Y14.7979
G01 X9.7540 Y14.7874
G01 X9.7814 Y14.7805
G01 X9.8093 Y14.7764
G01 X9.8375 Y14.7750
G01 X10.4125 Y14.7750
G01 X10.4407 Y14.7764
G01 X10.4698 Y14.7808
G01 X10.4960 Y14.7874
G01 X10.5202 Y14.7960
G01 X10.5480 Y14.8089
G01 X10.5742 Y14.8249
G01 X10.5949 Y14.8403
G01 X10.6140 Y14.8575
G01 X10.6347 Y14.8801
G01 X10.6529 Y14.9048
G01 X10.6661 Y14.9270
G01 X10.6771 Y14.9502
G01 X10.6880 Y14.9802
G01 X10.6945 Y15.0064
G01 X10.6983 Y15.0319
G01 X10.7000 Y15.0625
G01 X10.7000 Y15.5375
G01 X10.6986 Y15.5657
G01 X10.6947 Y15.5924
G01 X10.6876 Y15.6210
G01 X10.6790 Y15.6452
G01 X10.6648 Y15.6752
G01 X10.6515 Y15.6972
G01 X10.6347 Y15.7199
G01 X10.6158 Y15.7408
G01 X10.5949 Y15.7597
G01 X10.5722 Y15.7765
G01 X10.5502 Y15.7898
G01 X10.5202 Y15.8040
G01 X10.4960 Y15.8126
G01 X10.4686 Y15.8195
G01 X10.4407 Y15.8236
G01 X10.4137 Y15.8250
G01 X9.8375 Y15.8250
G01 X9.8093 Y15.8236
G01 X9.7814 Y15.8195
G01 X9.7540 Y15.8126
G01 X9.7252 Y15.8021
G01 X9.7020 Y15.7911
G01 X9.6798 Y15.7779
G01 X9.6551 Y15.7597
G01 X9.6342 Y15.7408
G01 X9.6137 Y15.7180
G01 X9.5971 Y15.6952
G01 X9.5839 Y15.6730
G01 X9.5731 Y15.6501
G01 X7.8000 Y15.6501
G01 X7.7657 Y15.6485
G01 X7.7329 Y15.6436
G01 X7.6960 Y15.6343
G01 X7.6660 Y15.6235
G01 X7.6371 Y15.6099
G01 X7.6055 Y15.5911
G01 X7.5760 Y15.5691
G01 X7.5524 Y15.5476
G01 X6.9994 Y14.9946
G00 Z1.0000
G00 X9.0001 Y19.9825
G01 F50.00
G01 Z-0.0500
G01 F100.00
G01 X9.0010 Y19.9654
G01 X9.0038 Y19.9460
G01 X9.0086 Y19.9269
G01 X9.0152 Y19.9085
G01 X9.0236 Y19.8907
G01 X9.0337 Y19.8739
G01 X9.0454 Y19.8581
G01 X9.0569 Y19.8454
G01 X9.0751 Y19.8289
G01 X9.0889 Y19.8187
G01 X9.1079 Y19.8075
G01 X9.1235 Y19.8002
G01 X9.1419 Y19.7936
G01 X9.1610 Y19.7888
G01 X9.1816 Y19.7859
G01 X9.2000 Y19.7850
G01 X10.8512 Y19.7850
G01 X10.8696 Y19.7860
G01 X10.8866 Y19.7884
G01 X10.9081 Y19.7936
G01 X10.9265 Y19.8002
G01 X10.9421 Y19.8075
G01 X10.9620 Y19.8193
G01 X11.6249 Y19.1564
G01 X11.6249 Y15.8250
G01 X11.5863 Y15.8250
G01 X11.5593 Y15.8236
G01 X11.5314 Y15.8195
G01 X11.5040 Y15.8126
G01 X11.4775 Y15.8031
G01 X11.4520 Y15.7911
G01 X11.4278 Y15.7765
G01 X11.4033 Y15.7581
G01 X11.3842 Y15.7408
G01 X11.3637 Y15.7180
G01 X11.3485 Y15.6972
G01 X11.3352 Y15.6752
G01 X11.3229 Y15.6498
G01 X11.3124 Y15.6210
G01 X11.3055 Y15.5936
G01 X11.3014 Y15.5657
G01 X11.3000 Y15.5375
G01 X11.3000 Y15.0613
G01 X11.3014 Y15.0343
G01 X11.3055 Y15.0064
G01 X11.3124 Y14.9790
G01 X11.3210 Y14.9548
G01 X11.3352 Y14.9248
G01 X11.3485 Y14.9028
G01 X11.3653 Y14.8801
G01 X11.3860 Y14.8575
G01 X11.4051 Y14.8403
G01 X11.4268 Y14.8241
G01 X11.4542 Y14.8078
G01 X11.4775 Y14.7969
G01 X11.5029 Y14.7878
G01 X11.5326 Y14.7803
G01 X11.5581 Y14.7765
G01 X11.5749 Y14.7756
G01 X11.5749 Y14.0244
G01 X11.5581 Y14.0235
G01 X11.5302 Y14.0192
G01 X11.5040 Y14.0126
G01 X11.4786 Y14.0036
G01 X11.4498 Y13.9898
G01 X11.4278 Y13.9765
G01 X11.4061 Y13.9605
G01 X11.3825 Y13.9390
G01 X11.3653 Y13.9199
G01 X11.3485 Y13.8972
G01 X11.3328 Y13.8708
G01 X11.3219 Y13.8475
G01 X11.3131 Y13.8233
G01 X11.3051 Y13.7912
G01 X11.3014 Y13.7657
G01 X11.3000 Y13.7387
G01 X11.3000 Y13.2625
G01 X11.3014 Y13.2343
G01 X11.3061 Y13.2040
G01 X11.3124 Y13.1790
G01 X11.3219 Y13.1525
G01 X11.3339 Y13.1270
G01 X11.3471 Y13.1048
G01 X11.3669 Y13.0783
G01 X11.3842 Y13.0592
G01 X11.4051 Y13.0403
G01 X11.4278 Y13.0235
G01 X11.4498 Y13.0102
G01 X11.4798 Y12.9960
G01 X11.5040 Y12.9874
G01 X11.5290 Y12.9811
G01 X11.5593 Y12.9764
G01 X11.5875 Y12.9750
G01 X12.1637 Y12.9750
G01 X12.1907 Y12.9764
G01 X12.2186 Y12.9805
G01 X12.2460 Y12.9874
G01 X12.2748 Y12.9979
G01 X12.3002 Y13.0102
G01 X12.3222 Y13.0235
G01 X12.3430 Y13.0387
G01 X12.3658 Y13.0592
G01 X12.3847 Y13.0801
G01 X12.4015 Y13.1028
G01 X12.4172 Y13.1292
G01 X12.4281 Y13.1525
G01 X12.4369 Y13.1767
G01 X12.4442 Y13.2052
G01 X12.4486 Y13.2343
G01 X12.4500 Y13.2625
G01 X12.4500 Y13.7375
G01 X12.4488 Y13.7632
G01 X12.4439 Y13.7960
G01 X12.4376 Y13.8210
G01 X12.4271 Y13.8498
G01 X12.4161 Y13.8730
G01 X12.4015 Y13.8972
G01 X12.3847 Y13.9199
G01 X12.3649 Y13.9417
G01 X12.3449 Y13.9597
G01 X12.3222 Y13.9765
G01 X12.2980 Y13.9911
G01 X12.2736 Y14.0026
G01 X12.2460 Y14.0126
G01 X12.2198 Y14.0192
G01 X12.1919 Y14.0235
G01 X12.1751 Y14.0244
G01 X12.1751 Y14.7756
G01 X12.1919 Y14.7765
G01 X12.2174 Y14.7803
G01 X12.2471 Y14.7878
G01 X12.2725 Y14.7969
G01 X12.2958 Y14.8078
G01 X12.3232 Y14.8241
G01 X12.3449 Y14.8403
G01 X12.3640 Y14.8575
G01 X12.3847 Y14.8801
G01 X12.4015 Y14.9028
G01 X12.4148 Y14.9248
G01 X12.4290 Y14.9548
G01 X12.4376 Y14.9790
G01 X12.4445 Y15.0064
G01 X12.4486 Y15.0343
G01 X12.4500 Y15.0613
G01 X12.4500 Y15.5387
G01 X12.4486 Y15.5657
G01 X12.4445 Y15.5936
G01 X12.4376 Y15.6210
G01 X12.4271 Y15.6498
G01 X12.4148 Y15.6752
G01 X12.4015 Y15.6972
G01 X12.3863 Y15.7180
G01 X12.3658 Y15.7408
G01 X12.3458 Y15.7590
G01 X12.3222 Y15.7765
G01 X12.2980 Y15.7911
G01 X12.2725 Y15.8031
G01 X12.2460 Y15.8126
G01 X12.2186 Y15.8195
G01 X12.1907 Y15.8236
G01 X12.1637 Y15.8250
G01 X12.1251 Y15.8250
G01 X12.1251 Y19.2600
G01 X12.1239 Y19.2845
G01 X12.1203 Y19.3088
G01 X12.1143 Y19.3326
G01 X12.1051 Y19.3580
G01 X12.0956 Y19.3779
G01 X12.0830 Y19.3989
G01 X12.0683 Y19.4187
G01 X12.0527 Y19.4360
G01 X11.1751 Y20.3135
G01 X11.1587 Y20.3283
G01 X11.1389 Y20.3430
G01 X11.1179 Y20.3556
G01 X11.0980 Y20.3651
G01 X11.0702 Y20.3750
G01 X11.0488 Y20.3803
G01 X11.0236 Y20.3840
G01 X11.0163 Y20.3961
G01 X11.0061 Y20.4099
G01 X10.9931 Y20.4246
G01 X10.9769 Y20.4396
G01 X10.9621 Y20.4506
G01 X10.9443 Y20.4614
G01 X10.9265 Y20.4698
G01 X10.9081 Y20.4764
G01 X10.8890 Y20.4812
G01 X10.8696 Y20.4840
G01 X10.8500 Y20.4850
G01 X9.2000 Y20.4850
G01 X9.1780 Y20.4837
G01 X9.1610 Y20.4812
G01 X9.1431 Y20.4767
G01 X9.1235 Y20.4698
G01 X9.1036 Y20.4602
G01 X9.0889 Y20.4513
G01 X9.0751 Y20.4411
G01 X9.0586 Y20.4264
G01 X9.0439 Y20.4099
G01 X9.0337 Y20.3961
G01 X9.0248 Y20.3814
G01 X9.0152 Y20.3615
G01 X9.0083 Y20.3419
G01 X9.0034 Y20.3216
G01 X9.0010 Y20.3046
G01 X9.0000 Y20.2862
G01 X9.0001 Y19.9825
G00 Z1.0000
G00 X9.0001 Y21.2525
G01 F50.00
G01 Z-0.0500
G01 F100.00
G01 X9.0010 Y21.2354
G01 X9.0038 Y21.2160
G01 X9.0086 Y21.1969
G01 X9.0152 Y21.1785
G01 X9.0236 Y21.1607
G01 X9.0337 Y21.1439
G01 X9.0454 Y21.1281
G01 X9.0569 Y21.1154
G01 X9.0731 Y21.1004
G01 X9.0889 Y21.0887
G01 X9.1057 Y21.0786
G01 X9.1212 Y21.0712
G01 X9.1419 Y21.0636
G01 X9.1586 Y21.0594
G01 X9.1828 Y21.0558
G01 X9.2000 Y21.0550
G01 X10.8512 Y21.0550
G01 X10.8696 Y21.0560
G01 X10.8890 Y21.0588
G01 X10.9081 Y21.0636
G01 X10.9254 Y21.0698
G01 X10.9443 Y21.0786
G01 X10.9601 Y21.0880
G01 X10.9759 Y21.0996
G01 X10.9819 Y21.1049
G01 X11.4707 Y21.1049
G01 X12.6999 Y19.8757
G01 X12.6999 Y16.5500
G01 X12.7013 Y16.5206
G01 X12.7056 Y16.4914
G01 X12.7128 Y16.4629
G01 X12.7237 Y16.4329
G01 X12.7353 Y16.4085
G01 X12.7505 Y16.3833
G01 X12.7680 Y16.3596
G01 X12.7878 Y16.3378
G01 X15.6256 Y13.5000
G01 X14.1257 Y12.0001
G01 X12.4429 Y12.0001
G01 X12.4376 Y12.0210
G01 X12.4290 Y12.0452
G01 X12.4161 Y12.0730
G01 X12.4015 Y12.0972
G01 X12.3863 Y12.1180
G01 X12.3658 Y12.1408
G01 X12.3430 Y12.1613
G01 X12.3222 Y12.1765
G01 X12.2980 Y12.1911
G01 X12.2702 Y12.2040
G01 X12.2460 Y12.2126
G01 X12.2186 Y12.2195
G01 X12.1907 Y12.2236
G01 X12.1625 Y12.2250
G01 X11.5850 Y12.2249
G01 X11.5569 Y12.2233
G01 X11.5314 Y12.2195
G01 X11.5064 Y12.2133
G01 X11.4775 Y12.2031
G01 X11.4520 Y12.1911
G01 X11.4278 Y12.1765
G01 X11.4033 Y12.1581
G01 X11.3842 Y12.1408
G01 X11.3669 Y12.1217
G01 X11.3485 Y12.0972
G01 X11.3328 Y12.0708
G01 X11.3219 Y12.0475
G01 X11.3131 Y12.0233
G01 X11.3055 Y11.9936
G01 X11.3013 Y11.9645
G01 X11.3000 Y11.9375
G01 X11.3000 Y11.4625
G01 X11.3015 Y11.4331
G01 X11.3055 Y11.4064
G01 X11.3124 Y11.3790
G01 X11.3219 Y11.3525
G01 X11.3328 Y11.3292
G01 X11.3485 Y11.3028
G01 X11.3637 Y11.2820
G01 X11.3860 Y11.2575
G01 X11.4051 Y11.2403
G01 X11.4278 Y11.2235
G01 X11.4520 Y11.2089
G01 X11.4752 Y11.1979
G01 X11.5064 Y11.1867
G01 X11.5314 Y11.1805
G01 X11.5593 Y11.1764
G01 X11.5875 Y11.1750
G01 X12.1625 Y11.1750
G01 X12.1882 Y11.1762
G01 X12.2210 Y11.1811
G01 X12.2460 Y11.1874
G01 X12.2725 Y11.1969
G01 X12.2980 Y11.2089
G01 X12.3202 Y11.2221
G01 X12.3458 Y11.2410
G01 X12.3658 Y11.2592
G01 X12.3831 Y11.2783
G01 X12.4029 Y11.3048
G01 X12.4161 Y11.3270
G01 X12.4281 Y11.3525
G01 X12.4376 Y11.3790
G01 X12.4429 Y11.3999
G01 X14.2500 Y11.3999
G01 X14.2794 Y11.4013
G01 X14.3086 Y11.4056
G01 X14.3371 Y11.4128
G01 X14.3649 Y11.4227
G01 X14.3915 Y11.4353
G01 X14.4167 Y11.4505
G01 X14.4404 Y11.4680
G01 X14.4622 Y11.4878
G01 X16.1743 Y13.1999
G01 X17.6000 Y13.1999
G01 X17.6000 Y12.5488
G01 X17.6004 Y12.5439
G01 X17.6015 Y12.5379
G01 X17.6034 Y12.5320
G01 X17.6053 Y12.5275
G01 X17.6084 Y12.5222
G01 X17.6113 Y12.5183
G01 X17.6155 Y12.5138
G01 X17.6192 Y12.5106
G01 X17.6264 Y12.5059
G01 X17.6332 Y12.5029
G01 X17.6415 Y12.5007
G01 X17.6488 Y12.5000
G01 X18.4500 Y12.5000
G01 X18.4549 Y12.5002
G01 X18.4610 Y12.5012
G01 X18.4703 Y12.5043
G01 X18.4788 Y12.5091
G01 X18.4827 Y12.5121
G01 X18.4870 Y12.5164
G01 X18.4929 Y12.5243
G01 X18.4966 Y12.5320
G01 X18.4990 Y12.5402
G01 X18.5000 Y12.5500
G01 X18.5000 Y14.4500
G01 X18.4998 Y14.4549
G01 X18.4988 Y14.4610
G01 X18.4975 Y14.4657
G01 X18.4952 Y14.4714
G01 X18.4922 Y14.4767
G01 X18.4894 Y14.4808
G01 X18.4854 Y14.4854
G01 X18.4817 Y14.4887
G01 X18.4746 Y14.4935
G01 X18.4668 Y14.4971
G01 X18.4585 Y14.4993
G01 X18.4500 Y14.5000
G01 X17.6488 Y14.5000
G01 X17.6415 Y14.4993
G01 X17.6332 Y14.4971
G01 X17.6254 Y14.4935
G01 X17.6192 Y14.4894
G01 X17.6155 Y14.4862
G01 X17.6113 Y14.4817
G01 X17.6084 Y14.4778
G01 X17.6053 Y14.4725
G01 X17.6029 Y14.4668
G01 X17.6015 Y14.4621
G01 X17.6005 Y14.4573
G01 X17.6000 Y14.4512
G01 X17.6000 Y13.8001
G01 X16.1743 Y13.8001
G01 X13.3001 Y16.6743
G01 X13.3001 Y20.0000
G01 X13.2984 Y20.0319
G01 X13.2944 Y20.0586
G01 X13.2872 Y20.0871
G01 X13.2773 Y20.1149
G01 X13.2635 Y20.1436
G01 X13.2495 Y20.1667
G01 X13.2335 Y20.1885
G01 X13.2131 Y20.2113
G01 X11.8054 Y21.6189
G01 X11.7854 Y21.6370
G01 X11.7637 Y21.6531
G01 X11.7343 Y21.6708
G01 X11.7099 Y21.6823
G01 X11.6821 Y21.6922
G01 X11.6536 Y21.6994
G01 X11.6269 Y21.7034
G01 X11.5950 Y21.7051
G01 X10.9819 Y21.7051
G01 X10.9759 Y21.7104
G01 X10.9601 Y21.7220
G01 X10.9443 Y21.7314
G01 X10.9265 Y21.7398
G01 X10.9081 Y21.7464
G01 X10.8914 Y21.7506
G01 X10.8672 Y21.7542
G01 X10.8500 Y21.7550
G01 X9.2000 Y21.7550
G01 X9.1792 Y21.7539
G01 X9.1610 Y21.7512
G01 X9.1443 Y21.7470
G01 X9.1235 Y21.7398
G01 X9.1036 Y21.7302
G01 X9.0889 Y21.7213
G01 X9.0731 Y21.7096
G01 X9.0569 Y21.6946
G01 X9.0454 Y21.6819
G01 X9.0337 Y21.6661
G01 X9.0225 Y21.6471
G01 X9.0152 Y21.6315
G01 X9.0094 Y21.6154
G01 X9.0034 Y21.5916
G01 X9.0010 Y21.5746
G01 X9.0000 Y21.5562
G01 X9.0001 Y21.2525
G00 Z1.0000
G00 X5.2001 Y23.0219
G01 F50.00
G01 Z-0.0500
G01 F100.00
G01 X5.2001 Y22.6001
G01 X6.1719 Y22.6001
G01 X6.2399 Y22.6680
G01 X6.2056 Y22.7729
G01 X6.1524 Y22.8673
G01 X6.0818 Y22.9495
G01 X5.9966 Y23.0163
G01 X5.8999 Y23.0652
G01 X5.7956 Y23.0943
G01 X5.6774 Y23.1032
G01 X5.2786 Y23.1004
G01 X5.2001 Y23.0219
G00 Z1.0000
G00 X3.4601 Y22.6680
G01 F50.00
G01 Z-0.0500
G01 F100.00
G01 X3.5281 Y22.6001
G01 X4.4999 Y22.6001
G01 X4.4999 Y23.0219
G01 X4.4214 Y23.1004
G01 X4.0226 Y23.1032
G01 X3.9044 Y23.0943
G01 X3.8001 Y23.0652
G01 X3.7034 Y23.0163
G01 X3.6182 Y22.9495
G01 X3.5476 Y22.8673
G01 X3.4944 Y22.7729
G01 X3.4601 Y22.6680
G00 Z1.0000
G00 X4.1475 Y21.3499
G01 F50.00
G01 Z-0.0500
G01 F100.00
G01 X4.1304 Y21.3490
G01 X4.1110 Y21.3462
G01 X4.0919 Y21.3414
G01 X4.0758 Y21.3357
G01 X4.0536 Y21.3252
G01 X4.0389 Y21.3163
G01 X4.0231 Y21.3046
G01 X4.0086 Y21.2914
G01 X3.9954 Y21.2769
G01 X3.9837 Y21.2611
G01 X3.9748 Y21.2464
G01 X3.9643 Y21.2242
G01 X3.9586 Y21.2081
G01 X3.9536 Y21.1878
G01 X3.9510 Y21.1696
G01 X3.9500 Y21.1500
G01 X3.9500 Y20.8500
G01 X3.9510 Y20.8304
G01 X3.9536 Y20.8122
G01 X3.9586 Y20.7919
G01 X3.9652 Y20.7735
G01 X3.9736 Y20.7557
G01 X3.9837 Y20.7389
G01 X3.9954 Y20.7231
G01 X4.0086 Y20.7086
G01 X4.0231 Y20.6954
G01 X4.0399 Y20.6830
G01 X4.0557 Y20.6736
G01 X4.0712 Y20.6662
G01 X4.0919 Y20.6586
G01 X4.1134 Y20.6534
G01 X4.1304 Y20.6510
G01 X4.1488 Y20.6500
G01 X5.5500 Y20.6500
G01 X5.5696 Y20.6510
G01 X5.5890 Y20.6538
G01 X5.6081 Y20.6586
G01 X5.6254 Y20.6648
G01 X5.6443 Y20.6736
G01 X5.6601 Y20.6830
G01 X5.6759 Y20.6946
G01 X5.6819 Y20.6999
G01 X6.2757 Y20.6999
G01 X8.3228 Y18.6528
G01 X8.3446 Y18.6330
G01 X8.3683 Y18.6155
G01 X8.3935 Y18.6003
G01 X8.4213 Y18.5873
G01 X8.4479 Y18.5778
G01 X8.4764 Y18.5706
G01 X8.5056 Y18.5663
G01 X8.5338 Y18.5649
G01 X9.0680 Y18.5649
G01 X9.0795 Y18.5554
G01 X9.0947 Y18.5450
G01 X9.1109 Y18.5360
G01 X9.1278 Y18.5285
G01 X9.1453 Y18.5226
G01 X9.1633 Y18.5184
G01 X9.1815 Y18.5159
G01 X9.1988 Y18.5150
G01 X10.8512 Y18.5150
G01 X10.8696 Y18.5160
G01 X10.8866 Y18.5184
G01 X10.9081 Y18.5236
G01 X10.9265 Y18.5302
G01 X10.9421 Y18.5375
G01 X10.9611 Y18.5487
G01 X10.9769 Y18.5604
G01 X10.9896 Y18.5719
G01 X11.0046 Y18.5881
G01 X11.0163 Y18.6039
G01 X11.0252 Y18.6186
G01 X11.0352 Y18.6396
G01 X11.0414 Y18.6569
G01 X11.0462 Y18.6760
G01 X11.0490 Y18.6954
G01 X11.0500 Y18.7138
G01 X11.0500 Y19.0162
G01 X11.0487 Y19.0370
G01 X11.0462 Y19.0540
G01 X11.0420 Y19.0707
G01 X11.0348 Y19.0915
G01 X11.0252 Y19.1114
G01 X11.0163 Y19.1261
G01 X11.0061 Y19.1399
G01 X10.9896 Y19.1581
G01 X10.9769 Y19.1696
G01 X10.9631 Y19.1799
G01 X10.9443 Y19.1914
G01 X10.9242 Y19.2007
G01 X10.9081 Y19.2064
G01 X10.8902 Y19.2109
G01 X10.8696 Y19.2140
G01 X10.8500 Y19.2150
G01 X9.1988 Y19.2150
G01 X9.1804 Y19.2140
G01 X9.1610 Y19.2112
G01 X9.1419 Y19.2064
G01 X9.1246 Y19.2002
G01 X9.1057 Y19.1914
G01 X9.0899 Y19.1820
G01 X9.0741 Y19.1704
G01 X9.0681 Y19.1651
G01 X8.6593 Y19.1651
G01 X6.6122 Y21.2122
G01 X6.5904 Y21.2320
G01 X6.5667 Y21.2495
G01 X6.5415 Y21.2647
G01 X6.5137 Y21.2777
G01 X6.4871 Y21.2872
G01 X6.4586 Y21.2944
G01 X6.4294 Y21.2987
G01 X6.4012 Y21.3001
G01 X5.6820 Y21.3001
G01 X5.6705 Y21.3096
G01 X5.6553 Y21.3200
G01 X5.6391 Y21.3290
G01 X5.6222 Y21.3365
G01 X5.6047 Y21.3424
G01 X5.5867 Y21.3466
G01 X5.5685 Y21.3491
G01 X5.5512 Y21.3500
G01 X4.1475 Y21.3499
G00 Z1.0000
G00 X4.1475 Y20.0999
G01 F50.00
G01 Z-0.0500
G01 F100.00
G01 X4.1304 Y20.0990
G01 X4.1134 Y20.0966
G01 X4.0896 Y20.0906
G01 X4.0735 Y20.0848
G01 X4.0557 Y20.0764
G01 X4.0389 Y20.0663
G01 X4.0251 Y20.0561
G01 X4.0069 Y20.0396
G01 X3.9954 Y20.0269
G01 X3.9837 Y20.0111
G01 X3.9736 Y19.9943
G01 X3.9662 Y19.9788
G01 X3.9583 Y19.9569
G01 X3.9534 Y19.9366
G01 X3.9510 Y19.9196
G01 X3.9500 Y19.9012
G01 X3.9500 Y19.6000
G01 X3.9508 Y19.5828
G01 X3.9538 Y19.5610
G01 X3.9594 Y19.5396
G01 X3.9652 Y19.5235
G01 X3.9725 Y19.5079
G01 X3.9830 Y19.4899
G01 X3.9954 Y19.4731
G01 X4.0086 Y19.4586
G01 X4.0231 Y19.4454
G01 X4.0410 Y19.4324
G01 X4.0557 Y19.4236
G01 X4.0712 Y19.4162
G01 X4.0896 Y19.4094
G01 X4.1110 Y19.4038
G01 X4.1292 Y19.4011
G01 X4.1500 Y19.4000
G01 X4.7048 Y19.4000
G01 X5.5855 Y18.5193
G01 X5.5642 Y18.4741
G01 X5.5363 Y18.3956
G01 X5.5163 Y18.3158
G01 X5.5042 Y18.2345
G01 X5.5001 Y18.1475
G01 X5.5041 Y18.0667
G01 X5.5166 Y17.9830
G01 X5.5366 Y17.9033
G01 X5.5638 Y17.8270
G01 X5.6016 Y17.7472
G01 X5.6433 Y17.6778
G01 X5.6929 Y17.6108
G01 X5.7490 Y17.5490
G01 X5.8098 Y17.4937
G01 X5.8778 Y17.4433
G01 X5.9493 Y17.4004
G01 X6.0247 Y17.3647
G01 X6.1033 Y17.3366
G01 X6.1842 Y17.3163
G01 X6.2667 Y17.3041
G01 X6.3500 Y17.3000
G01 X6.4333 Y17.3041
G01 X6.5158 Y17.3163
G01 X6.5967 Y17.3366
G01 X6.6753 Y17.3647
G01 X6.7507 Y17.4004
G01 X6.8222 Y17.4433
G01 X6.8892 Y17.4929
G01 X6.9510 Y17.5490
G01 X7.0063 Y17.6098
G01 X7.0581 Y17.6798
G01 X7.0996 Y17.7493
G01 X7.1353 Y17.8247
G01 X7.1641 Y17.9056
G01 X7.1837 Y17.9842
G01 X7.1959 Y18.0667
G01 X7.1999 Y18.1525
G01 X7.1959 Y18.2333
G01 X7.1837 Y18.3158
G01 X7.1626 Y18.3991
G01 X7.1353 Y18.4753
G01 X7.0996 Y18.5507
G01 X7.0567 Y18.6222
G01 X7.0086 Y18.6873
G01 X6.9493 Y18.7527
G01 X6.8892 Y18.8071
G01 X6.8222 Y18.8567
G01 X6.7507 Y18.8996
G01 X6.6764 Y18.9348
G01 X6.5944 Y18.9641
G01 X6.5158 Y18.9837
G01 X6.4321 Y18.9960
G01 X6.3500 Y19.0000
G01 X6.2667 Y18.9959
G01 X6.1842 Y18.9837
G01 X6.1260 Y18.9692
G01 X5.6613 Y19.4339
G01 X5.6787 Y19.4470
G01 X5.6914 Y19.4586
G01 X5.7030 Y19.4713
G01 X5.7163 Y19.4889
G01 X5.7264 Y19.5057
G01 X5.7348 Y19.5235
G01 X5.7420 Y19.5443
G01 X5.7462 Y19.5610
G01 X5.7487 Y19.5780
G01 X5.7500 Y19.5988
G01 X5.7500 Y19.9000
G01 X5.7491 Y19.9185
G01 X5.7470 Y19.9345
G01 X5.7417 Y19.9569
G01 X5.7365 Y19.9722
G01 X5.7280 Y19.9912
G01 X5.7200 Y20.0053
G01 X5.7096 Y20.0205
G01 X5.6978 Y20.0347
G01 X5.6839 Y20.0486
G01 X5.6705 Y20.0596
G01 X5.6553 Y20.0700
G01 X5.6391 Y20.0790
G01 X5.6222 Y20.0865
G01 X5.6047 Y20.0924
G01 X5.5867 Y20.0966
G01 X5.5685 Y20.0991
G01 X5.5512 Y20.1000
G01 X4.1475 Y20.0999
G00 Z1.0000
G00 X0.5475 Y18.4499
G01 F50.00
G01 Z-0.0500
G01 F100.00
G01 X0.5206 Y18.4486
G01 X0.4915 Y18.4442
G01 X0.4629 Y18.4371
G01 X0.4352 Y18.4272
G01 X0.4086 Y18.4146
G01 X0.3833 Y18.3994
G01 X0.3597 Y18.3819
G01 X0.3396 Y18.3638
G01 X0.3181 Y18.3403
G01 X0.3020 Y18.3187
G01 X0.2843 Y18.2892
G01 X0.2728 Y18.2648
G01 X0.2629 Y18.2371
G01 X0.2558 Y18.2085
G01 X0.2514 Y18.1794
G01 X0.2500 Y18.1500
G01 X0.2500 Y17.6500
G01 X0.2514 Y17.6206
G01 X0.2560 Y17.5903
G01 X0.2637 Y17.5606
G01 X0.2728 Y17.5352
G01 X0.2843 Y17.5108
G01 X0.3006 Y17.4833
G01 X0.3181 Y17.4597
G01 X0.3396 Y17.4362
G01 X0.3597 Y17.4181
G01 X0.3813 Y17.4020
G01 X0.4086 Y17.3854
G01 X0.4375 Y17.3720
G01 X0.4629 Y17.3629
G01 X0.4915 Y17.3558
G01 X0.5206 Y17.3514
G01 X0.5500 Y17.3500
G01 X2.7500 Y17.3500
G01 X2.7782 Y17.3513
G01 X2.8109 Y17.3563
G01 X2.8371 Y17.3629
G01 X2.8648 Y17.3728
G01 X2.8936 Y17.3866
G01 X2.9167 Y17.4006
G01 X2.9384 Y17.4166
G01 X2.9638 Y17.4396
G01 X2.9819 Y17.4597
G01 X2.9980 Y17.4813
G01 X3.0146 Y17.5086
G01 X3.0280 Y17.5375
G01 X3.0371 Y17.5629
G01 X3.0442 Y17.5915
G01 X3.0486 Y17.6206
G01 X3.0500 Y17.6488
G01 X3.0500 Y18.1500
G01 X3.0486 Y18.1794
G01 X3.0445 Y18.2073
G01 X3.0371 Y18.2371
G01 X3.0262 Y18.2670
G01 X3.0146 Y18.2914
G01 X3.0008 Y18.3146
G01 X2.9819 Y18.3403
G01 X2.9604 Y18.3638
G01 X2.9403 Y18.3819
G01 X2.9187 Y18.3980
G01 X2.8914 Y18.4146
G01 X2.8625 Y18.4280
G01 X2.8371 Y18.4371
G01 X2.8085 Y18.4442
G01 X2.7794 Y18.4486
G01 X2.7500 Y18.4500
G01 X0.5475 Y18.4499
G00 Z1.0000
G00 X0.4249 Y23.0705
G01 F50.00
G01 Z-0.0500
G01 F100.00
G01 X0.4249 Y18.9295
G01 X0.4261 Y18.9098
G01 X0.4283 Y18.8950
G01 X0.4319 Y18.8805
G01 X0.4384 Y18.8618
G01 X0.4471 Y18.8439
G01 X0.4548 Y18.8312
G01 X0.4636 Y18.8192
G01 X0.4759 Y18.8052
G01 X0.4897 Y18.7927
G01 X0.5057 Y18.7810
G01 X0.5185 Y18.7734
G01 X0.5320 Y18.7670
G01 X0.5506 Y18.7601
G01 X0.5699 Y18.7555
G01 X0.5846 Y18.7533
G01 X0.5995 Y18.7525
G01 X2.7413 Y18.7525
G01 X2.8674 Y18.7401
G01 X2.9802 Y18.7058
G01 X3.0842 Y18.6502
G01 X3.1754 Y18.5754
G01 X3.2502 Y18.4842
G01 X3.3058 Y18.3802
G01 X3.3401 Y18.2674
G01 X3.3525 Y18.1413
G01 X3.3525 Y17.6587
G01 X3.3401 Y17.5326
G01 X3.3058 Y17.4198
G01 X3.2502 Y17.3158
G01 X3.1754 Y17.2246
G01 X3.0842 Y17.1498
G01 X2.9802 Y17.0942
G01 X2.8674 Y17.0599
G01 X2.7413 Y17.0475
G01 X0.6020 Y17.0475
G01 X0.5859 Y17.0468
G01 X0.5651 Y17.0436
G01 X0.5506 Y17.0399
G01 X0.5365 Y17.0349
G01 X0.5185 Y17.0266
G01 X0.5016 Y17.0163
G01 X0.4897 Y17.0073
G01 X0.4786 Y16.9973
G01 X0.4651 Y16.9828
G01 X0.4548 Y16.9688
G01 X0.4471 Y16.9561
G01 X0.4380 Y16.9371
G01 X0.4326 Y16.9218
G01 X0.4283 Y16.9050
G01 X0.4258 Y16.8878
G01 X0.4249 Y16.8705
G01 X0.4249 Y10.6787
G01 X0.4258 Y10.6613
G01 X0.4281 Y10.6453
G01 X0.4326 Y10.6273
G01 X0.4384 Y10.6109
G01 X0.4458 Y10.5952
G01 X0.4548 Y10.5803
G01 X0.4651 Y10.5663
G01 X0.4768 Y10.5535
G01 X0.4897 Y10.5418
G01 X0.5036 Y10.5314
G01 X0.5185 Y10.5225
G01 X0.5342 Y10.5151
G01 X0.5506 Y10.5092
G01 X0.5675 Y10.5050
G01 X0.5846 Y10.5025
G01 X0.6020 Y10.5016
G01 X0.6194 Y10.5025
G01 X0.6377 Y10.5053
G01 X0.6534 Y10.5092
G01 X0.6698 Y10.5151
G01 X0.6855 Y10.5225
G01 X0.7004 Y10.5314
G01 X0.7143 Y10.5418
G01 X0.7254 Y10.5518
G01 X0.7670 Y10.5932
G01 X0.9553 Y10.7191
G01 X1.1646 Y10.8057
G01 X1.3867 Y10.8499
G01 X1.6133 Y10.8499
G01 X1.8354 Y10.8057
G01 X2.0447 Y10.7191
G01 X2.2330 Y10.5932
G01 X2.3932 Y10.4330
G01 X2.5191 Y10.2447
G01 X2.6057 Y10.0354
G01 X2.6499 Y9.8133
G01 X2.6500 Y9.7745
G01 X2.6508 Y9.7596
G01 X2.6533 Y9.7425
G01 X2.6583 Y9.7233
G01 X2.6634 Y9.7092
G01 X2.6703 Y9.6946
G01 X2.6798 Y9.6786
G01 X2.6917 Y9.6628
G01 X2.7018 Y9.6518
G01 X2.7128 Y9.6417
G01 X2.7286 Y9.6298
G01 X2.7457 Y9.6197
G01 X2.7592 Y9.6134
G01 X2.7733 Y9.6083
G01 X2.7925 Y9.6033
G01 X2.8109 Y9.6007
G01 X2.8270 Y9.5999
G01 X3.6847 Y9.6000
G01 X3.7008 Y9.6008
G01 X3.7156 Y9.6029
G01 X3.7349 Y9.6076
G01 X3.7512 Y9.6134
G01 X3.7648 Y9.6197
G01 X3.7818 Y9.6298
G01 X3.7977 Y9.6417
G01 X3.8087 Y9.6518
G01 X3.8187 Y9.6628
G01 X3.8307 Y9.6786
G01 X3.8407 Y9.6957
G01 X3.8471 Y9.7092
G01 X3.8529 Y9.7256
G01 X3.8571 Y9.7425
G01 X3.8594 Y9.7571
G01 X3.8966 Y9.8799
G01 X3.9570 Y9.9928
G01 X4.0382 Y10.0918
G01 X4.0572 Y10.1074
G01 X4.0692 Y10.1183
G01 X5.1817 Y11.2309
G01 X5.1926 Y11.2428
G01 X5.2082 Y11.2618
G01 X5.3072 Y11.3430
G01 X5.4201 Y11.4034
G01 X5.5426 Y11.4405
G01 X5.6759 Y11.4537
G01 X5.6919 Y11.4560
G01 X5.7099 Y11.4604
G01 X5.7240 Y11.4654
G01 X5.7441 Y11.4749
G01 X5.7569 Y11.4826
G01 X5.7689 Y11.4915
G01 X5.7837 Y11.5047
G01 X5.7954 Y11.5175
G01 X5.8068 Y11.5330
G01 X5.9670 Y11.6932
G01 X6.1553 Y11.8191
G01 X6.3646 Y11.9057
G01 X6.5867 Y11.9499
G01 X6.8133 Y11.9499
G01 X6.8357 Y11.9464
G01 X6.8542 Y11.9455
G01 X6.8704 Y11.9464
G01 X6.8876 Y11.9489
G01 X6.9044 Y11.9531
G01 X6.9196 Y11.9585
G01 X6.9365 Y11.9664
G01 X6.9493 Y11.9740
G01 X6.9672 Y11.9873
G01 X6.9782 Y11.9974
G01 X7.1117 Y12.1309
G01 X7.1226 Y12.1428
G01 X7.1382 Y12.1618
G01 X7.2372 Y12.2430
G01 X7.3501 Y12.3034
G01 X7.4726 Y12.3405
G01 X7.6000 Y12.3531
G01 X7.6245 Y12.3507
G01 X7.6406 Y12.3499
G01 X9.0694 Y12.3500
G01 X9.0880 Y12.3511
G01 X9.1028 Y12.3533
G01 X9.1173 Y12.3569
G01 X9.1360 Y12.3634
G01 X9.1528 Y12.3714
G01 X9.1666 Y12.3798
G01 X9.1786 Y12.3886
G01 X9.1934 Y12.4018
G01 X9.2066 Y12.4166
G01 X9.2154 Y12.4286
G01 X9.2232 Y12.4414
G01 X9.2318 Y12.4592
G01 X9.2383 Y12.4780
G01 X9.2419 Y12.4925
G01 X9.2441 Y12.5072
G01 X9.2453 Y12.5282
G01 X9.2444 Y12.5444
G01 X9.2413 Y12.5639
G01 X9.2369 Y12.5807
G01 X9.2318 Y12.5948
G01 X9.2255 Y12.6083
G01 X9.2154 Y12.6254
G01 X9.2059 Y12.6384
G01 X9.1405 Y12.7180
G01 X9.0895 Y12.8135
G01 X9.0580 Y12.9172
G01 X9.0468 Y13.0311
G01 X9.0479 Y13.0698
G01 X9.1281 Y13.1499
G01 X9.5730 Y13.1499
G01 X9.5839 Y13.1270
G01 X9.5971 Y13.1048
G01 X9.6153 Y13.0801
G01 X9.6360 Y13.0575
G01 X9.6551 Y13.0403
G01 X9.6758 Y13.0249
G01 X9.7020 Y13.0089
G01 X9.7298 Y12.9960
G01 X9.7540 Y12.9874
G01 X9.7790 Y12.9811
G01 X9.8105 Y12.9763
G01 X9.8375 Y12.9750
G01 X10.4125 Y12.9750
G01 X10.4407 Y12.9764
G01 X10.4686 Y12.9805
G01 X10.4936 Y12.9867
G01 X10.5248 Y12.9979
G01 X10.5480 Y13.0089
G01 X10.5722 Y13.0235
G01 X10.5949 Y13.0403
G01 X10.6149 Y13.0583
G01 X10.6347 Y13.0801
G01 X10.6515 Y13.1028
G01 X10.6661 Y13.1270
G01 X10.6781 Y13.1525
G01 X10.6876 Y13.1790
G01 X10.6945 Y13.2064
G01 X10.6986 Y13.2343
G01 X10.7000 Y13.2625
G01 X10.7000 Y13.7375
G01 X10.6985 Y13.7669
G01 X10.6945 Y13.7936
G01 X10.6876 Y13.8210
G01 X10.6781 Y13.8475
G01 X10.6672 Y13.8708
G01 X10.6501 Y13.8992
G01 X10.6347 Y13.9199
G01 X10.6167 Y13.9399
G01 X10.5949 Y13.9597
G01 X10.5742 Y13.9751
G01 X10.5458 Y13.9922
G01 X10.5225 Y14.0031
G01 X10.4960 Y14.0126
G01 X10.4686 Y14.0195
G01 X10.4407 Y14.0236
G01 X10.4125 Y14.0250
G01 X9.8375 Y14.0250
G01 X9.8118 Y14.0238
G01 X9.7790 Y14.0189
G01 X9.7540 Y14.0126
G01 X9.7298 Y14.0040
G01 X9.7020 Y13.9911
G01 X9.6758 Y13.9751
G01 X9.6551 Y13.9597
G01 X9.6360 Y13.9425
G01 X9.6153 Y13.9199
G01 X9.5971 Y13.8952
G01 X9.5839 Y13.8730
G01 X9.5730 Y13.8501
G01 X9.1281 Y13.8501
G01 X9.0479 Y13.9302
G01 X9.0468 Y13.9689
G01 X9.0580 Y14.0828
G01 X9.0895 Y14.1865
G01 X9.1405 Y14.2820
G01 X9.2059 Y14.3616
G01 X9.2154 Y14.3746
G01 X9.2255 Y14.3917
G01 X9.2327 Y14.4075
G01 X9.2377 Y14.4216
G01 X9.2413 Y14.4361
G01 X9.2444 Y14.4556
G01 X9.2453 Y14.4742
G01 X9.2444 Y14.4904
G01 X9.2419 Y14.5075
G01 X9.2377 Y14.5244
G01 X9.2327 Y14.5385
G01 X9.2232 Y14.5586
G01 X9.2154 Y14.5714
G01 X9.2051 Y14.5853
G01 X9.1934 Y14.5982
G01 X9.1824 Y14.6083
G01 X9.1645 Y14.6215
G01 X9.1517 Y14.6292
G01 X9.1360 Y14.6366
G01 X9.1196 Y14.6424
G01 X9.1052 Y14.6461
G01 X9.0856 Y14.6492
G01 X9.0682 Y14.6501
G01 X8.1413 Y14.6500
G01 X8.1252 Y14.6492
G01 X8.1104 Y14.6471
G01 X8.0912 Y14.6424
G01 X8.0748 Y14.6366
G01 X8.0613 Y14.6303
G01 X8.0432 Y14.6195
G01 X8.0302 Y14.6099
G01 X8.0182 Y14.5991
G01 X7.8957 Y14.4764
G01 X7.8857 Y14.4653
G01 X7.8753 Y14.4514
G01 X7.8664 Y14.4365
G01 X7.8585 Y14.4196
G01 X7.8531 Y14.4044
G01 X7.8489 Y14.3876
G01 X7.8464 Y14.3704
G01 X7.8455 Y14.3542
G01 X7.8464 Y14.3357
G01 X7.8499 Y14.3133
G01 X7.8499 Y14.0867
G01 X7.8057 Y13.8646
G01 X7.7191 Y13.6553
G01 X7.5932 Y13.4670
G01 X7.4330 Y13.3068
G01 X7.2447 Y13.1809
G01 X7.0354 Y13.0943
G01 X6.8133 Y13.0501
G01 X6.5867 Y13.0501
G01 X6.3646 Y13.0943
G01 X6.1553 Y13.1809
G01 X5.9670 Y13.3068
G01 X5.8068 Y13.4670
G01 X5.6809 Y13.6553
G01 X5.5943 Y13.8646
G01 X5.5501 Y14.0867
G01 X5.5501 Y14.3133
G01 X5.5943 Y14.5354
G01 X5.6809 Y14.7447
G01 X5.8068 Y14.9330
G01 X5.9670 Y15.0932
G01 X6.1553 Y15.2191
G01 X6.3646 Y15.3057
G01 X6.5867 Y15.3499
G01 X6.8133 Y15.3499
G01 X6.8357 Y15.3464
G01 X6.8555 Y15.3456
G01 X6.8728 Y15.3467
G01 X6.8876 Y15.3489
G01 X6.9020 Y15.3525
G01 X6.9208 Y15.3590
G01 X6.9354 Y15.3658
G01 X6.9534 Y15.3768
G01 X6.9653 Y15.3857
G01 X6.9782 Y15.3974
G01 X7.3117 Y15.7309
G01 X7.3226 Y15.7428
G01 X7.3382 Y15.7618
G01 X7.4372 Y15.8430
G01 X7.5501 Y15.9034
G01 X7.6726 Y15.9405
G01 X7.8000 Y15.9531
G01 X7.8245 Y15.9507
G01 X7.8406 Y15.9499
G01 X9.3525 Y15.9499
G01 X9.3699 Y15.9508
G01 X9.3871 Y15.9533
G01 X9.4039 Y15.9576
G01 X9.4203 Y15.9634
G01 X9.4360 Y15.9708
G01 X9.4509 Y15.9798
G01 X9.4639 Y15.9894
G01 X9.5102 Y16.0273
G01 X9.6120 Y16.0818
G01 X9.7226 Y16.1153
G01 X9.8462 Y16.1275
G01 X10.2730 Y16.1275
G01 X10.2879 Y16.1282
G01 X10.3075 Y16.1309
G01 X10.3244 Y16.1351
G01 X10.3408 Y16.1410
G01 X10.3575 Y16.1490
G01 X10.3714 Y16.1573
G01 X10.3834 Y16.1662
G01 X10.3982 Y16.1793
G01 X10.4114 Y16.1942
G01 X10.4202 Y16.2062
G01 X10.4279 Y16.2189
G01 X10.4366 Y16.2368
G01 X10.4431 Y16.2555
G01 X10.4467 Y16.2700
G01 X10.4489 Y16.2848
G01 X10.4500 Y16.3033
G01 X10.4501 Y16.6747
G01 X10.4489 Y16.6945
G01 X10.4467 Y16.7093
G01 X10.4424 Y16.7261
G01 X10.4366 Y16.7425
G01 X10.4286 Y16.7593
G01 X10.4202 Y16.7731
G01 X10.4099 Y16.7871
G01 X10.3991 Y16.7991
G01 X10.3751 Y16.8231
G01 X10.3751 Y17.2450
G01 X10.8512 Y17.2450
G01 X10.8720 Y17.2463
G01 X10.8890 Y17.2488
G01 X10.9069 Y17.2533
G01 X10.9288 Y17.2612
G01 X10.9443 Y17.2686
G01 X10.9611 Y17.2787
G01 X10.9769 Y17.2904
G01 X10.9896 Y17.3019
G01 X11.0046 Y17.3181
G01 X11.0163 Y17.3339
G01 X11.0252 Y17.3486
G01 X11.0348 Y17.3685
G01 X11.0414 Y17.3869
G01 X11.0456 Y17.4036
G01 X11.0492 Y17.4278
G01 X11.0500 Y17.4450
G01 X11.0500 Y17.7462
G01 X11.0491 Y17.7635
G01 X11.0470 Y17.7795
G01 X11.0424 Y17.7997
G01 X11.0356 Y17.8194
G01 X11.0290 Y17.8341
G01 X11.0212 Y17.8483
G01 X11.0096 Y17.8655
G01 X10.9962 Y17.8814
G01 X10.9847 Y17.8928
G01 X10.9723 Y17.9032
G01 X10.9553 Y17.9150
G01 X10.9371 Y17.9250
G01 X10.9222 Y17.9315
G01 X10.9047 Y17.9374
G01 X10.8845 Y17.9420
G01 X10.8685 Y17.9441
G01 X10.8512 Y17.9450
G01 X10.2798 Y17.9450
G01 X10.2635 Y17.9525
G01 X10.2494 Y17.9574
G01 X10.2349 Y17.9611
G01 X10.2154 Y17.9642
G01 X10.1980 Y17.9651
G01 X9.8495 Y17.9650
G01 X9.8322 Y17.9639
G01 X9.8175 Y17.9617
G01 X9.8030 Y17.9581
G01 X9.7854 Y17.9520
G01 X9.7702 Y17.9450
G01 X9.2000 Y17.9450
G01 X9.1828 Y17.9442
G01 X9.1586 Y17.9406
G01 X9.1419 Y17.9364
G01 X9.1235 Y17.9298
G01 X9.1036 Y17.9202
G01 X9.0889 Y17.9113
G01 X9.0731 Y17.8996
G01 X9.0569 Y17.8846
G01 X9.0454 Y17.8719
G01 X9.0337 Y17.8561
G01 X9.0236 Y17.8393
G01 X9.0162 Y17.8238
G01 X9.0086 Y17.8031
G01 X9.0034 Y17.7816
G01 X9.0010 Y17.7646
G01 X9.0000 Y17.7462
G01 X9.0000 Y17.4450
G01 X9.0009 Y17.4265
G01 X9.0034 Y17.4083
G01 X9.0076 Y17.3903
G01 X9.0127 Y17.3749
G01 X9.0220 Y17.3538
G01 X9.0300 Y17.3397
G01 X9.0390 Y17.3263
G01 X9.0522 Y17.3103
G01 X9.0670 Y17.2957
G01 X9.0795 Y17.2854
G01 X9.0928 Y17.2762
G01 X9.1109 Y17.2660
G01 X9.1299 Y17.2577
G01 X9.1453 Y17.2526
G01 X9.1633 Y17.2484
G01 X9.1815 Y17.2459
G01 X9.2000 Y17.2450
G01 X9.6749 Y17.2450
G01 X9.6749 Y16.8231
G01 X9.5965 Y16.7447
G01 X9.0713 Y16.7417
G01 X8.9533 Y16.7509
G01 X8.8490 Y16.7802
G01 X8.7525 Y16.8294
G01 X8.6673 Y16.8963
G01 X8.5969 Y16.9787
G01 X8.5439 Y17.0731
G01 X8.5261 Y17.1279
G01 X8.5200 Y17.1438
G01 X8.5112 Y17.1612
G01 X8.5034 Y17.1737
G01 X8.4930 Y17.1873
G01 X8.4813 Y17.1998
G01 X8.4685 Y17.2111
G01 X8.4547 Y17.2211
G01 X8.4400 Y17.2298
G01 X8.4244 Y17.2370
G01 X8.4083 Y17.2427
G01 X8.3917 Y17.2468
G01 X8.3748 Y17.2492
G01 X8.3577 Y17.2501
G01 X7.2115 Y17.2501
G01 X7.1947 Y17.2558
G01 X7.1803 Y17.2594
G01 X7.1655 Y17.2616
G01 X7.1457 Y17.2628
G01 X7.1271 Y17.2618
G01 X7.1112 Y17.2594
G01 X7.0943 Y17.2551
G01 X7.0780 Y17.2493
G01 X7.0612 Y17.2413
G01 X7.0473 Y17.2329
G01 X6.8947 Y17.1309
G01 X6.6854 Y17.0443
G01 X6.4633 Y17.0001
G01 X6.2367 Y17.0001
G01 X6.0146 Y17.0443
G01 X5.8053 Y17.1309
G01 X5.6170 Y17.2568
G01 X5.4568 Y17.4170
G01 X5.3309 Y17.6053
G01 X5.2443 Y17.8146
G01 X5.2001 Y18.0367
G01 X5.2001 Y18.2633
G01 X5.2177 Y18.3519
G01 X5.2199 Y18.3666
G01 X5.2211 Y18.3864
G01 X5.2203 Y18.4025
G01 X5.2177 Y18.4210
G01 X5.2141 Y18.4355
G01 X5.2066 Y18.4564
G01 X5.2002 Y18.4699
G01 X5.1913 Y18.4848
G01 X5.1809 Y18.4987
G01 X5.1701 Y18.5107
G01 X4.6352 Y19.0457
G01 X4.6223 Y19.0573
G01 X4.6063 Y19.0690
G01 X4.5935 Y19.0766
G01 X4.5800 Y19.0830
G01 X4.5637 Y19.0891
G01 X4.5445 Y19.0941
G01 X4.5274 Y19.0967
G01 X4.5100 Y19.0975
G01 X4.1587 Y19.0975
G01 X4.0521 Y19.1080
G01 X3.9580 Y19.1366
G01 X3.8713 Y19.1829
G01 X3.7953 Y19.2453
G01 X3.7329 Y19.3213
G01 X3.6866 Y19.4080
G01 X3.6580 Y19.5021
G01 X3.6475 Y19.6087
G01 X3.6475 Y19.8913
G01 X3.6580 Y19.9979
G01 X3.6866 Y20.0920
G01 X3.7329 Y20.1787
G01 X3.8033 Y20.2646
G01 X3.8135 Y20.2787
G01 X3.8211 Y20.2915
G01 X3.8276 Y20.3050
G01 X3.8344 Y20.3236
G01 X3.8390 Y20.3429
G01 X3.8412 Y20.3576
G01 X3.8420 Y20.3725
G01 X3.8413 Y20.3911
G01 X3.8386 Y20.4095
G01 X3.8344 Y20.4264
G01 X3.8285 Y20.4428
G01 X3.8205 Y20.4595
G01 X3.8122 Y20.4734
G01 X3.8026 Y20.4864
G01 X3.7329 Y20.5713
G01 X3.6866 Y20.6580
G01 X3.6580 Y20.7521
G01 X3.6475 Y20.8587
G01 X3.6475 Y21.1413
G01 X3.6580 Y21.2479
G01 X3.6894 Y21.3512
G01 X3.6934 Y21.3671
G01 X3.6964 Y21.3884
G01 X3.6970 Y21.4036
G01 X3.6960 Y21.4213
G01 X3.6932 Y21.4388
G01 X3.6879 Y21.4583
G01 X3.6826 Y21.4725
G01 X3.6760 Y21.4862
G01 X3.6661 Y21.5024
G01 X3.6546 Y21.5175
G01 X3.6434 Y21.5295
G01 X3.6301 Y21.5412
G01 X3.6182 Y21.5505
G01 X3.5476 Y21.6327
G01 X3.4944 Y21.7271
G01 X3.4601 Y21.8320
G01 X3.5281 Y21.8999
G01 X4.5953 Y21.8999
G01 X4.6115 Y21.8925
G01 X4.6256 Y21.8876
G01 X4.6401 Y21.8839
G01 X4.6596 Y21.8808
G01 X4.6770 Y21.8799
G01 X5.0255 Y21.8800
G01 X5.0428 Y21.8811
G01 X5.0575 Y21.8833
G01 X5.0720 Y21.8869
G01 X5.0896 Y21.8930
G01 X5.1047 Y21.8999
G01 X6.1719 Y21.8999
G01 X6.2398 Y21.8320
G01 X6.2395 Y21.8295
G01 X6.2362 Y21.8169
G01 X6.2336 Y21.8020
G01 X6.2323 Y21.7832
G01 X6.2331 Y21.7631
G01 X6.2351 Y21.7481
G01 X6.2391 Y21.7310
G01 X6.2458 Y21.7121
G01 X6.2521 Y21.6983
G01 X6.2610 Y21.6831
G01 X6.2729 Y21.6670
G01 X6.2830 Y21.6557
G01 X6.2941 Y21.6455
G01 X6.3100 Y21.6332
G01 X6.3251 Y21.6241
G01 X6.3409 Y21.6165
G01 X6.3599 Y21.6099
G01 X6.3745 Y21.6062
G01 X6.3907 Y21.6038
G01 X6.5176 Y21.5913
G01 X6.6307 Y21.5570
G01 X6.7349 Y21.5012
G01 X6.8263 Y21.4263
G01 X6.8403 Y21.4092
G01 X6.8512 Y21.3972
G01 X8.3968 Y19.8516
G01 X8.4088 Y19.8408
G01 X8.4228 Y19.8304
G01 X8.4377 Y19.8215
G01 X8.4512 Y19.8151
G01 X8.4721 Y19.8076
G01 X8.4866 Y19.8040
G01 X8.5050 Y19.8014
G01 X8.5212 Y19.8006
G01 X8.5361 Y19.8013
G01 X8.5581 Y19.8045
G01 X8.5726 Y19.8082
G01 X8.5889 Y19.8141
G01 X8.6046 Y19.8215
G01 X8.6175 Y19.8291
G01 X8.6354 Y19.8424
G01 X8.6464 Y19.8525
G01 X8.6580 Y19.8653
G01 X8.6684 Y19.8793
G01 X8.6761 Y19.8921
G01 X8.6848 Y19.9099
G01 X8.6906 Y19.9263
G01 X8.6943 Y19.9407
G01 X8.6976 Y19.9628
G01 X8.6982 Y19.9777
G01 X8.6975 Y19.9934
G01 X8.6975 Y20.2763
G01 X8.7080 Y20.3829
G01 X8.7366 Y20.4770
G01 X8.7829 Y20.5637
G01 X8.8472 Y20.6421
G01 X8.8510 Y20.6457
G01 X8.8618 Y20.6577
G01 X8.8735 Y20.6737
G01 X8.8811 Y20.6865
G01 X8.8875 Y20.7000
G01 X8.8936 Y20.7163
G01 X8.8984 Y20.7343
G01 X8.9009 Y20.7502
G01 X8.9020 Y20.7725
G01 X8.9012 Y20.7874
G01 X8.8988 Y20.8033
G01 X8.8936 Y20.8237
G01 X8.8885 Y20.8378
G01 X8.8822 Y20.8513
G01 X8.8722 Y20.8684
G01 X8.8626 Y20.8814
G01 X8.8518 Y20.8934
G01 X8.8472 Y20.8979
G01 X8.7829 Y20.9763
G01 X8.7366 Y21.0630
G01 X8.7080 Y21.1571
G01 X8.6975 Y21.2637
G01 X8.6975 Y21.5463
G01 X8.7080 Y21.6529
G01 X8.7366 Y21.7470
G01 X8.7829 Y21.8337
G01 X8.8453 Y21.9097
G01 X8.9213 Y21.9721
G01 X9.0080 Y22.0184
G01 X9.1021 Y22.0470
G01 X9.2087 Y22.0575
G01 X9.8784 Y22.0575
G01 X9.8958 Y22.0583
G01 X9.9153 Y22.0614
G01 X9.9298 Y22.0651
G01 X9.9439 Y22.0701
G01 X9.9619 Y22.0784
G01 X9.9768 Y22.0873
G01 X9.9907 Y22.0977
G01 X10.0053 Y22.1111
G01 X10.0153 Y22.1222
G01 X10.0242 Y22.1342
G01 X10.0339 Y22.1499
G01 X14.4661 Y22.1499
G01 X14.4758 Y22.1342
G01 X14.4847 Y22.1222
G01 X14.4947 Y22.1111
G01 X14.5093 Y22.0977
G01 X14.5232 Y22.0873
G01 X14.5403 Y22.0773
G01 X14.5538 Y22.0710
G01 X14.5679 Y22.0659
G01 X14.5871 Y22.0609
G01 X14.6055 Y22.0582
G01 X14.6216 Y22.0575
G01 X15.7913 Y22.0575
G01 X15.8979 Y22.0470
G01 X16.0025 Y22.0153
G01 X16.0114 Y22.0122
G01 X16.0270 Y22.0083
G01 X16.0455 Y22.0057
G01 X16.0616 Y22.0049
G01 X16.3568 Y22.0049
G01 X16.3730 Y22.0057
G01 X16.3950 Y22.0078
G01 X16.5126 Y21.9963
G01 X16.6257 Y21.9620
G01 X16.7299 Y21.9062
G01 X16.8213 Y21.8313
G01 X16.8353 Y21.8142
G01 X16.8462 Y21.8022
G01 X17.6972 Y20.9512
G01 X17.7092 Y20.9403
G01 X17.7263 Y20.9263
G01 X17.8012 Y20.8349
G01 X17.8393 Y20.7637
G01 X17.8469 Y20.7509
G01 X17.8586 Y20.7349
G01 X17.8711 Y20.7211
G01 X17.8831 Y20.7103
G01 X17.8992 Y20.6987
G01 X17.9120 Y20.6910
G01 X17.9255 Y20.6846
G01 X17.9417 Y20.6785
G01 X17.9609 Y20.6735
G01 X17.9781 Y20.6710
G01 X17.9955 Y20.6701
G01 X18.0128 Y20.6710
G01 X18.0300 Y20.6735
G01 X18.0445 Y20.6771
G01 X18.0632 Y20.6836
G01 X18.0789 Y20.6910
G01 X18.0918 Y20.6987
G01 X18.1078 Y20.7103
G01 X18.1207 Y20.7220
G01 X18.1307 Y20.7330
G01 X18.1427 Y20.7488
G01 X18.1516 Y20.7637
G01 X18.1580 Y20.7772
G01 X18.1649 Y20.7958
G01 X18.1695 Y20.8151
G01 X18.1717 Y20.8298
G01 X18.1725 Y20.8460
G01 X18.1725 Y21.1538
G01 X18.1847 Y21.2774
G01 X18.2182 Y21.3880
G01 X18.2501 Y21.4476
G01 X18.2569 Y21.4622
G01 X18.2624 Y21.4774
G01 X18.2674 Y21.4979
G01 X18.2696 Y21.5126
G01 X18.2704 Y21.5312
G01 X18.2696 Y21.5473
G01 X18.2674 Y21.5621
G01 X18.2628 Y21.5814
G01 X18.2569 Y21.5977
G01 X18.2506 Y21.6113
G01 X18.2406 Y21.6283
G01 X18.2302 Y21.6423
G01 X18.2194 Y21.6543
G01 X18.1068 Y21.7670
G01 X17.9809 Y21.9553
G01 X17.8943 Y22.1646
G01 X17.8501 Y22.3867
G01 X17.8501 Y22.6133
G01 X17.8943 Y22.8354
G01 X17.9809 Y23.0447
G01 X18.1068 Y23.2330
G01 X18.2670 Y23.3932
G01 X18.4553 Y23.5191
G01 X18.6646 Y23.6057
G01 X18.8867 Y23.6499
G01 X19.1133 Y23.6499
G01 X19.3354 Y23.6057
G01 X19.5447 Y23.5191
G01 X19.7330 Y23.3932
G01 X19.8932 Y23.2330
G01 X20.0191 Y23.0447
G01 X20.1057 Y22.8354
G01 X20.1499 Y22.6133
G01 X20.1499 Y22.3867
G01 X20.1057 Y22.1646
G01 X20.0191 Y21.9553
G01 X19.8932 Y21.7670
G01 X19.7806 Y21.6543
G01 X19.7698 Y21.6423
G01 X19.7601 Y21.6294
G01 X19.7505 Y21.6134
G01 X19.7422 Y21.5954
G01 X19.7372 Y21.5814
G01 X19.7335 Y21.5669
G01 X19.7306 Y21.5486
G01 X19.7296 Y21.5300
G01 X19.7304 Y21.5126
G01 X19.7330 Y21.4954
G01 X19.7372 Y21.4786
G01 X19.7431 Y21.4622
G01 X19.7499 Y21.4476
G01 X19.7818 Y21.3880
G01 X19.8153 Y21.2774
G01 X19.8275 Y21.1538
G01 X19.8275 Y20.5962
G01 X19.8153 Y20.4726
G01 X19.7818 Y20.3620
G01 X19.7273 Y20.2602
G01 X19.6541 Y20.1709
G01 X19.6126 Y20.1369
G01 X19.6006 Y20.1261
G01 X19.5880 Y20.1123
G01 X19.5784 Y20.0994
G01 X19.5677 Y20.0813
G01 X19.5613 Y20.0678
G01 X19.5555 Y20.0514
G01 X19.5513 Y20.0345
G01 X19.5490 Y20.0198
G01 X19.5479 Y19.9988
G01 X19.5487 Y19.9826
G01 X19.5508 Y19.9679
G01 X19.5555 Y19.9486
G01 X19.5613 Y19.9322
G01 X19.5677 Y19.9187
G01 X19.5784 Y19.9006
G01 X19.5880 Y19.8877
G01 X19.6006 Y19.8739
G01 X19.6126 Y19.8631
G01 X19.6541 Y19.8291
G01 X19.7273 Y19.7398
G01 X19.7818 Y19.6380
G01 X19.8153 Y19.5274
G01 X19.8275 Y19.4038
G01 X19.8275 Y18.8462
G01 X19.8153 Y18.7226
G01 X19.7818 Y18.6120
G01 X19.7273 Y18.5102
G01 X19.6541 Y18.4209
G01 X19.6128 Y18.3870
G01 X19.6018 Y18.3769
G01 X19.5901 Y18.3640
G01 X19.5798 Y18.3501
G01 X19.5708 Y18.3352
G01 X19.5634 Y18.3195
G01 X19.5569 Y18.3007
G01 X19.5533 Y18.2863
G01 X19.5511 Y18.2715
G01 X19.5500 Y18.2529
G01 X19.5499 Y17.8634
G01 X19.5511 Y17.8436
G01 X19.5533 Y17.8288
G01 X19.5569 Y17.8144
G01 X19.5634 Y17.7956
G01 X19.5708 Y17.7799
G01 X19.5798 Y17.7650
G01 X19.5901 Y17.7511
G01 X19.6018 Y17.7382
G01 X19.6128 Y17.7281
G01 X19.6486 Y17.6986
G01 X19.6924 Y17.6454
G01 X19.7249 Y17.5846
G01 X19.7449 Y17.5186
G01 X19.7525 Y17.4413
G01 X19.7525 Y17.1081
G01 X19.7533 Y17.0907
G01 X19.7564 Y17.0712
G01 X19.7601 Y17.0567
G01 X19.7660 Y17.0403
G01 X19.7746 Y17.0225
G01 X19.7823 Y17.0097
G01 X19.7919 Y16.9967
G01 X19.8043 Y16.9829
G01 X19.8163 Y16.9720
G01 X19.8229 Y16.9669
G01 X19.9157 Y16.8907
G01 X19.9282 Y16.8755
G01 X19.9391 Y16.8636
G01 X21.3018 Y15.5009
G01 X21.3138 Y15.4901
G01 X21.3278 Y15.4798
G01 X21.3427 Y15.4708
G01 X21.3584 Y15.4634
G01 X21.3747 Y15.4576
G01 X21.3916 Y15.4533
G01 X21.4088 Y15.4508
G01 X21.4249 Y15.4500
G01 X22.0705 Y15.4499
G01 X22.0878 Y15.4508
G01 X22.1050 Y15.4533
G01 X22.1218 Y15.4576
G01 X22.1359 Y15.4625
G01 X22.1561 Y15.4721
G01 X22.1688 Y15.4798
G01 X22.1828 Y15.4901
G01 X22.1957 Y15.5018
G01 X22.2057 Y15.5128
G01 X22.2190 Y15.5307
G01 X22.2266 Y15.5435
G01 X22.2340 Y15.5592
G01 X22.2399 Y15.5756
G01 X22.2436 Y15.5901
G01 X22.2468 Y15.6109
G01 X22.2475 Y15.6270
G01 X22.2475 Y17.4413
G01 X22.2551 Y17.5186
G01 X22.2751 Y17.5846
G01 X22.2928 Y17.6177
G01 X22.2991 Y17.6312
G01 X22.3042 Y17.6452
G01 X22.3089 Y17.6632
G01 X22.3114 Y17.6791
G01 X22.3126 Y17.6989
G01 X22.3126 Y17.8767
G01 X22.3118 Y17.8928
G01 X22.3086 Y17.9136
G01 X22.3049 Y17.9281
G01 X22.3000 Y17.9422
G01 X22.2917 Y17.9602
G01 X22.2813 Y17.9771
G01 X22.2724 Y17.9890
G01 X22.2598 Y18.0028
G01 X22.2478 Y18.0136
G01 X22.2084 Y18.0459
G01 X22.1352 Y18.1352
G01 X22.0807 Y18.2370
G01 X22.0472 Y18.3476
G01 X22.0350 Y18.4712
G01 X22.0350 Y18.9288
G01 X22.0472 Y19.0524
G01 X22.0807 Y19.1630
G01 X22.1352 Y19.2648
G01 X22.2084 Y19.3541
G01 X22.2642 Y19.3999
G01 X22.2762 Y19.4107
G01 X22.2888 Y19.4244
G01 X22.2998 Y19.4394
G01 X22.3081 Y19.4533
G01 X22.3155 Y19.4690
G01 X22.3213 Y19.4854
G01 X22.3250 Y19.4998
G01 X22.3283 Y19.5218
G01 X22.3290 Y19.5368
G01 X22.3281 Y19.5541
G01 X22.3256 Y19.5713
G01 X22.3213 Y19.5882
G01 X22.3155 Y19.6045
G01 X22.3092 Y19.6180
G01 X22.2998 Y19.6341
G01 X22.2903 Y19.6471
G01 X22.2753 Y19.6636
G01 X22.2642 Y19.6736
G01 X22.2523 Y19.6826
G01 X22.2354 Y19.6929
G01 X22.2174 Y19.7012
G01 X22.2045 Y19.7058
G01 X22.1760 Y19.7145
G01 X22.0805 Y19.7655
G01 X21.9968 Y19.8343
G01 X21.9280 Y19.9180
G01 X21.8770 Y20.0135
G01 X21.8455 Y20.1172
G01 X21.8343 Y20.2311
G01 X21.8354 Y20.2698
G01 X21.9156 Y20.3499
G01 X22.3605 Y20.3499
G01 X22.3714 Y20.3270
G01 X22.3846 Y20.3048
G01 X22.4012 Y20.2820
G01 X22.4217 Y20.2592
G01 X22.4426 Y20.2403
G01 X22.4673 Y20.2221
G01 X22.4895 Y20.2089
G01 X22.5127 Y20.1979
G01 X22.5415 Y20.1874
G01 X22.5689 Y20.1805
G01 X22.5968 Y20.1764
G01 X22.6250 Y20.1750
G01 X23.2012 Y20.1750
G01 X23.2306 Y20.1767
G01 X23.2561 Y20.1805
G01 X23.2811 Y20.1867
G01 X23.3100 Y20.1969
G01 X23.3355 Y20.2089
G01 X23.3617 Y20.2249
G01 X23.3824 Y20.2403
G01 X23.4015 Y20.2575
G01 X23.4222 Y20.2801
G01 X23.4397 Y20.3038
G01 X23.4547 Y20.3292
G01 X23.4656 Y20.3525
G01 X23.4744 Y20.3767
G01 X23.4820 Y20.4064
G01 X23.4863 Y20.4368
G01 X23.4875 Y20.4625
G01 X23.4875 Y20.9375
G01 X23.4861 Y20.9657
G01 X23.4820 Y20.9936
G01 X23.4751 Y21.0210
G01 X23.4665 Y21.0452
G01 X23.4536 Y21.0730
G01 X23.4390 Y21.0972
G01 X23.4238 Y21.1180
G01 X23.4033 Y21.1408
G01 X23.3805 Y21.1613
G01 X23.3597 Y21.1765
G01 X23.3355 Y21.1911
G01 X23.3077 Y21.2040
G01 X23.2835 Y21.2126
G01 X23.2626 Y21.2179
G01 X23.2626 Y21.6469
G01 X23.3449 Y21.7292
G01 X23.3511 Y21.7305
G01 X23.3665 Y21.7348
G01 X23.3814 Y21.7405
G01 X23.3969 Y21.7481
G01 X23.4115 Y21.7571
G01 X23.4232 Y21.7660
G01 X23.4386 Y21.7801
G01 X23.4491 Y21.7921
G01 X23.4592 Y21.8061
G01 X23.4679 Y21.8209
G01 X23.4742 Y21.8343
G01 X23.4814 Y21.8551
G01 X23.4849 Y21.8694
G01 X23.4874 Y21.8877
G01 X23.4880 Y21.9036
G01 X23.4871 Y21.9208
G01 X23.4846 Y21.9378
G01 X23.4800 Y21.9556
G01 X23.4746 Y21.9707
G01 X23.3942 Y22.1646
G01 X23.3501 Y22.3867
G01 X23.3501 Y22.6133
G01 X23.3942 Y22.8354
G01 X23.4809 Y23.0447
G01 X23.6068 Y23.2330
G01 X23.7670 Y23.3932
G01 X23.9553 Y23.5191
G01 X24.1646 Y23.6057
G01 X24.3867 Y23.6499
G01 X24.6133 Y23.6499
G01 X24.8354 Y23.6057
G01 X25.0447 Y23.5191
G01 X25.2330 Y23.3932
G01 X25.3932 Y23.2330
G01 X25.5191 Y23.0447
G01 X25.6057 Y22.8354
G01 X25.6499 Y22.6133
G01 X25.6499 Y22.3867
G01 X25.6057 Y22.1646
G01 X25.5191 Y21.9553
G01 X25.3932 Y21.7670
G01 X25.3626 Y21.7363
G01 X25.3526 Y21.7252
G01 X25.3423 Y21.7112
G01 X25.3333 Y21.6963
G01 X25.3259 Y21.6806
G01 X25.3201 Y21.6642
G01 X25.3158 Y21.6474
G01 X25.3133 Y21.6302
G01 X25.3125 Y21.6141
G01 X25.3125 Y21.5258
G01 X25.3133 Y21.5096
G01 X25.3154 Y21.4949
G01 X25.3204 Y21.4744
G01 X25.3259 Y21.4592
G01 X25.3333 Y21.4435
G01 X25.3423 Y21.4286
G01 X25.3526 Y21.4147
G01 X25.3643 Y21.4018
G01 X25.3772 Y21.3901
G01 X25.3911 Y21.3798
G01 X25.4060 Y21.3708
G01 X25.4217 Y21.3634
G01 X25.4405 Y21.3569
G01 X25.4550 Y21.3533
G01 X25.4697 Y21.3511
G01 X25.4870 Y21.3500
G01 X25.7394 Y21.3500
G01 X25.7556 Y21.3508
G01 X25.7751 Y21.3539
G01 X25.7896 Y21.3576
G01 X25.8060 Y21.3634
G01 X25.8217 Y21.3708
G01 X25.8376 Y21.3805
G01 X25.8505 Y21.3901
G01 X25.8643 Y21.4027
G01 X25.8743 Y21.4137
G01 X25.9014 Y21.4467
G01 X25.9546 Y21.4904
G01 X26.0154 Y21.5229
G01 X26.0814 Y21.5429
G01 X26.1587 Y21.5505
G01 X27.6413 Y21.5505
G01 X27.7186 Y21.5429
G01 X27.7846 Y21.5229
G01 X27.8454 Y21.4904
G01 X27.8986 Y21.4467
G01 X27.9424 Y21.3934
G01 X27.9749 Y21.3326
G01 X27.9949 Y21.2667
G01 X28.0025 Y21.1894
G01 X28.0025 Y20.2068
G01 X27.9949 Y20.1295
G01 X27.9749 Y20.0635
G01 X27.9424 Y20.0027
G01 X27.8986 Y19.9494
G01 X27.8454 Y19.9057
G01 X27.7846 Y19.8732
G01 X27.7663 Y19.8676
G01 X27.7511 Y19.8622
G01 X27.7354 Y19.8547
G01 X27.7215 Y19.8465
G01 X27.7047 Y19.8338
G01 X27.6937 Y19.8238
G01 X27.6820 Y19.8109
G01 X27.6716 Y19.7969
G01 X27.6639 Y19.7842
G01 X27.6544 Y19.7640
G01 X27.6494 Y19.7500
G01 X27.6452 Y19.7331
G01 X27.6426 Y19.7159
G01 X27.6418 Y19.6986
G01 X27.6426 Y19.6812
G01 X27.6452 Y19.6640
G01 X27.6494 Y19.6472
G01 X27.6544 Y19.6331
G01 X27.6639 Y19.6130
G01 X27.6716 Y19.6002
G01 X27.6820 Y19.5862
G01 X27.6937 Y19.5734
G01 X27.7047 Y19.5633
G01 X27.7215 Y19.5507
G01 X27.7354 Y19.5424
G01 X27.7511 Y19.5350
G01 X27.7663 Y19.5295
G01 X27.7846 Y19.5239
G01 X27.8454 Y19.4914
G01 X27.8986 Y19.4477
G01 X27.9424 Y19.3944
G01 X27.9749 Y19.3336
G01 X27.9949 Y19.2677
G01 X28.0025 Y19.1904
G01 X28.0025 Y18.2078
G01 X27.9949 Y18.1305
G01 X27.9749 Y18.0645
G01 X27.9424 Y18.0037
G01 X27.8986 Y17.9504
G01 X27.8454 Y17.9067
G01 X27.7846 Y17.8742
G01 X27.7621 Y17.8674
G01 X27.7469 Y17.8619
G01 X27.7312 Y17.8545
G01 X27.7173 Y17.8462
G01 X27.7005 Y17.8336
G01 X27.6895 Y17.8235
G01 X27.6778 Y17.8106
G01 X27.6674 Y17.7967
G01 X27.6585 Y17.7818
G01 X27.6511 Y17.7661
G01 X27.6460 Y17.7520
G01 X27.6406 Y17.7304
G01 X27.6385 Y17.7157
G01 X27.6376 Y17.6983
G01 X27.6385 Y17.6810
G01 X27.6410 Y17.6638
G01 X27.6452 Y17.6469
G01 X27.6511 Y17.6306
G01 X27.6585 Y17.6149
G01 X27.6674 Y17.5999
G01 X27.6778 Y17.5860
G01 X27.6895 Y17.5731
G01 X27.7043 Y17.5599
G01 X27.7163 Y17.5511
G01 X27.7312 Y17.5422
G01 X27.7492 Y17.5339
G01 X27.7621 Y17.5293
G01 X27.7846 Y17.5224
G01 X27.8454 Y17.4899
G01 X27.8986 Y17.4462
G01 X27.9424 Y17.3929
G01 X27.9749 Y17.3321
G01 X27.9949 Y17.2662
G01 X28.0025 Y17.1889
G01 X28.0025 Y16.2063
G01 X27.9949 Y16.1290
G01 X27.9749 Y16.0630
G01 X27.9424 Y16.0022
G01 X27.8986 Y15.9489
G01 X27.8454 Y15.9052
G01 X27.7846 Y15.8727
G01 X27.7705 Y15.8684
G01 X27.7542 Y15.8624
G01 X27.7396 Y15.8555
G01 X27.7257 Y15.8472
G01 X27.7089 Y15.8346
G01 X27.6978 Y15.8245
G01 X27.6862 Y15.8117
G01 X27.6758 Y15.7977
G01 X27.6681 Y15.7849
G01 X27.6586 Y15.7648
G01 X27.6536 Y15.7507
G01 X27.6494 Y15.7339
G01 X27.6468 Y15.7167
G01 X27.6460 Y15.6993
G01 X27.6468 Y15.6820
G01 X27.6494 Y15.6648
G01 X27.6536 Y15.6479
G01 X27.6586 Y15.6339
G01 X27.6681 Y15.6137
G01 X27.6758 Y15.6010
G01 X27.6862 Y15.5870
G01 X27.6978 Y15.5741
G01 X27.7089 Y15.5641
G01 X27.7257 Y15.5514
G01 X27.7396 Y15.5432
G01 X27.7542 Y15.5362
G01 X27.7705 Y15.5303
G01 X27.7846 Y15.5260
G01 X27.8454 Y15.4935
G01 X27.8986 Y15.4498
G01 X27.9424 Y15.3965
G01 X27.9749 Y15.3357
G01 X27.9949 Y15.2697
G01 X28.0025 Y15.1924
G01 X28.0025 Y14.2098
G01 X27.9949 Y14.1325
G01 X27.9749 Y14.0666
G01 X27.9424 Y14.0058
G01 X27.8986 Y13.9525
G01 X27.8454 Y13.9088
G01 X27.7846 Y13.8763
G01 X27.7663 Y13.8707
G01 X27.7511 Y13.8652
G01 X27.7354 Y13.8578
G01 X27.7215 Y13.8495
G01 X27.7047 Y13.8369
G01 X27.6937 Y13.8268
G01 X27.6820 Y13.8140
G01 X27.6716 Y13.8000
G01 X27.6639 Y13.7872
G01 X27.6544 Y13.7671
G01 X27.6494 Y13.7530
G01 X27.6452 Y13.7362
G01 X27.6426 Y13.7190
G01 X27.6418 Y13.7016
G01 X27.6426 Y13.6843
G01 X27.6452 Y13.6671
G01 X27.6494 Y13.6502
G01 X27.6544 Y13.6362
G01 X27.6639 Y13.6160
G01 X27.6716 Y13.6033
G01 X27.6820 Y13.5893
G01 X27.6937 Y13.5764
G01 X27.7047 Y13.5664
G01 X27.7215 Y13.5537
G01 X27.7354 Y13.5455
G01 X27.7511 Y13.5380
G01 X27.7663 Y13.5326
G01 X27.7846 Y13.5270
G01 X27.8454 Y13.4945
G01 X27.8986 Y13.4508
G01 X27.9424 Y13.3975
G01 X27.9749 Y13.3367
G01 X27.9949 Y13.2707
G01 X28.0025 Y13.1934
G01 X28.0025 Y12.2108
G01 X27.9949 Y12.1335
G01 X27.9749 Y12.0676
G01 X27.9424 Y12.0068
G01 X27.8986 Y11.9535
G01 X27.8454 Y11.9098
G01 X27.7846 Y11.8773
G01 X27.7621 Y11.8704
G01 X27.7492 Y11.8658
G01 X27.7312 Y11.8575
G01 X27.7163 Y11.8486
G01 X27.7043 Y11.8398
G01 X27.6895 Y11.8266
G01 X27.6778 Y11.8137
G01 X27.6674 Y11.7998
G01 X27.6585 Y11.7848
G01 X27.6511 Y11.7691
G01 X27.6452 Y11.7528
G01 X27.6410 Y11.7359
G01 X27.6385 Y11.7187
G01 X27.6376 Y11.7014
G01 X27.6385 Y11.6840
G01 X27.6406 Y11.6693
G01 X27.6460 Y11.6477
G01 X27.6511 Y11.6336
G01 X27.6585 Y11.6179
G01 X27.6674 Y11.6030
G01 X27.6778 Y11.5891
G01 X27.6895 Y11.5762
G01 X27.7005 Y11.5661
G01 X27.7173 Y11.5535
G01 X27.7312 Y11.5452
G01 X27.7469 Y11.5378
G01 X27.7621 Y11.5323
G01 X27.7846 Y11.5255
G01 X27.8454 Y11.4930
G01 X27.8986 Y11.4493
G01 X27.9424 Y11.3960
G01 X27.9749 Y11.3352
G01 X27.9949 Y11.2692
G01 X28.0025 Y11.1919
G01 X28.0025 Y10.2093
G01 X27.9949 Y10.1320
G01 X27.9749 Y10.0661
G01 X27.9424 Y10.0053
G01 X27.8986 Y9.9520
G01 X27.8454 Y9.9083
G01 X27.7846 Y9.8758
G01 X27.7663 Y9.8702
G01 X27.7511 Y9.8647
G01 X27.7354 Y9.8573
G01 X27.7215 Y9.8490
G01 X27.7047 Y9.8364
G01 X27.6937 Y9.8263
G01 X27.6820 Y9.8135
G01 X27.6716 Y9.7995
G01 X27.6639 Y9.7867
G01 X27.6544 Y9.7666
G01 X27.6494 Y9.7525
G01 X27.6452 Y9.7357
G01 X27.6426 Y9.7185
G01 X27.6418 Y9.7011
G01 X27.6426 Y9.6838
G01 X27.6452 Y9.6666
G01 X27.6494 Y9.6497
G01 X27.6544 Y9.6357
G01 X27.6639 Y9.6155
G01 X27.6716 Y9.6028
G01 X27.6820 Y9.5888
G01 X27.6937 Y9.5759
G01 X27.7047 Y9.5659
G01 X27.7215 Y9.5532
G01 X27.7354 Y9.5450
G01 X27.7511 Y9.5375
G01 X27.7663 Y9.5321
G01 X27.7846 Y9.5265
G01 X27.8454 Y9.4940
G01 X27.8986 Y9.4503
G01 X27.9424 Y9.3970
G01 X27.9749 Y9.3362
G01 X27.9949 Y9.2702
G01 X28.0025 Y9.1929
G01 X28.0025 Y8.2103
G01 X27.9949 Y8.1330
G01 X27.9749 Y8.0671
G01 X27.9424 Y8.0063
G01 X27.8986 Y7.9530
G01 X27.8454 Y7.9093
G01 X27.7846 Y7.8768
G01 X27.7186 Y7.8568
G01 X27.6413 Y7.8492
G01 X26.2697 Y7.8491
G01 X26.2511 Y7.8480
G01 X26.2364 Y7.8458
G01 X26.2219 Y7.8422
G01 X26.2032 Y7.8357
G01 X26.1875 Y7.8282
G01 X26.1706 Y7.8179
G01 X26.1586 Y7.8090
G01 X26.1457 Y7.7973
G01 X24.9512 Y6.6028
G01 X24.9403 Y6.5908
G01 X24.9263 Y6.5737
G01 X24.8349 Y6.4988
G01 X24.7307 Y6.4430
G01 X24.6863 Y6.4296
G01 X24.6711 Y6.4242
G01 X24.6543 Y6.4163
G01 X24.6384 Y6.4067
G01 X24.6254 Y6.3970
G01 X24.6117 Y6.3845
G01 X24.6017 Y6.3734
G01 X24.5791 Y6.3459
G01 X24.4897 Y6.2725
G01 X24.4777 Y6.2617
G01 X24.4651 Y6.2480
G01 X24.4541 Y6.2330
G01 X24.4447 Y6.2170
G01 X24.4384 Y6.2034
G01 X24.4333 Y6.1894
G01 X24.4283 Y6.1702
G01 X24.4256 Y6.1506
G01 X24.4249 Y6.1357
G01 X24.4249 Y6.0261
G01 X24.4257 Y6.0100
G01 X24.4283 Y5.9916
G01 X24.4319 Y5.9771
G01 X24.4394 Y5.9561
G01 X24.4458 Y5.9427
G01 X24.4548 Y5.9278
G01 X24.4651 Y5.9138
G01 X24.4751 Y5.9027
G01 X24.6636 Y5.7141
G01 X24.6755 Y5.7032
G01 X24.6907 Y5.6907
G01 X24.7595 Y5.6070
G01 X24.8105 Y5.5115
G01 X24.8420 Y5.4078
G01 X24.8526 Y5.3000
G01 X24.8507 Y5.2804
G01 X24.8499 Y5.2643
G01 X24.8500 Y4.8750
G01 X24.8508 Y4.8589
G01 X24.8533 Y4.8417
G01 X24.8576 Y4.8248
G01 X24.8630 Y4.8096
G01 X24.8708 Y4.7928
G01 X24.8812 Y4.7758
G01 X24.8901 Y4.7639
G01 X24.9001 Y4.7528
G01 X24.9137 Y4.7401
G01 X24.9286 Y4.7290
G01 X24.9414 Y4.7213
G01 X24.9954 Y4.6924
G01 X25.0486 Y4.6486
G01 X25.0924 Y4.5954
G01 X25.1249 Y4.5346
G01 X25.1449 Y4.4686
G01 X25.1525 Y4.3913
G01 X25.1525 Y3.7587
G01 X25.1449 Y3.6814
G01 X25.1249 Y3.6154
G01 X25.0924 Y3.5546
G01 X25.0486 Y3.5014
G01 X24.9954 Y3.4576
G01 X24.9346 Y3.4251
G01 X24.8686 Y3.4051
G01 X24.7913 Y3.3975
G01 X23.7587 Y3.3975
G01 X23.6814 Y3.4051
G01 X23.6154 Y3.4251
G01 X23.5546 Y3.4576
G01 X23.5195 Y3.4864
G01 X23.5075 Y3.4952
G01 X23.4915 Y3.5047
G01 X23.4769 Y3.5116
G01 X23.4582 Y3.5181
G01 X23.4437 Y3.5217
G01 X23.4289 Y3.5239
G01 X23.4116 Y3.5250
G01 X20.9909 Y3.5251
G01 X20.9735 Y3.5242
G01 X20.9539 Y3.5211
G01 X20.9395 Y3.5174
G01 X20.9254 Y3.5125
G01 X20.9096 Y3.5053
G01 X20.8905 Y3.4938
G01 X20.8785 Y3.4849
G01 X20.8454 Y3.4576
G01 X20.7846 Y3.4251
G01 X20.7186 Y3.4051
G01 X20.6413 Y3.3975
G01 X19.6087 Y3.3975
G01 X19.5314 Y3.4051
G01 X19.4654 Y3.4251
G01 X19.4046 Y3.4576
G01 X19.3514 Y3.5014
G01 X19.3076 Y3.5546
G01 X19.2751 Y3.6154
G01 X19.2551 Y3.6814
G01 X19.2475 Y3.7587
G01 X19.2475 Y4.3913
G01 X19.2551 Y4.4686
G01 X19.2751 Y4.5346
G01 X19.3076 Y4.5954
G01 X19.3514 Y4.6486
G01 X19.4046 Y4.6924
G01 X19.4654 Y4.7249
G01 X19.5314 Y4.7449
G01 X19.6087 Y4.7525
G01 X20.6413 Y4.7525
G01 X20.7186 Y4.7449
G01 X20.7846 Y4.7249
G01 X20.8454 Y4.6924
G01 X20.8785 Y4.6651
G01 X20.8905 Y4.6562
G01 X20.9096 Y4.6447
G01 X20.9254 Y4.6375
G01 X20.9395 Y4.6326
G01 X20.9539 Y4.6289
G01 X20.9735 Y4.6258
G01 X20.9896 Y4.6250
G01 X23.4104 Y4.6250
G01 X23.4265 Y4.6258
G01 X23.4437 Y4.6283
G01 X23.4605 Y4.6326
G01 X23.4791 Y4.6394
G01 X23.4926 Y4.6458
G01 X23.5085 Y4.6555
G01 X23.5205 Y4.6644
G01 X23.5546 Y4.6924
G01 X23.6154 Y4.7249
G01 X23.6256 Y4.7280
G01 X23.6396 Y4.7330
G01 X23.6586 Y4.7421
G01 X23.6714 Y4.7498
G01 X23.6834 Y4.7586
G01 X23.6982 Y4.7718
G01 X23.7114 Y4.7866
G01 X23.7202 Y4.7986
G01 X23.7286 Y4.8125
G01 X23.7366 Y4.8293
G01 X23.7431 Y4.8480
G01 X23.7467 Y4.8625
G01 X23.7489 Y4.8772
G01 X23.7501 Y4.8970
G01 X23.7501 Y4.9989
G01 X23.7492 Y5.0162
G01 X23.7467 Y5.0334
G01 X23.7424 Y5.0503
G01 X23.7366 Y5.0666
G01 X23.7297 Y5.0812
G01 X23.7188 Y5.0992
G01 X23.7099 Y5.1112
G01 X23.6991 Y5.1232
G01 X23.5114 Y5.3109
G01 X23.4995 Y5.3218
G01 X23.4843 Y5.3343
G01 X23.4155 Y5.4180
G01 X23.3645 Y5.5135
G01 X23.3330 Y5.6172
G01 X23.3224 Y5.7250
G01 X23.3243 Y5.7446
G01 X23.3251 Y5.7607
G01 X23.3250 Y6.1369
G01 X23.3242 Y6.1530
G01 X23.3217 Y6.1702
G01 X23.3174 Y6.1871
G01 X23.3116 Y6.2034
G01 X23.3042 Y6.2191
G01 X23.2952 Y6.2340
G01 X23.2849 Y6.2480
G01 X23.2723 Y6.2617
G01 X23.2603 Y6.2726
G01 X23.1709 Y6.3459
G01 X23.1361 Y6.3884
G01 X23.1252 Y6.4003
G01 X23.1133 Y6.4112
G01 X23.0963 Y6.4236
G01 X23.0835 Y6.4312
G01 X23.0666 Y6.4391
G01 X23.0514 Y6.4445
G01 X23.0345 Y6.4487
G01 X23.0174 Y6.4513
G01 X23.0000 Y6.4521
G01 X22.9826 Y6.4513
G01 X22.9655 Y6.4487
G01 X22.9486 Y6.4445
G01 X22.9322 Y6.4387
G01 X22.9165 Y6.4312
G01 X22.9037 Y6.4236
G01 X22.8867 Y6.4112
G01 X22.8748 Y6.4003
G01 X22.8639 Y6.3884
G01 X22.8291 Y6.3459
G01 X22.7398 Y6.2727
G01 X22.6380 Y6.2182
G01 X22.5274 Y6.1847
G01 X22.4038 Y6.1725
G01 X21.8462 Y6.1725
G01 X21.7226 Y6.1847
G01 X21.6120 Y6.2182
G01 X21.5102 Y6.2727
G01 X21.4639 Y6.3106
G01 X21.4509 Y6.3202
G01 X21.4360 Y6.3292
G01 X21.4203 Y6.3366
G01 X21.4039 Y6.3424
G01 X21.3871 Y6.3467
G01 X21.3687 Y6.3493
G01 X21.3525 Y6.3501
G01 X20.0434 Y6.3501
G01 X20.0236 Y6.3489
G01 X20.0088 Y6.3467
G01 X19.9944 Y6.3431
G01 X19.9756 Y6.3366
G01 X19.9578 Y6.3279
G01 X19.9450 Y6.3202
G01 X19.9320 Y6.3106
G01 X19.9182 Y6.2982
G01 X19.9081 Y6.2872
G01 X19.8976 Y6.2734
G01 X19.8932 Y6.2670
G01 X19.7330 Y6.1068
G01 X19.5447 Y5.9809
G01 X19.3354 Y5.8943
G01 X19.1133 Y5.8501
G01 X18.8867 Y5.8501
G01 X18.6646 Y5.8943
G01 X18.4553 Y5.9809
G01 X18.2670 Y6.1068
G01 X18.1068 Y6.2670
G01 X17.9809 Y6.4553
G01 X17.8943 Y6.6646
G01 X17.8501 Y6.8867
G01 X17.8501 Y7.1133
G01 X17.8943 Y7.3354
G01 X17.9809 Y7.5447
G01 X18.1068 Y7.7330
G01 X18.2670 Y7.8932
G01 X18.4553 Y8.0191
G01 X18.6646 Y8.1057
G01 X18.8867 Y8.1499
G01 X19.1133 Y8.1499
G01 X19.3354 Y8.1057
G01 X19.5447 Y8.0191
G01 X19.7330 Y7.8932
G01 X19.8932 Y7.7330
G01 X19.8976 Y7.7266
G01 X19.9081 Y7.7128
G01 X19.9182 Y7.7018
G01 X19.9320 Y7.6894
G01 X19.9471 Y7.6785
G01 X19.9599 Y7.6708
G01 X19.9734 Y7.6644
G01 X19.9920 Y7.6576
G01 X20.0100 Y7.6531
G01 X20.0260 Y7.6508
G01 X20.0434 Y7.6499
G01 X21.2992 Y7.6500
G01 X21.3154 Y7.6508
G01 X21.3325 Y7.6533
G01 X21.3494 Y7.6576
G01 X21.3635 Y7.6625
G01 X21.3836 Y7.6721
G01 X21.3964 Y7.6798
G01 X21.4103 Y7.6901
G01 X21.4232 Y7.7018
G01 X21.4349 Y7.7147
G01 X21.4452 Y7.7286
G01 X21.4542 Y7.7435
G01 X21.4616 Y7.7592
G01 X21.4674 Y7.7756
G01 X21.4717 Y7.7925
G01 X21.4741 Y7.8084
G01 X21.4751 Y7.8270
G01 X21.4751 Y8.2177
G01 X21.4742 Y8.2351
G01 X21.4717 Y8.2523
G01 X21.4667 Y8.2715
G01 X21.4606 Y8.2877
G01 X21.4542 Y8.3012
G01 X21.4465 Y8.3140
G01 X21.4349 Y8.3301
G01 X21.4243 Y8.3418
G01 X21.3477 Y8.4352
G01 X21.2932 Y8.5370
G01 X21.2597 Y8.6476
G01 X21.2475 Y8.7712
G01 X21.2475 Y9.2288
G01 X21.2597 Y9.3524
G01 X21.2932 Y9.4630
G01 X21.3477 Y9.5648
G01 X21.4209 Y9.6541
G01 X21.4767 Y9.6999
G01 X21.4887 Y9.7107
G01 X21.5013 Y9.7244
G01 X21.5123 Y9.7394
G01 X21.5206 Y9.7533
G01 X21.5280 Y9.7690
G01 X21.5338 Y9.7854
G01 X21.5375 Y9.7998
G01 X21.5408 Y9.8218
G01 X21.5415 Y9.8368
G01 X21.5405 Y9.8553
G01 X21.5381 Y9.8713
G01 X21.5338 Y9.8882
G01 X21.5280 Y9.9045
G01 X21.5217 Y9.9180
G01 X21.5123 Y9.9341
G01 X21.5028 Y9.9471
G01 X21.4878 Y9.9636
G01 X21.4767 Y9.9736
G01 X21.4648 Y9.9826
G01 X21.4479 Y9.9929
G01 X21.4299 Y10.0012
G01 X21.4170 Y10.0058
G01 X21.3885 Y10.0145
G01 X21.2930 Y10.0655
G01 X21.2093 Y10.1343
G01 X21.1405 Y10.2180
G01 X21.0895 Y10.3135
G01 X21.0580 Y10.4172
G01 X21.0468 Y10.5311
G01 X21.0479 Y10.5698
G01 X21.1281 Y10.6499
G01 X21.5730 Y10.6499
G01 X21.5839 Y10.6270
G01 X21.5971 Y10.6048
G01 X21.6153 Y10.5801
G01 X21.6360 Y10.5575
G01 X21.6551 Y10.5403
G01 X21.6758 Y10.5249
G01 X21.7020 Y10.5089
G01 X21.7298 Y10.4960
G01 X21.7540 Y10.4874
G01 X21.7790 Y10.4811
G01 X21.8069 Y10.4767
G01 X21.8375 Y10.4750
G01 X22.4150 Y10.4751
G01 X22.4431 Y10.4767
G01 X22.4686 Y10.4805
G01 X22.4936 Y10.4867
G01 X22.5225 Y10.4969
G01 X22.5502 Y10.5102
G01 X22.5722 Y10.5235
G01 X22.5930 Y10.5387
G01 X22.6140 Y10.5575
G01 X22.6347 Y10.5801
G01 X22.6515 Y10.6028
G01 X22.6661 Y10.6270
G01 X22.6790 Y10.6548
G01 X22.6876 Y10.6790
G01 X22.6939 Y10.7040
G01 X22.6985 Y10.7331
G01 X22.7000 Y10.7625
G01 X22.7000 Y11.2375
G01 X22.6987 Y11.2645
G01 X22.6945 Y11.2936
G01 X22.6869 Y11.3233
G01 X22.6781 Y11.3475
G01 X22.6672 Y11.3708
G01 X22.6513 Y11.3976
G01 X23.7537 Y12.5000
G01 X24.3537 Y12.5001
G01 X24.3621 Y12.5015
G01 X24.3714 Y12.5048
G01 X24.3788 Y12.5091
G01 X24.3862 Y12.5155
G01 X24.3922 Y12.5233
G01 X24.3962 Y12.5309
G01 X24.3990 Y12.5402
G01 X24.4000 Y12.5488
G01 X24.4000 Y14.4500
G01 X24.3990 Y14.4598
G01 X24.3975 Y14.4657
G01 X24.3957 Y14.4703
G01 X24.3922 Y14.4767
G01 X24.3887 Y14.4817
G01 X24.3836 Y14.4870
G01 X24.3778 Y14.4916
G01 X24.3714 Y14.4952
G01 X24.3645 Y14.4978
G01 X24.3573 Y14.4995
G01 X24.3512 Y14.5000
G01 X23.5500 Y14.5000
G01 X23.5402 Y14.4990
G01 X23.5320 Y14.4966
G01 X23.5254 Y14.4935
G01 X23.5192 Y14.4894
G01 X23.5138 Y14.4845
G01 X23.5091 Y14.4788
G01 X23.5053 Y14.4725
G01 X23.5025 Y14.4657
G01 X23.5007 Y14.4585
G01 X23.5000 Y14.4512
G01 X23.5000 Y12.9537
G01 X22.0713 Y11.5250
G01 X21.8375 Y11.5250
G01 X21.8105 Y11.5237
G01 X21.7790 Y11.5189
G01 X21.7540 Y11.5126
G01 X21.7264 Y11.5026
G01 X21.6998 Y11.4898
G01 X21.6778 Y11.4765
G01 X21.6570 Y11.4613
G01 X21.6342 Y11.4408
G01 X21.6153 Y11.4199
G01 X21.5985 Y11.3972
G01 X21.5828 Y11.3708
G01 X21.5710 Y11.3452
G01 X21.5624 Y11.3210
G01 X21.5571 Y11.3001
G01 X21.0501 Y11.3001
G01 X21.0500 Y11.3592
G01 X21.0468 Y11.4689
G01 X21.0493 Y11.4946
G01 X21.0501 Y11.5107
G01 X21.0501 Y12.0413
G01 X21.0494 Y12.0562
G01 X21.0469 Y12.0746
G01 X21.0431 Y12.0903
G01 X21.0356 Y12.1113
G01 X21.0292 Y12.1248
G01 X21.0202 Y12.1397
G01 X21.0099 Y12.1536
G01 X20.9991 Y12.1656
G01 X20.9834 Y12.1797
G01 X20.9714 Y12.1885
G01 X20.9586 Y12.1962
G01 X20.9408 Y12.2049
G01 X20.9220 Y12.2114
G01 X20.9075 Y12.2150
G01 X20.8928 Y12.2172
G01 X20.8730 Y12.2184
G01 X20.8532 Y12.2172
G01 X20.8385 Y12.2150
G01 X20.8216 Y12.2107
G01 X20.8052 Y12.2049
G01 X20.7917 Y12.1986
G01 X20.7726 Y12.1871
G01 X20.7597 Y12.1774
G01 X20.7487 Y12.1674
G01 X20.7423 Y12.1605
G01 X20.6570 Y12.0905
G01 X20.5615 Y12.0395
G01 X20.4578 Y12.0080
G01 X20.3780 Y12.0002
G01 X20.3001 Y12.0781
G01 X20.3001 Y12.5000
G01 X20.3537 Y12.5001
G01 X20.3621 Y12.5015
G01 X20.3714 Y12.5048
G01 X20.3778 Y12.5084
G01 X20.3827 Y12.5121
G01 X20.3870 Y12.5164
G01 X20.3916 Y12.5222
G01 X20.3952 Y12.5286
G01 X20.3975 Y12.5343
G01 X20.3993 Y12.5415
G01 X20.3999 Y12.5475
G01 X20.4000 Y14.4500
G01 X20.3998 Y14.4549
G01 X20.3988 Y14.4610
G01 X20.3975 Y14.4657
G01 X20.3952 Y14.4714
G01 X20.3922 Y14.4767
G01 X20.3879 Y14.4827
G01 X20.3827 Y14.4879
G01 X20.3778 Y14.4916
G01 X20.3714 Y14.4952
G01 X20.3645 Y14.4978
G01 X20.3573 Y14.4995
G01 X20.3512 Y14.5000
G01 X19.5500 Y14.5000
G01 X19.5439 Y14.4996
G01 X19.5355 Y14.4978
G01 X19.5275 Y14.4947
G01 X19.5192 Y14.4894
G01 X19.5130 Y14.4836
G01 X19.5071 Y14.4757
G01 X19.5034 Y14.4680
G01 X19.5010 Y14.4598
G01 X19.5000 Y14.4512
G01 X19.5000 Y12.5488
G01 X19.5005 Y12.5427
G01 X19.5022 Y12.5355
G01 X19.5043 Y12.5297
G01 X19.5078 Y12.5233
G01 X19.5121 Y12.5173
G01 X19.5164 Y12.5130
G01 X19.5212 Y12.5091
G01 X19.5275 Y12.5053
G01 X19.5367 Y12.5018
G01 X19.5463 Y12.5001
G01 X19.5999 Y12.5000
G01 X19.5999 Y12.0781
G01 X19.5220 Y12.0002
G01 X19.4422 Y12.0080
G01 X19.3385 Y12.0395
G01 X19.2430 Y12.0905
G01 X19.1593 Y12.1593
G01 X19.0905 Y12.2430
G01 X19.0420 Y12.3338
G01 X19.0344 Y12.3466
G01 X19.0227 Y12.3627
G01 X19.0110 Y12.3755
G01 X18.9982 Y12.3872
G01 X18.9862 Y12.3962
G01 X18.9671 Y12.4076
G01 X18.9536 Y12.4139
G01 X18.9372 Y12.4198
G01 X18.9204 Y12.4240
G01 X18.9032 Y12.4266
G01 X18.8834 Y12.4274
G01 X18.8685 Y12.4266
G01 X18.8513 Y12.4240
G01 X18.8344 Y12.4198
G01 X18.8204 Y12.4148
G01 X18.8013 Y12.4059
G01 X18.7855 Y12.3962
G01 X18.7735 Y12.3872
G01 X18.7615 Y12.3764
G01 X18.7490 Y12.3627
G01 X18.6986 Y12.3014
G01 X18.6454 Y12.2576
G01 X18.5846 Y12.2251
G01 X18.5186 Y12.2051
G01 X18.4413 Y12.1975
G01 X17.6587 Y12.1975
G01 X17.5814 Y12.2051
G01 X17.5154 Y12.2251
G01 X17.4546 Y12.2576
G01 X17.4014 Y12.3014
G01 X17.3576 Y12.3546
G01 X17.3251 Y12.4154
G01 X17.3051 Y12.4814
G01 X17.2975 Y12.5587
G01 X17.2975 Y12.7230
G01 X17.2968 Y12.7379
G01 X17.2941 Y12.7575
G01 X17.2899 Y12.7744
G01 X17.2840 Y12.7908
G01 X17.2766 Y12.8065
G01 X17.2677 Y12.8214
G01 X17.2573 Y12.8353
G01 X17.2457 Y12.8482
G01 X17.2328 Y12.8599
G01 X17.2188 Y12.8702
G01 X17.2050 Y12.8786
G01 X17.1882 Y12.8866
G01 X17.1695 Y12.8931
G01 X17.1550 Y12.8967
G01 X17.1402 Y12.8989
G01 X17.1217 Y12.9000
G01 X16.3718 Y12.9001
G01 X16.3545 Y12.8992
G01 X16.3385 Y12.8969
G01 X16.3181 Y12.8917
G01 X16.3041 Y12.8866
G01 X16.2884 Y12.8792
G01 X16.2715 Y12.8688
G01 X16.2595 Y12.8599
G01 X16.2475 Y12.8491
G01 X14.7012 Y11.3028
G01 X14.6903 Y11.2908
G01 X14.6763 Y11.2737
G01 X14.5849 Y11.1988
G01 X14.4807 Y11.1430
G01 X14.3676 Y11.1087
G01 X14.2500 Y11.0972
G01 X14.2280 Y11.0993
G01 X14.2131 Y11.1000
G01 X14.1258 Y11.1000
G01 X14.1072 Y11.0989
G01 X14.0925 Y11.0967
G01 X14.0768 Y11.0928
G01 X14.0570 Y11.0856
G01 X14.0435 Y11.0792
G01 X14.0286 Y11.0702
G01 X14.0147 Y11.0599
G01 X14.0036 Y11.0499
G01 X13.9886 Y11.0334
G01 X13.9798 Y11.0214
G01 X13.9708 Y11.0065
G01 X13.9634 Y10.9908
G01 X13.9583 Y10.9767
G01 X13.9531 Y10.9563
G01 X13.9508 Y10.9404
G01 X13.9500 Y10.9255
G01 X13.9499 Y10.0089
G01 X13.9472 Y9.9976
G01 X13.9448 Y9.9816
G01 X13.9438 Y9.9618
G01 X13.9447 Y9.9457
G01 X13.9477 Y9.9261
G01 X13.9522 Y9.9093
G01 X13.9573 Y9.8953
G01 X13.9636 Y9.8818
G01 X13.9751 Y9.8627
G01 X13.9832 Y9.8517
G01 X14.0069 Y9.8229
G01 X14.0394 Y9.7621
G01 X14.0594 Y9.6961
G01 X14.0670 Y9.6188
G01 X14.0670 Y7.2232
G01 X14.0594 Y7.1459
G01 X14.0394 Y7.0799
G01 X14.0069 Y7.0191
G01 X13.9631 Y6.9659
G01 X13.9099 Y6.9221
G01 X13.8491 Y6.8896
G01 X13.7831 Y6.8696
G01 X13.7058 Y6.8620
G01 X10.2942 Y6.8620
G01 X10.2169 Y6.8696
G01 X10.1509 Y6.8896
G01 X10.0901 Y6.9221
G01 X10.0369 Y6.9659
G01 X9.9931 Y7.0191
G01 X9.9606 Y7.0799
G01 X9.9406 Y7.1459
G01 X9.9330 Y7.2232
G01 X9.9330 Y7.5940
G01 X9.9322 Y7.6114
G01 X9.9298 Y7.6273
G01 X9.9254 Y7.6454
G01 X9.9195 Y7.6618
G01 X9.9121 Y7.6775
G01 X9.9018 Y7.6944
G01 X9.8928 Y7.7063
G01 X9.8828 Y7.7174
G01 X9.8701 Y7.7293
G01 X9.8543 Y7.7412
G01 X9.8405 Y7.7496
G01 X9.8237 Y7.7576
G01 X9.8050 Y7.7641
G01 X9.7905 Y7.7677
G01 X9.7757 Y7.7699
G01 X9.7560 Y7.7711
G01 X8.6770 Y7.7711
G01 X8.6596 Y7.7702
G01 X8.6449 Y7.7681
G01 X8.6244 Y7.7631
G01 X8.6092 Y7.7576
G01 X8.5957 Y7.7513
G01 X8.5786 Y7.7412
G01 X8.5647 Y7.7309
G01 X8.5536 Y7.7209
G01 X8.5401 Y7.7063
G01 X8.5285 Y7.6903
G01 X8.5208 Y7.6775
G01 X8.5134 Y7.6618
G01 X8.5076 Y7.6454
G01 X8.5039 Y7.6309
G01 X8.5007 Y7.6101
G01 X8.4999 Y7.5940
G01 X8.4999 Y5.7645
G01 X8.4971 Y5.7594
G01 X8.4906 Y5.7456
G01 X8.4847 Y5.7289
G01 X8.4801 Y5.7105
G01 X8.4778 Y5.6942
G01 X8.4771 Y5.6752
G01 X8.4783 Y5.5825
G01 X8.4670 Y5.4672
G01 X8.4355 Y5.3635
G01 X8.3845 Y5.2680
G01 X8.3157 Y5.1843
G01 X8.2320 Y5.1155
G01 X8.1365 Y5.0645
G01 X8.0328 Y5.0330
G01 X7.9302 Y5.0229
G01 X7.8501 Y5.1031
G01 X7.8501 Y5.5642
G01 X7.8593 Y5.5699
G01 X7.8781 Y5.5838
G01 X7.8972 Y5.6010
G01 X7.9154 Y5.6210
G01 X7.9314 Y5.6427
G01 X7.9451 Y5.6660
G01 X7.9550 Y5.6870
G01 X7.9629 Y5.7090
G01 X7.9700 Y5.7363
G01 X7.9737 Y5.7618
G01 X7.9750 Y5.7875
G01 X7.9750 Y6.5887
G01 X7.9737 Y6.6132
G01 X7.9700 Y6.6387
G01 X7.9637 Y6.6637
G01 X7.9540 Y6.6902
G01 X7.9440 Y6.7112
G01 X7.9321 Y6.7313
G01 X7.9154 Y6.7540
G01 X7.8963 Y6.7748
G01 X7.8790 Y6.7904
G01 X7.8603 Y6.8043
G01 X7.8362 Y6.8190
G01 X7.8107 Y6.8309
G01 X7.7887 Y6.8387
G01 X7.7661 Y6.8444
G01 X7.7394 Y6.8486
G01 X7.7125 Y6.8500
G01 X7.2875 Y6.8500
G01 X7.2618 Y6.8487
G01 X7.2339 Y6.8444
G01 X7.2113 Y6.8387
G01 X7.1870 Y6.8300
G01 X7.1638 Y6.8190
G01 X7.1437 Y6.8071
G01 X7.1191 Y6.7888
G01 X7.1019 Y6.7731
G01 X7.0846 Y6.7540
G01 X7.0692 Y6.7333
G01 X7.0560 Y6.7112
G01 X7.0450 Y6.6880
G01 X7.0363 Y6.6637
G01 X7.0300 Y6.6387
G01 X7.0263 Y6.6132
G01 X7.0250 Y6.5875
G01 X7.0250 Y5.7863
G01 X7.0266 Y5.7593
G01 X7.0300 Y5.7363
G01 X7.0356 Y5.7137
G01 X7.0450 Y5.6870
G01 X7.0566 Y5.6627
G01 X7.0692 Y5.6417
G01 X7.0831 Y5.6229
G01 X7.1010 Y5.6028
G01 X7.1219 Y5.5838
G01 X7.1407 Y5.5699
G01 X7.1499 Y5.5642
G01 X7.1499 Y5.1031
G01 X7.0698 Y5.0229
G01 X6.9672 Y5.0330
G01 X6.8673 Y5.0633
G01 X6.8528 Y5.0668
G01 X6.8380 Y5.0691
G01 X6.8195 Y5.0702
G01 X6.8009 Y5.0694
G01 X6.7813 Y5.0663
G01 X6.7669 Y5.0626
G01 X6.7528 Y5.0576
G01 X6.7362 Y5.0501
G01 X6.3045 Y5.0501
G01 X6.2872 Y5.0492
G01 X6.2724 Y5.0471
G01 X6.2532 Y5.0424
G01 X6.2345 Y5.0356
G01 X6.2211 Y5.0292
G01 X6.2083 Y5.0215
G01 X6.1922 Y5.0099
G01 X6.1793 Y4.9982
G01 X6.1662 Y4.9834
G01 X6.1573 Y4.9714
G01 X6.1496 Y4.9586
G01 X6.1414 Y4.9419
G01 X6.1351 Y4.9244
G01 X6.1307 Y4.9063
G01 X6.1283 Y4.8904
G01 X6.1279 Y4.8831
G01 X6.1199 Y4.8014
G01 X6.1072 Y4.7596
G01 X6.1036 Y4.7452
G01 X6.1008 Y4.7268
G01 X6.1000 Y4.7106
G01 X6.0999 Y3.6920
G01 X6.1006 Y3.6771
G01 X6.1033 Y3.6575
G01 X6.1076 Y3.6406
G01 X6.1134 Y3.6243
G01 X6.1203 Y3.6096
G01 X6.1305 Y3.5926
G01 X6.1394 Y3.5806
G01 X6.1523 Y3.5648
G01 X6.2068 Y3.4630
G01 X6.2403 Y3.3524
G01 X6.2525 Y3.2288
G01 X6.2525 Y2.7712
G01 X6.2403 Y2.6476
G01 X6.2068 Y2.5370
G01 X6.1523 Y2.4352
G01 X6.0791 Y2.3459
G01 X5.9898 Y2.2727
G01 X5.8880 Y2.2182
G01 X5.7774 Y2.1847
G01 X5.6538 Y2.1725
G01 X5.0962 Y2.1725
G01 X4.9726 Y2.1847
G01 X4.8621 Y2.2182
G01 X4.8126 Y2.2446
G01 X4.7991 Y2.2509
G01 X4.7827 Y2.2568
G01 X4.7658 Y2.2610
G01 X4.7487 Y2.2635
G01 X4.7313 Y2.2644
G01 X4.7139 Y2.2635
G01 X4.6944 Y2.2605
G01 X4.6799 Y2.2568
G01 X4.6635 Y2.2509
G01 X4.6457 Y2.2423
G01 X4.6329 Y2.2346
G01 X4.6199 Y2.2250
G01 X4.6061 Y2.2125
G01 X4.5952 Y2.2006
G01 X4.5407 Y2.1343
G01 X4.4570 Y2.0655
G01 X4.3615 Y2.0145
G01 X4.2578 Y1.9830
G01 X4.1431 Y1.9717
G01 X4.0546 Y1.9736
G01 X3.9751 Y2.0531
G01 X3.9751 Y2.4730
G01 X3.9747 Y2.4820
G01 X3.9960 Y2.4874
G01 X4.0202 Y2.4960
G01 X4.0480 Y2.5089
G01 X4.0722 Y2.5235
G01 X4.0930 Y2.5387
G01 X4.1158 Y2.5592
G01 X4.1363 Y2.5820
G01 X4.1515 Y2.6028
G01 X4.1661 Y2.6270
G01 X4.1790 Y2.6548
G01 X4.1876 Y2.6790
G01 X4.1945 Y2.7064
G01 X4.1986 Y2.7343
G01 X4.2000 Y2.7625
G01 X4.2000 Y3.2213
G01 X4.6768 Y3.6982
G01 X4.6917 Y3.7145
G01 X4.7080 Y3.7361
G01 X4.7217 Y3.7593
G01 X4.7311 Y3.7793
G01 X4.7386 Y3.8001
G01 X4.7453 Y3.8262
G01 X4.7489 Y3.8505
G01 X4.7501 Y3.8750
G01 X4.7501 Y4.8200
G01 X4.8262 Y4.8200
G01 X4.8348 Y4.8210
G01 X4.8430 Y4.8234
G01 X4.8496 Y4.8265
G01 X4.8548 Y4.8298
G01 X4.8604 Y4.8346
G01 X4.8652 Y4.8402
G01 X4.8691 Y4.8464
G01 X4.8721 Y4.8532
G01 X4.8740 Y4.8602
G01 X4.8749 Y4.8675
G01 X4.8750 Y6.4300
G01 X4.8748 Y6.4349
G01 X4.8738 Y6.4410
G01 X4.8707 Y6.4503
G01 X4.8685 Y6.4546
G01 X4.8652 Y6.4598
G01 X4.8620 Y6.4636
G01 X4.8577 Y6.4679
G01 X4.8507 Y6.4729
G01 X4.8430 Y6.4766
G01 X4.8348 Y6.4790
G01 X4.8262 Y6.4800
G01 X4.1738 Y6.4800
G01 X4.1665 Y6.4793
G01 X4.1593 Y6.4775
G01 X4.1525 Y6.4747
G01 X4.1462 Y6.4709
G01 X4.1405 Y6.4662
G01 X4.1348 Y6.4598
G01 X4.1309 Y6.4536
G01 X4.1279 Y6.4468
G01 X4.1257 Y6.4385
G01 X4.1250 Y6.4300
G01 X4.1251 Y4.8675
G01 X4.1260 Y4.8602
G01 X4.1275 Y4.8543
G01 X4.1303 Y4.8475
G01 X4.1341 Y4.8412
G01 X4.1388 Y4.8355
G01 X4.1442 Y4.8306
G01 X4.1504 Y4.8265
G01 X4.1570 Y4.8234
G01 X4.1652 Y4.8210
G01 X4.1738 Y4.8200
G01 X4.2499 Y4.8200
G01 X4.2499 Y3.9786
G01 X3.8001 Y3.5288
G01 X3.8001 Y4.8200
G01 X3.8762 Y4.8200
G01 X3.8848 Y4.8210
G01 X3.8930 Y4.8234
G01 X3.8996 Y4.8265
G01 X3.9048 Y4.8298
G01 X3.9104 Y4.8346
G01 X3.9152 Y4.8402
G01 X3.9191 Y4.8464
G01 X3.9221 Y4.8532
G01 X3.9240 Y4.8602
G01 X3.9249 Y4.8675
G01 X3.9250 Y6.4300
G01 X3.9240 Y6.4398
G01 X3.9216 Y6.4480
G01 X3.9172 Y6.4567
G01 X3.9112 Y6.4645
G01 X3.9077 Y6.4679
G01 X3.9028 Y6.4716
G01 X3.8941 Y6.4762
G01 X3.8848 Y6.4790
G01 X3.8750 Y6.4800
G01 X3.2238 Y6.4800
G01 X3.2165 Y6.4793
G01 X3.2082 Y6.4771
G01 X3.2014 Y6.4741
G01 X3.1942 Y6.4694
G01 X3.1896 Y6.4654
G01 X3.1863 Y6.4617
G01 X3.1834 Y6.4578
G01 X3.1803 Y6.4525
G01 X3.1784 Y6.4480
G01 X3.1765 Y6.4421
G01 X3.1754 Y6.4361
G01 X3.1750 Y6.4312
G01 X3.1750 Y5.9001
G01 X2.2500 Y5.9001
G01 X2.2500 Y6.3012
G01 X2.2486 Y6.3294
G01 X2.2437 Y6.3609
G01 X2.2363 Y6.3894
G01 X2.2272 Y6.4148
G01 X2.2157 Y6.4392
G01 X2.1994 Y6.4667
G01 X2.1834 Y6.4884
G01 X2.1621 Y6.5121
G01 X2.1403 Y6.5319
G01 X2.1167 Y6.5494
G01 X2.0892 Y6.5657
G01 X2.0648 Y6.5772
G01 X2.0394 Y6.5863
G01 X2.0109 Y6.5937
G01 X1.9794 Y6.5986
G01 X1.9512 Y6.6000
G01 X1.0488 Y6.6000
G01 X1.0206 Y6.5986
G01 X0.9939 Y6.5947
G01 X0.9629 Y6.5871
G01 X0.9352 Y6.5772
G01 X0.9108 Y6.5657
G01 X0.8813 Y6.5480
G01 X0.8597 Y6.5319
G01 X0.8362 Y6.5104
G01 X0.8181 Y6.4903
G01 X0.8020 Y6.4687
G01 X0.7866 Y6.4436
G01 X0.7728 Y6.4148
G01 X0.7629 Y6.3871
G01 X0.7558 Y6.3585
G01 X0.7516 Y6.3306
G01 X0.7500 Y6.3000
G01 X0.7500 Y5.6500
G01 X0.7514 Y5.6206
G01 X0.7555 Y5.5927
G01 X0.7629 Y5.5629
G01 X0.7728 Y5.5352
G01 X0.7854 Y5.5086
G01 X0.8006 Y5.4833
G01 X0.8181 Y5.4597
G01 X0.8379 Y5.4379
G01 X0.8597 Y5.4181
G01 X0.8854 Y5.3992
G01 X0.9086 Y5.3854
G01 X0.9352 Y5.3728
G01 X0.9629 Y5.3629
G01 X0.9927 Y5.3555
G01 X1.0206 Y5.3514
G01 X1.0488 Y5.3500
G01 X1.1499 Y5.3500
G01 X1.1499 Y4.9281
G01 X1.0712 Y4.8493
G01 X0.8078 Y4.8466
G01 X0.6922 Y4.8580
G01 X0.6510 Y4.8704
G01 X0.6365 Y4.8740
G01 X0.6194 Y4.8766
G01 X0.6020 Y4.8774
G01 X0.5846 Y4.8766
G01 X0.5675 Y4.8740
G01 X0.5518 Y4.8701
G01 X0.5320 Y4.8629
G01 X0.5185 Y4.8565
G01 X0.5036 Y4.8476
G01 X0.4897 Y4.8372
G01 X0.4786 Y4.8272
G01 X0.4651 Y4.8127
G01 X0.4548 Y4.7987
G01 X0.4471 Y4.7860
G01 X0.4384 Y4.7681
G01 X0.4319 Y4.7494
G01 X0.4283 Y4.7349
G01 X0.4261 Y4.7201
G01 X0.4249 Y4.7003
G01 X0.4250 Y0.6008
G01 X0.4258 Y0.5846
G01 X0.4279 Y0.5699
G01 X0.4326 Y0.5506
G01 X0.4394 Y0.5320
G01 X0.4458 Y0.5185
G01 X0.4535 Y0.5057
G01 X0.4651 Y0.4897
G01 X0.4786 Y0.4751
G01 X0.4897 Y0.4651
G01 X0.5016 Y0.4562
G01 X0.5185 Y0.4458
G01 X0.5365 Y0.4375
G01 X0.5506 Y0.4326
G01 X0.5651 Y0.4289
G01 X0.5846 Y0.4258
G01 X0.6020 Y0.4249
G01 X28.3891 Y0.4249
G01 X28.4076 Y0.4259
G01 X28.4236 Y0.4283
G01 X28.4405 Y0.4326
G01 X28.4568 Y0.4384
G01 X28.4725 Y0.4458
G01 X28.4874 Y0.4548
G01 X28.5014 Y0.4651
G01 X28.5143 Y0.4768
G01 X28.5243 Y0.4878
G01 X28.5356 Y0.5026
G01 X28.5440 Y0.5164
G01 X28.5535 Y0.5365
G01 X28.5585 Y0.5506
G01 X28.5627 Y0.5675
G01 X28.5653 Y0.5846
G01 X28.5661 Y0.6020
G01 X28.5653 Y0.6194
G01 X28.5627 Y0.6365
G01 X28.5585 Y0.6534
G01 X28.5522 Y0.6709
G01 X28.5452 Y0.6855
G01 X28.5376 Y0.6983
G01 X28.5248 Y0.7158
G01 X28.4692 Y0.8198
G01 X28.4349 Y0.9326
G01 X28.4225 Y1.0587
G01 X28.4225 Y3.2413
G01 X28.4349 Y3.3674
G01 X28.4692 Y3.4802
G01 X28.5248 Y3.5842
G01 X28.5996 Y3.6754
G01 X28.6908 Y3.7502
G01 X28.7948 Y3.8058
G01 X28.9076 Y3.8401
G01 X29.0337 Y3.8525
G01 X29.5163 Y3.8525
G01 X29.6424 Y3.8401
G01 X29.7552 Y3.8058
G01 X29.8592 Y3.7502
G01 X29.9504 Y3.6754
G01 X30.0252 Y3.5842
G01 X30.0808 Y3.4802
G01 X30.1151 Y3.3674
G01 X30.1275 Y3.2413
G01 X30.1275 Y1.0587
G01 X30.1151 Y0.9326
G01 X30.0808 Y0.8198
G01 X30.0252 Y0.7158
G01 X30.0124 Y0.6983
G01 X30.0048 Y0.6855
G01 X29.9978 Y0.6709
G01 X29.9915 Y0.6534
G01 X29.9873 Y0.6365
G01 X29.9847 Y0.6194
G01 X29.9839 Y0.6008
G01 X29.9847 Y0.5846
G01 X29.9873 Y0.5675
G01 X29.9915 Y0.5506
G01 X29.9965 Y0.5365
G01 X30.0060 Y0.5164
G01 X30.0137 Y0.5036
G01 X30.0241 Y0.4897
G01 X30.0357 Y0.4768
G01 X30.0468 Y0.4667
G01 X30.0646 Y0.4535
G01 X30.0775 Y0.4458
G01 X30.0932 Y0.4384
G01 X30.1095 Y0.4326
G01 X30.1240 Y0.4289
G01 X30.1436 Y0.4258
G01 X30.1609 Y0.4249
G01 X35.8391 Y0.4249
G01 X35.8564 Y0.4258
G01 X35.8760 Y0.4289
G01 X35.8905 Y0.4326
G01 X35.9045 Y0.4375
G01 X35.9225 Y0.4458
G01 X35.9394 Y0.4562
G01 X35.9514 Y0.4651
G01 X35.9643 Y0.4768
G01 X35.9774 Y0.4916
G01 X35.9863 Y0.5036
G01 X35.9940 Y0.5164
G01 X36.0026 Y0.5342
G01 X36.0092 Y0.5530
G01 X36.0127 Y0.5675
G01 X36.0150 Y0.5822
G01 X36.0161 Y0.6032
G01 X36.0153 Y0.6194
G01 X36.0127 Y0.6365
G01 X36.0085 Y0.6534
G01 X36.0022 Y0.6709
G01 X35.9952 Y0.6855
G01 X35.9876 Y0.6983
G01 X35.9748 Y0.7158
G01 X35.9192 Y0.8198
G01 X35.8849 Y0.9326
G01 X35.8725 Y1.0587
G01 X35.8725 Y3.2413
G01 X35.8849 Y3.3674
G01 X35.9192 Y3.4802
G01 X35.9748 Y3.5842
G01 X36.0496 Y3.6754
G01 X36.1408 Y3.7502
G01 X36.2448 Y3.8058
G01 X36.3576 Y3.8401
G01 X36.4837 Y3.8525
G01 X36.9663 Y3.8525
G01 X37.0924 Y3.8401
G01 X37.2052 Y3.8058
G01 X37.3092 Y3.7502
G01 X37.4004 Y3.6754
G01 X37.4752 Y3.5842
G01 X37.5308 Y3.4802
G01 X37.5651 Y3.3674
G01 X37.5775 Y3.2413
G01 X37.5775 Y1.0587
G01 X37.5651 Y0.9326
G01 X37.5308 Y0.8198
G01 X37.4752 Y0.7158
G01 X37.4624 Y0.6983
G01 X37.4548 Y0.6855
G01 X37.4478 Y0.6709
G01 X37.4415 Y0.6534
G01 X37.4373 Y0.6365
G01 X37.4347 Y0.6194
G01 X37.4339 Y0.6020
G01 X37.4350 Y0.5822
G01 X37.4373 Y0.5675
G01 X37.4408 Y0.5530
G01 X37.4474 Y0.5342
G01 X37.4560 Y0.5164
G01 X37.4637 Y0.5036
G01 X37.4726 Y0.4916
G01 X37.4857 Y0.4768
G01 X37.4986 Y0.4651
G01 X37.5106 Y0.4562
G01 X37.5275 Y0.4458
G01 X37.5455 Y0.4375
G01 X37.5595 Y0.4326
G01 X37.5740 Y0.4289
G01 X37.5936 Y0.4258
G01 X37.6109 Y0.4249
G01 X42.3992 Y0.4250
G01 X42.4154 Y0.4258
G01 X42.4301 Y0.4279
G01 X42.4494 Y0.4326
G01 X42.4680 Y0.4394
G01 X42.4815 Y0.4458
G01 X42.4943 Y0.4535
G01 X42.5103 Y0.4651
G01 X42.5249 Y0.4786
G01 X42.5349 Y0.4897
G01 X42.5438 Y0.5016
G01 X42.5542 Y0.5185
G01 X42.5625 Y0.5365
G01 X42.5674 Y0.5506
G01 X42.5711 Y0.5651
G01 X42.5742 Y0.5846
G01 X42.5751 Y0.6020
G01 X42.5751 Y5.4547
G01 X42.5742 Y5.4721
G01 X42.5717 Y5.4893
G01 X42.5674 Y5.5061
G01 X42.5620 Y5.5214
G01 X42.5542 Y5.5382
G01 X42.5452 Y5.5531
G01 X42.5349 Y5.5671
G01 X42.5232 Y5.5799
G01 X42.5103 Y5.5916
G01 X42.4964 Y5.6020
G01 X42.4815 Y5.6109
G01 X42.4658 Y5.6183
G01 X42.4494 Y5.6242
G01 X42.4325 Y5.6284
G01 X42.4154 Y5.6309
G01 X42.3980 Y5.6318
G01 X42.3806 Y5.6309
G01 X42.3635 Y5.6284
G01 X42.3466 Y5.6242
G01 X42.3302 Y5.6183
G01 X42.3145 Y5.6109
G01 X42.2996 Y5.6020
G01 X42.2857 Y5.5916
G01 X42.2719 Y5.5791
G01 X42.2611 Y5.5671
G01 X42.2515 Y5.5541
G01 X42.1932 Y5.4670
G01 X42.0330 Y5.3068
G01 X41.8447 Y5.1809
G01 X41.6354 Y5.0943
G01 X41.4133 Y5.0501
G01 X41.1867 Y5.0501
G01 X40.9646 Y5.0943
G01 X40.7553 Y5.1809
G01 X40.5670 Y5.3068
G01 X40.4068 Y5.4670
G01 X40.2809 Y5.6553
G01 X40.1943 Y5.8646
G01 X40.1501 Y6.0867
G01 X40.1501 Y6.3133
G01 X40.1943 Y6.5354
G01 X40.2809 Y6.7447
G01 X40.4068 Y6.9330
G01 X40.5670 Y7.0932
G01 X40.5853 Y7.1065
G01 X40.5991 Y7.1191
G01 X40.6099 Y7.1311
G01 X40.6202 Y7.1450
G01 X40.6292 Y7.1599
G01 X40.6370 Y7.1768
G01 X40.6424 Y7.1920
G01 X40.6467 Y7.2088
G01 X40.6492 Y7.2260
G01 X40.6500 Y7.2409
G01 X40.6501 Y7.4730
G01 X40.6492 Y7.4904
G01 X40.6467 Y7.5075
G01 X40.6424 Y7.5244
G01 X40.6356 Y7.5430
G01 X40.6292 Y7.5565
G01 X40.6215 Y7.5693
G01 X40.6114 Y7.5834
G01 X40.5982 Y7.5982
G01 X40.5844 Y7.6106
G01 X40.5693 Y7.6215
G01 X40.5565 Y7.6292
G01 X40.5430 Y7.6356
G01 X40.5244 Y7.6424
G01 X40.5051 Y7.6471
G01 X40.4904 Y7.6492
G01 X40.4730 Y7.6501
G01 X39.9587 Y7.6501
G01 X39.9509 Y7.6517
G01 X39.9361 Y7.6538
G01 X39.9175 Y7.6548
G01 X39.9002 Y7.6540
G01 X39.8421 Y7.6483
G01 X39.5287 Y7.6511
G01 X39.4501 Y7.7297
G01 X39.4501 Y8.1516
G01 X39.8537 Y8.1518
G01 X39.8610 Y8.1529
G01 X39.8680 Y8.1550
G01 X39.8746 Y8.1581
G01 X39.8808 Y8.1622
G01 X39.8862 Y8.1672
G01 X39.8909 Y8.1728
G01 X39.8952 Y8.1803
G01 X39.8978 Y8.1871
G01 X39.8995 Y8.1943
G01 X39.9000 Y8.2016
G01 X39.9000 Y9.2016
G01 X39.8993 Y9.2102
G01 X39.8975 Y9.2173
G01 X39.8941 Y9.2252
G01 X39.8902 Y9.2314
G01 X39.8862 Y9.2361
G01 X39.8817 Y9.2403
G01 X39.8767 Y9.2439
G01 X39.8725 Y9.2463
G01 X39.8668 Y9.2487
G01 X39.8621 Y9.2501
G01 X39.8561 Y9.2513
G01 X39.8512 Y9.2516
G01 X38.3500 Y9.2516
G01 X38.3439 Y9.2513
G01 X38.3367 Y9.2498
G01 X38.3297 Y9.2474
G01 X38.3222 Y9.2432
G01 X38.3164 Y9.2387
G01 X38.3113 Y9.2334
G01 X38.3071 Y9.2273
G01 X38.3034 Y9.2196
G01 X38.3012 Y9.2126
G01 X38.3004 Y9.2078
G01 X38.3000 Y9.2016
G01 X38.3000 Y9.0517
G01 X37.8781 Y9.0517
G01 X37.7983 Y9.1315
G01 X37.7968 Y9.1951
G01 X37.8080 Y9.3094
G01 X37.8395 Y9.4131
G01 X37.8905 Y9.5086
G01 X37.9593 Y9.5924
G01 X38.0430 Y9.6611
G01 X38.0603 Y9.6704
G01 X38.0721 Y9.6774
G01 X38.0872 Y9.6883
G01 X38.1010 Y9.7008
G01 X38.1134 Y9.7146
G01 X38.1230 Y9.7276
G01 X38.1307 Y9.7403
G01 X38.1394 Y9.7582
G01 X38.1452 Y9.7745
G01 X38.1489 Y9.7890
G01 X38.1520 Y9.8086
G01 X38.1528 Y9.8284
G01 X38.1520 Y9.8433
G01 X38.1499 Y9.8580
G01 X38.1453 Y9.8773
G01 X38.1389 Y9.8948
G01 X38.1320 Y9.9094
G01 X38.1217 Y9.9263
G01 X38.1127 Y9.9382
G01 X38.0576 Y10.0053
G01 X38.0251 Y10.0661
G01 X38.0051 Y10.1320
G01 X37.9975 Y10.2093
G01 X37.9975 Y11.1919
G01 X38.0051 Y11.2692
G01 X38.0251 Y11.3352
G01 X38.0576 Y11.3960
G01 X38.1014 Y11.4493
G01 X38.1546 Y11.4930
G01 X38.2154 Y11.5255
G01 X38.2379 Y11.5323
G01 X38.2508 Y11.5369
G01 X38.2688 Y11.5452
G01 X38.2857 Y11.5556
G01 X38.2977 Y11.5645
G01 X38.3088 Y11.5745
G01 X38.3222 Y11.5891
G01 X38.3319 Y11.6020
G01 X38.3415 Y11.6179
G01 X38.3479 Y11.6314
G01 X38.3544 Y11.6488
G01 X38.3585 Y11.6644
G01 X38.3617 Y11.6865
G01 X38.3624 Y11.7026
G01 X38.3612 Y11.7212
G01 X38.3585 Y11.7383
G01 X38.3548 Y11.7528
G01 X38.3498 Y11.7668
G01 X38.3415 Y11.7848
G01 X38.3326 Y11.7998
G01 X38.3222 Y11.8137
G01 X38.3105 Y11.8266
G01 X38.2957 Y11.8398
G01 X38.2837 Y11.8486
G01 X38.2688 Y11.8575
G01 X38.2508 Y11.8658
G01 X38.2379 Y11.8704
G01 X38.2154 Y11.8773
G01 X38.1546 Y11.9098
G01 X38.1014 Y11.9535
G01 X38.0576 Y12.0068
G01 X38.0477 Y12.0235
G01 X38.0381 Y12.0365
G01 X38.0239 Y12.0520
G01 X38.0128 Y12.0620
G01 X38.0009 Y12.0710
G01 X37.9861 Y12.0801
G01 X37.9683 Y12.0887
G01 X37.9519 Y12.0946
G01 X37.9326 Y12.0992
G01 X37.9179 Y12.1014
G01 X37.9017 Y12.1022
G01 X37.4729 Y12.1022
G01 X37.4580 Y12.1015
G01 X37.4360 Y12.0983
G01 X37.4215 Y12.0946
G01 X37.4052 Y12.0887
G01 X37.3894 Y12.0813
G01 X37.3766 Y12.0737
G01 X37.3596 Y12.0612
G01 X37.3477 Y12.0503
G01 X34.2768 Y8.9794
G01 X34.2651 Y8.9666
G01 X34.2548 Y8.9526
G01 X34.2458 Y8.9377
G01 X34.2394 Y8.9242
G01 X34.2319 Y8.9033
G01 X34.2283 Y8.8888
G01 X34.2257 Y8.8704
G01 X34.2249 Y8.8542
G01 X34.2250 Y6.6429
G01 X34.2258 Y6.6268
G01 X34.2283 Y6.6096
G01 X34.2326 Y6.5928
G01 X34.2384 Y6.5764
G01 X34.2458 Y6.5607
G01 X34.2548 Y6.5458
G01 X34.2651 Y6.5318
G01 X34.2759 Y6.5199
G01 X34.2897 Y6.5073
G01 X34.3036 Y6.4970
G01 X34.3185 Y6.4880
G01 X34.3342 Y6.4806
G01 X34.3506 Y6.4747
G01 X34.3675 Y6.4705
G01 X34.3846 Y6.4680
G01 X34.4045 Y6.4672
G01 X34.4194 Y6.4680
G01 X34.4341 Y6.4701
G01 X34.4546 Y6.4751
G01 X34.4698 Y6.4806
G01 X34.4844 Y6.4875
G01 X34.5330 Y6.5134
G01 X34.6271 Y6.5420
G01 X34.7337 Y6.5525
G01 X35.0163 Y6.5525
G01 X35.1229 Y6.5420
G01 X35.2170 Y6.5134
G01 X35.2642 Y6.4882
G01 X35.2788 Y6.4812
G01 X35.2963 Y6.4749
G01 X35.3132 Y6.4707
G01 X35.3304 Y6.4681
G01 X35.3502 Y6.4673
G01 X35.3651 Y6.4681
G01 X35.3798 Y6.4702
G01 X35.3991 Y6.4749
G01 X35.4155 Y6.4807
G01 X35.4312 Y6.4882
G01 X35.4461 Y6.4971
G01 X35.4581 Y6.5059
G01 X35.4746 Y6.5209
G01 X35.4846 Y6.5320
G01 X35.4949 Y6.5460
G01 X35.5039 Y6.5609
G01 X35.5108 Y6.5754
G01 X35.5809 Y6.7447
G01 X35.7068 Y6.9330
G01 X35.8670 Y7.0932
G01 X36.0553 Y7.2191
G01 X36.2646 Y7.3057
G01 X36.4867 Y7.3499
G01 X36.7133 Y7.3499
G01 X36.9354 Y7.3057
G01 X37.1447 Y7.2191
G01 X37.3330 Y7.0932
G01 X37.4932 Y6.9330
G01 X37.6191 Y6.7447
G01 X37.7057 Y6.5354
G01 X37.7499 Y6.3133
G01 X37.7499 Y6.0867
G01 X37.7057 Y5.8646
G01 X37.6191 Y5.6553
G01 X37.4932 Y5.4670
G01 X37.3330 Y5.3068
G01 X37.1447 Y5.1809
G01 X36.9354 Y5.0943
G01 X36.7133 Y5.0501
G01 X36.4867 Y5.0501
G01 X36.4656 Y5.0535
G01 X36.4470 Y5.0545
G01 X36.4296 Y5.0536
G01 X36.4149 Y5.0515
G01 X36.3944 Y5.0465
G01 X36.3792 Y5.0410
G01 X36.3635 Y5.0336
G01 X36.3486 Y5.0247
G01 X36.3337 Y5.0135
G01 X36.3218 Y5.0026
G01 X36.2374 Y4.9183
G01 X36.2274 Y4.9072
G01 X36.2118 Y4.8882
G01 X36.1128 Y4.8070
G01 X35.9999 Y4.7466
G01 X35.8774 Y4.7095
G01 X35.7500 Y4.6969
G01 X35.7255 Y4.6993
G01 X35.7106 Y4.7000
G01 X35.6908 Y4.7000
G01 X35.6735 Y4.6991
G01 X35.6575 Y4.6967
G01 X35.6406 Y4.6924
G01 X35.6243 Y4.6866
G01 X35.6075 Y4.6786
G01 X35.5937 Y4.6702
G01 X35.5816 Y4.6614
G01 X35.5668 Y4.6482
G01 X35.5537 Y4.6334
G01 X35.5448 Y4.6214
G01 X35.5371 Y4.6086
G01 X35.5285 Y4.5908
G01 X35.5230 Y4.5756
G01 X35.5180 Y4.5556
G01 X35.4884 Y4.4580
G01 X35.4421 Y4.3713
G01 X35.3797 Y4.2953
G01 X35.3037 Y4.2329
G01 X35.2170 Y4.1866
G01 X35.1229 Y4.1580
G01 X35.0163 Y4.1475
G01 X34.7337 Y4.1475
G01 X34.6271 Y4.1580
G01 X34.5330 Y4.1866
G01 X34.4463 Y4.2329
G01 X34.3614 Y4.3026
G01 X34.3484 Y4.3122
G01 X34.3313 Y4.3222
G01 X34.3155 Y4.3294
G01 X34.3014 Y4.3344
G01 X34.2869 Y4.3381
G01 X34.2674 Y4.3412
G01 X34.2500 Y4.3420
G01 X34.2326 Y4.3412
G01 X34.2131 Y4.3381
G01 X34.1986 Y4.3344
G01 X34.1845 Y4.3294
G01 X34.1687 Y4.3222
G01 X34.1516 Y4.3122
G01 X34.1386 Y4.3026
G01 X34.0537 Y4.2329
G01 X33.9670 Y4.1866
G01 X33.8729 Y4.1580
G01 X33.7663 Y4.1475
G01 X33.4837 Y4.1475
G01 X33.3771 Y4.1580
G01 X33.2830 Y4.1866
G01 X33.1963 Y4.2329
G01 X33.1114 Y4.3026
G01 X33.0984 Y4.3122
G01 X33.0835 Y4.3211
G01 X33.0655 Y4.3294
G01 X33.0514 Y4.3344
G01 X33.0369 Y4.3381
G01 X33.0174 Y4.3412
G01 X32.9988 Y4.3420
G01 X32.9826 Y4.3412
G01 X32.9631 Y4.3381
G01 X32.9486 Y4.3344
G01 X32.9345 Y4.3294
G01 X32.9176 Y4.3217
G01 X32.9016 Y4.3122
G01 X32.8886 Y4.3026
G01 X32.8037 Y4.2329
G01 X32.7170 Y4.1866
G01 X32.6229 Y4.1580
G01 X32.5163 Y4.1475
G01 X32.2337 Y4.1475
G01 X32.1271 Y4.1580
G01 X32.0238 Y4.1894
G01 X32.0079 Y4.1934
G01 X31.9866 Y4.1964
G01 X31.9714 Y4.1970
G01 X31.9537 Y4.1960
G01 X31.9362 Y4.1932
G01 X31.9167 Y4.1879
G01 X31.9025 Y4.1826
G01 X31.8888 Y4.1760
G01 X31.8726 Y4.1661
G01 X31.8575 Y4.1546
G01 X31.8455 Y4.1434
G01 X31.8338 Y4.1301
G01 X31.8245 Y4.1182
G01 X31.7423 Y4.0476
G01 X31.6479 Y3.9944
G01 X31.5430 Y3.9601
G01 X31.4751 Y4.0281
G01 X31.4751 Y5.0953
G01 X31.4825 Y5.1115
G01 X31.4874 Y5.1256
G01 X31.4911 Y5.1401
G01 X31.4942 Y5.1596
G01 X31.4951 Y5.1770
G01 X31.4950 Y5.5255
G01 X31.4939 Y5.5428
G01 X31.4917 Y5.5575
G01 X31.4881 Y5.5720
G01 X31.4820 Y5.5896
G01 X31.4751 Y5.6047
G01 X31.4751 Y6.6719
G01 X31.5430 Y6.7399
G01 X31.5622 Y6.7350
G01 X31.5771 Y6.7325
G01 X31.5922 Y6.7314
G01 X31.6122 Y6.7319
G01 X31.6297 Y6.7342
G01 X31.6468 Y6.7382
G01 X31.6657 Y6.7448
G01 X31.6794 Y6.7511
G01 X31.6925 Y6.7587
G01 X31.7069 Y6.7688
G01 X31.7220 Y6.7820
G01 X31.7339 Y6.7949
G01 X31.7445 Y6.8090
G01 X31.7537 Y6.8240
G01 X31.7613 Y6.8398
G01 X31.7673 Y6.8564
G01 X31.7716 Y6.8734
G01 X31.7742 Y6.8908
G01 X31.7751 Y6.9084
G01 X31.7751 Y10.3368
G01 X31.7743 Y10.3530
G01 X31.7722 Y10.3750
G01 X31.7837 Y10.4926
G01 X31.8180 Y10.6057
G01 X31.8738 Y10.7099
G01 X31.9487 Y10.8013
G01 X31.9658 Y10.8153
G01 X31.9778 Y10.8262
G01 X36.2499 Y15.0984
G01 X36.2608 Y15.1103
G01 X36.2748 Y15.1274
G01 X36.3662 Y15.2024
G01 X36.4704 Y15.2581
G01 X36.5835 Y15.2924
G01 X36.7011 Y15.3040
G01 X36.7231 Y15.3018
G01 X36.7393 Y15.3011
G01 X37.9005 Y15.3011
G01 X37.9179 Y15.3019
G01 X37.9362 Y15.3047
G01 X37.9542 Y15.3095
G01 X37.9683 Y15.3145
G01 X37.9818 Y15.3209
G01 X37.9989 Y15.3309
G01 X38.0138 Y15.3420
G01 X38.0257 Y15.3529
G01 X38.0374 Y15.3658
G01 X38.0477 Y15.3797
G01 X38.0576 Y15.3965
G01 X38.1014 Y15.4498
G01 X38.1546 Y15.4935
G01 X38.2154 Y15.5260
G01 X38.2295 Y15.5303
G01 X38.2436 Y15.5353
G01 X38.2593 Y15.5426
G01 X38.2753 Y15.5521
G01 X38.2893 Y15.5625
G01 X38.3039 Y15.5759
G01 X38.3138 Y15.5870
G01 X38.3228 Y15.5990
G01 X38.3331 Y15.6159
G01 X38.3414 Y15.6339
G01 X38.3464 Y15.6479
G01 X38.3501 Y15.6624
G01 X38.3529 Y15.6795
G01 X38.3540 Y15.6993
G01 X38.3532 Y15.7167
G01 X38.3506 Y15.7339
G01 X38.3456 Y15.7531
G01 X38.3395 Y15.7693
G01 X38.3331 Y15.7828
G01 X38.3255 Y15.7956
G01 X38.3138 Y15.8117
G01 X38.3022 Y15.8245
