(G-CODE GENERATED BY FLATCAM v8.994 - www.flatcam.org - Version Date: 2020/11/7)

(Name: doorbell-F_Cu.gbr_iso_combined_cnc)
(Type: G-code from Geometry)
(Units: MM)

(Created on Mercredi, 04 août 2021 at 19:29)

(This preprocessor is the default preprocessor used by FlatCAM.)
(It is made to work with MACH3 compatible motion controllers.)

(TOOL DIAMETER: 0.1 mm)
(Feedrate_XY: 80.0 mm/min)
(Feedrate_Z: 50.0 mm/min)
(Feedrate rapids 1500.0 mm/min)

(Z_Cut: -0.05 mm)
(Z_Move: 1.0 mm)
(Z Start: None mm)
(Z End: 5.0 mm)
(X,Y End: None mm)
(Steps per circle: 64)
(Preprocessor Geometry: default)

(X range:   -0.1250 ...   45.1250  mm)
(Y range:   -0.1250 ...   25.1250  mm)

(Spindle Speed: 2000.0 RPM)
G21
G90
G94

G01 F80.00

M5
G00 Z5.0000
G00 X0.0000 Y0.0000
T1
M6    
(MSG, Change to Tool Dia = 0.1000)
M0
G00 Z5.0000

M03 S2000.0
G01 F80.00
G00 X-0.1250 Y-0.0025
G01 F50.00
G01 Z-0.0500
G01 F80.00
G01 X-0.1244 Y-0.0123
G01 X-0.1226 Y-0.0244
G01 X-0.1197 Y-0.0363
G01 X-0.1155 Y-0.0478
G01 X-0.1103 Y-0.0589
G01 X-0.1040 Y-0.0695
G01 X-0.0967 Y-0.0793
G01 X-0.0884 Y-0.0884
G01 X-0.0793 Y-0.0967
G01 X-0.0695 Y-0.1040
G01 X-0.0589 Y-0.1103
G01 X-0.0478 Y-0.1155
G01 X-0.0363 Y-0.1197
G01 X-0.0244 Y-0.1226
G01 X-0.0123 Y-0.1244
G01 X0.0000 Y-0.1250
G01 X45.0000 Y-0.1250
G01 X45.0147 Y-0.1241
G01 X45.0244 Y-0.1226
G01 X45.0339 Y-0.1203
G01 X45.0478 Y-0.1155
G01 X45.0600 Y-0.1097
G01 X45.0695 Y-0.1040
G01 X45.0774 Y-0.0982
G01 X45.0884 Y-0.0884
G01 X45.0982 Y-0.0774
G01 X45.1040 Y-0.0695
G01 X45.1091 Y-0.0611
G01 X45.1155 Y-0.0478
G01 X45.1203 Y-0.0339
G01 X45.1226 Y-0.0244
G01 X45.1241 Y-0.0147
G01 X45.1250 Y0.0000
G01 X45.1250 Y25.0000
G01 X45.1241 Y25.0147
G01 X45.1226 Y25.0244
G01 X45.1203 Y25.0339
G01 X45.1155 Y25.0478
G01 X45.1097 Y25.0600
G01 X45.1040 Y25.0695
G01 X45.0982 Y25.0774
G01 X45.0884 Y25.0884
G01 X45.0774 Y25.0982
G01 X45.0695 Y25.1040
G01 X45.0611 Y25.1091
G01 X45.0478 Y25.1155
G01 X45.0339 Y25.1203
G01 X45.0244 Y25.1226
G01 X45.0147 Y25.1241
G01 X45.0000 Y25.1250
G01 X0.0000 Y25.1250
G01 X-0.0147 Y25.1241
G01 X-0.0244 Y25.1226
G01 X-0.0339 Y25.1203
G01 X-0.0478 Y25.1155
G01 X-0.0600 Y25.1097
G01 X-0.0695 Y25.1040
G01 X-0.0774 Y25.0982
G01 X-0.0884 Y25.0884
G01 X-0.0982 Y25.0774
G01 X-0.1040 Y25.0695
G01 X-0.1091 Y25.0611
G01 X-0.1155 Y25.0478
G01 X-0.1203 Y25.0339
G01 X-0.1226 Y25.0244
G01 X-0.1241 Y25.0147
G01 X-0.1250 Y25.0000
G01 X-0.1250 Y-0.0025
G00 Z1.0000
G00 X0.1250 Y0.1250
G01 F50.00
G01 Z-0.0500
G01 F80.00
G01 X44.8750 Y0.1250
G01 X44.8750 Y24.8750
G01 X0.1250 Y24.8750
G01 X0.1250 Y0.1250
G00 Z1.0000
G00 X1.3750 Y5.1624
G01 F50.00
G01 Z-0.0500
G01 F80.00
G01 X0.9531 Y5.1624
G01 X0.8743 Y5.0837
G01 X0.8716 Y4.8078
G01 X0.8830 Y4.6922
G01 X0.9145 Y4.5885
G01 X0.9655 Y4.4930
G01 X1.0343 Y4.4093
G01 X1.1180 Y4.3405
G01 X1.2135 Y4.2895
G01 X1.3172 Y4.2580
G01 X1.4334 Y4.2466
G01 X2.3216 Y4.2498
G01 X2.3999 Y4.3281
G01 X2.3999 Y4.7500
G01 X1.6738 Y4.7500
G01 X1.6456 Y4.7514
G01 X1.6165 Y4.7558
G01 X1.5879 Y4.7629
G01 X1.5602 Y4.7728
G01 X1.5336 Y4.7854
G01 X1.5083 Y4.8006
G01 X1.4847 Y4.8181
G01 X1.4646 Y4.8362
G01 X1.4431 Y4.8597
G01 X1.4270 Y4.8813
G01 X1.4093 Y4.9108
G01 X1.3978 Y4.9352
G01 X1.3879 Y4.9629
G01 X1.3808 Y4.9915
G01 X1.3767 Y5.0182
G01 X1.3750 Y5.0500
G01 X1.3750 Y5.1624
G00 Z1.0000
G00 X1.0872 Y6.6593
G01 F50.00
G01 Z-0.0500
G01 F80.00
G01 X1.0343 Y6.6157
G01 X0.9655 Y6.5320
G01 X0.9145 Y6.4365
G01 X0.8830 Y6.3328
G01 X0.8716 Y6.2172
G01 X0.8743 Y5.9413
G01 X0.9531 Y5.8626
G01 X1.3750 Y5.8626
G01 X1.3750 Y5.9762
G01 X1.3764 Y6.0044
G01 X1.3805 Y6.0323
G01 X1.3879 Y6.0621
G01 X1.3978 Y6.0898
G01 X1.4104 Y6.1164
G01 X1.4256 Y6.1417
G01 X1.4431 Y6.1653
G01 X1.4629 Y6.1871
G01 X1.4847 Y6.2069
G01 X1.5104 Y6.2258
G01 X1.5336 Y6.2396
G01 X1.5625 Y6.2530
G01 X1.5879 Y6.2621
G01 X1.6141 Y6.2687
G01 X1.6432 Y6.2733
G01 X1.6750 Y6.2750
G01 X3.8250 Y6.2750
G01 X3.8544 Y6.2736
G01 X3.8859 Y6.2687
G01 X3.9121 Y6.2621
G01 X3.9375 Y6.2530
G01 X3.9664 Y6.2396
G01 X3.9917 Y6.2244
G01 X4.0172 Y6.2053
G01 X4.0388 Y6.1854
G01 X4.0569 Y6.1653
G01 X4.0730 Y6.1437
G01 X4.0896 Y6.1164
G01 X4.1022 Y6.0898
G01 X4.1121 Y6.0621
G01 X4.1195 Y6.0323
G01 X4.1236 Y6.0044
G01 X4.1250 Y5.9762
G01 X4.1250 Y5.8626
G01 X4.5469 Y5.8626
G01 X4.6325 Y5.9482
G01 X4.6464 Y5.9606
G01 X4.6594 Y5.9702
G01 X4.6765 Y5.9803
G01 X4.6900 Y5.9866
G01 X4.7040 Y5.9917
G01 X4.7220 Y5.9964
G01 X4.7404 Y5.9992
G01 X4.7578 Y6.0001
G01 X5.1750 Y6.0001
G01 X5.1751 Y6.4337
G01 X5.1762 Y6.4410
G01 X5.1779 Y6.4468
G01 X5.1809 Y6.4536
G01 X5.1841 Y6.4588
G01 X5.1880 Y6.4636
G01 X5.1933 Y6.4687
G01 X5.1983 Y6.4722
G01 X5.2047 Y6.4757
G01 X5.2140 Y6.4788
G01 X5.2201 Y6.4798
G01 X5.2250 Y6.4800
G01 X5.8750 Y6.4800
G01 X5.8823 Y6.4795
G01 X5.8895 Y6.4778
G01 X5.8964 Y6.4752
G01 X5.9028 Y6.4716
G01 X5.9077 Y6.4679
G01 X5.9120 Y6.4636
G01 X5.9159 Y6.4588
G01 X5.9191 Y6.4536
G01 X5.9216 Y6.4480
G01 X5.9232 Y6.4433
G01 X5.9245 Y6.4373
G01 X5.9250 Y6.4312
G01 X5.9250 Y4.8688
G01 X5.9243 Y4.8615
G01 X5.9225 Y4.8543
G01 X5.9197 Y4.8475
G01 X5.9159 Y4.8412
G01 X5.9112 Y4.8355
G01 X5.9058 Y4.8306
G01 X5.8996 Y4.8265
G01 X5.8930 Y4.8234
G01 X5.8848 Y4.8210
G01 X5.8762 Y4.8200
G01 X5.8001 Y4.8200
G01 X5.8001 Y3.5288
G01 X6.2499 Y3.9786
G01 X6.2499 Y4.8200
G01 X6.1738 Y4.8200
G01 X6.1652 Y4.8210
G01 X6.1570 Y4.8234
G01 X6.1504 Y4.8265
G01 X6.1442 Y4.8306
G01 X6.1388 Y4.8355
G01 X6.1341 Y4.8412
G01 X6.1303 Y4.8475
G01 X6.1275 Y4.8543
G01 X6.1260 Y4.8602
G01 X6.1251 Y4.8675
G01 X6.1250 Y6.4300
G01 X6.1257 Y6.4385
G01 X6.1279 Y6.4468
G01 X6.1309 Y6.4536
G01 X6.1348 Y6.4598
G01 X6.1405 Y6.4662
G01 X6.1462 Y6.4709
G01 X6.1525 Y6.4747
G01 X6.1593 Y6.4775
G01 X6.1665 Y6.4793
G01 X6.1738 Y6.4800
G01 X6.8262 Y6.4800
G01 X6.8335 Y6.4793
G01 X6.8395 Y6.4778
G01 X6.8464 Y6.4752
G01 X6.8528 Y6.4716
G01 X6.8577 Y6.4679
G01 X6.8620 Y6.4636
G01 X6.8659 Y6.4588
G01 X6.8691 Y6.4536
G01 X6.8716 Y6.4480
G01 X6.8732 Y6.4433
G01 X6.8745 Y6.4373
G01 X6.8750 Y6.4312
G01 X6.8749 Y4.8675
G01 X6.8740 Y4.8602
G01 X6.8721 Y4.8532
G01 X6.8691 Y4.8464
G01 X6.8652 Y4.8402
G01 X6.8604 Y4.8346
G01 X6.8548 Y4.8298
G01 X6.8496 Y4.8265
G01 X6.8430 Y4.8234
G01 X6.8348 Y4.8210
G01 X6.8262 Y4.8200
G01 X6.7501 Y4.8200
G01 X6.7501 Y3.8750
G01 X6.7489 Y3.8505
G01 X6.7453 Y3.8262
G01 X6.7386 Y3.8001
G01 X6.7311 Y3.7793
G01 X6.7217 Y3.7593
G01 X6.7080 Y3.7361
G01 X6.6917 Y3.7145
G01 X6.6768 Y3.6982
G01 X6.2000 Y3.2213
G01 X6.2000 Y2.7625
G01 X6.1986 Y2.7343
G01 X6.1945 Y2.7064
G01 X6.1876 Y2.6790
G01 X6.1790 Y2.6548
G01 X6.1661 Y2.6270
G01 X6.1515 Y2.6028
G01 X6.1363 Y2.5820
G01 X6.1158 Y2.5592
G01 X6.0930 Y2.5387
G01 X6.0722 Y2.5235
G01 X6.0480 Y2.5089
G01 X6.0202 Y2.4960
G01 X5.9960 Y2.4874
G01 X5.9747 Y2.4820
G01 X5.9751 Y2.4730
G01 X5.9751 Y2.0531
G01 X6.0546 Y1.9736
G01 X6.1431 Y1.9717
G01 X6.2578 Y1.9830
G01 X6.3615 Y2.0145
G01 X6.4570 Y2.0655
G01 X6.5407 Y2.1343
G01 X6.5952 Y2.2006
G01 X6.6061 Y2.2125
G01 X6.6199 Y2.2250
G01 X6.6329 Y2.2346
G01 X6.6457 Y2.2423
G01 X6.6635 Y2.2509
G01 X6.6799 Y2.2568
G01 X6.6944 Y2.2605
G01 X6.7139 Y2.2635
G01 X6.7313 Y2.2644
G01 X6.7487 Y2.2635
G01 X6.7658 Y2.2610
G01 X6.7827 Y2.2568
G01 X6.7991 Y2.2509
G01 X6.8126 Y2.2446
G01 X6.8621 Y2.2182
G01 X6.9726 Y2.1847
G01 X7.0962 Y2.1725
G01 X7.6538 Y2.1725
G01 X7.7774 Y2.1847
G01 X7.8880 Y2.2182
G01 X7.9898 Y2.2727
G01 X8.0791 Y2.3459
G01 X8.1523 Y2.4352
G01 X8.2068 Y2.5370
G01 X8.2403 Y2.6476
G01 X8.2525 Y2.7712
G01 X8.2525 Y3.2288
G01 X8.2403 Y3.3524
G01 X8.2068 Y3.4630
G01 X8.1523 Y3.5648
G01 X8.1394 Y3.5806
G01 X8.1305 Y3.5926
G01 X8.1203 Y3.6096
G01 X8.1134 Y3.6243
G01 X8.1076 Y3.6406
G01 X8.1033 Y3.6575
G01 X8.1006 Y3.6771
G01 X8.0999 Y3.6920
G01 X8.1000 Y4.7106
G01 X8.1008 Y4.7268
G01 X8.1036 Y4.7452
G01 X8.1072 Y4.7596
G01 X8.1199 Y4.8014
G01 X8.1279 Y4.8831
G01 X8.1283 Y4.8904
G01 X8.1307 Y4.9063
G01 X8.1351 Y4.9244
G01 X8.1414 Y4.9419
G01 X8.1496 Y4.9586
G01 X8.1573 Y4.9714
G01 X8.1662 Y4.9834
G01 X8.1793 Y4.9982
G01 X8.1922 Y5.0099
G01 X8.2083 Y5.0215
G01 X8.2211 Y5.0292
G01 X8.2345 Y5.0356
G01 X8.2532 Y5.0424
G01 X8.2724 Y5.0471
G01 X8.2872 Y5.0492
G01 X8.3045 Y5.0501
G01 X8.7362 Y5.0501
G01 X8.7528 Y5.0576
G01 X8.7669 Y5.0626
G01 X8.7813 Y5.0663
G01 X8.8009 Y5.0694
G01 X8.8195 Y5.0702
G01 X8.8380 Y5.0691
G01 X8.8528 Y5.0668
G01 X8.8673 Y5.0633
G01 X8.9672 Y5.0330
G01 X9.0698 Y5.0229
G01 X9.1499 Y5.1031
G01 X9.1499 Y5.5642
G01 X9.1407 Y5.5699
G01 X9.1219 Y5.5838
G01 X9.1010 Y5.6028
G01 X9.0831 Y5.6229
G01 X9.0692 Y5.6417
G01 X9.0566 Y5.6627
G01 X9.0450 Y5.6870
G01 X9.0356 Y5.7137
G01 X9.0300 Y5.7363
G01 X9.0266 Y5.7593
G01 X9.0250 Y5.7863
G01 X9.0250 Y6.5875
G01 X9.0263 Y6.6132
G01 X9.0300 Y6.6387
G01 X9.0363 Y6.6637
G01 X9.0450 Y6.6880
G01 X9.0560 Y6.7112
G01 X9.0692 Y6.7333
G01 X9.0846 Y6.7540
G01 X9.1019 Y6.7731
G01 X9.1191 Y6.7888
G01 X9.1437 Y6.8071
G01 X9.1638 Y6.8190
G01 X9.1870 Y6.8300
G01 X9.2113 Y6.8387
G01 X9.2339 Y6.8444
G01 X9.2618 Y6.8487
G01 X9.2875 Y6.8500
G01 X9.7125 Y6.8500
G01 X9.7394 Y6.8486
G01 X9.7661 Y6.8444
G01 X9.7887 Y6.8387
G01 X9.8107 Y6.8309
G01 X9.8362 Y6.8190
G01 X9.8603 Y6.8043
G01 X9.8790 Y6.7904
G01 X9.8963 Y6.7748
G01 X9.9154 Y6.7540
G01 X9.9321 Y6.7313
G01 X9.9440 Y6.7112
G01 X9.9540 Y6.6902
G01 X9.9637 Y6.6637
G01 X9.9700 Y6.6387
G01 X9.9737 Y6.6132
G01 X9.9750 Y6.5887
G01 X9.9750 Y5.7875
G01 X9.9737 Y5.7618
G01 X9.9700 Y5.7363
G01 X9.9629 Y5.7090
G01 X9.9550 Y5.6870
G01 X9.9451 Y5.6660
G01 X9.9314 Y5.6427
G01 X9.9154 Y5.6210
G01 X9.8972 Y5.6010
G01 X9.8781 Y5.5838
G01 X9.8593 Y5.5699
G01 X9.8501 Y5.5642
G01 X9.8501 Y5.1031
G01 X9.9302 Y5.0229
G01 X10.0328 Y5.0330
G01 X10.1365 Y5.0645
G01 X10.2320 Y5.1155
G01 X10.3157 Y5.1843
G01 X10.3845 Y5.2680
G01 X10.4355 Y5.3635
G01 X10.4670 Y5.4672
G01 X10.4783 Y5.5825
G01 X10.4771 Y5.6752
G01 X10.4778 Y5.6942
G01 X10.4801 Y5.7105
G01 X10.4847 Y5.7289
G01 X10.4906 Y5.7456
G01 X10.4971 Y5.7594
G01 X10.4999 Y5.7645
G01 X10.4999 Y7.5940
G01 X10.5007 Y7.6101
G01 X10.5039 Y7.6309
G01 X10.5076 Y7.6454
G01 X10.5134 Y7.6618
G01 X10.5208 Y7.6775
G01 X10.5285 Y7.6903
G01 X10.5401 Y7.7063
G01 X10.5536 Y7.7209
G01 X10.5647 Y7.7309
G01 X10.5786 Y7.7412
G01 X10.5957 Y7.7513
G01 X10.6092 Y7.7576
G01 X10.6256 Y7.7634
G01 X10.6425 Y7.7677
G01 X10.6572 Y7.7699
G01 X10.6770 Y7.7711
G01 X11.7560 Y7.7711
G01 X11.7757 Y7.7699
G01 X11.7905 Y7.7677
G01 X11.8050 Y7.7641
G01 X11.8237 Y7.7576
G01 X11.8405 Y7.7496
G01 X11.8543 Y7.7412
G01 X11.8701 Y7.7293
G01 X11.8828 Y7.7174
G01 X11.8928 Y7.7063
G01 X11.9018 Y7.6944
G01 X11.9121 Y7.6775
G01 X11.9195 Y7.6618
G01 X11.9254 Y7.6454
G01 X11.9298 Y7.6273
G01 X11.9322 Y7.6114
G01 X11.9330 Y7.5940
G01 X11.9330 Y7.2232
G01 X11.9406 Y7.1459
G01 X11.9606 Y7.0799
G01 X11.9931 Y7.0191
G01 X12.0369 Y6.9659
G01 X12.0901 Y6.9221
G01 X12.1509 Y6.8896
G01 X12.2169 Y6.8696
G01 X12.2942 Y6.8620
G01 X15.7058 Y6.8620
G01 X15.7831 Y6.8696
G01 X15.8491 Y6.8896
G01 X15.9099 Y6.9221
G01 X15.9631 Y6.9659
G01 X16.0069 Y7.0191
G01 X16.0394 Y7.0799
G01 X16.0594 Y7.1459
G01 X16.0670 Y7.2232
G01 X16.0670 Y9.6188
G01 X16.0594 Y9.6961
G01 X16.0394 Y9.7621
G01 X16.0069 Y9.8229
G01 X15.9631 Y9.8761
G01 X15.9099 Y9.9199
G01 X15.8491 Y9.9524
G01 X15.7831 Y9.9724
G01 X15.7058 Y9.9800
G01 X12.2942 Y9.9800
G01 X12.2169 Y9.9724
G01 X12.1509 Y9.9524
G01 X12.0901 Y9.9199
G01 X12.0369 Y9.8761
G01 X11.9931 Y9.8229
G01 X11.9606 Y9.7621
G01 X11.9406 Y9.6961
G01 X11.9330 Y9.6188
G01 X11.9330 Y9.2480
G01 X11.9322 Y9.2306
G01 X11.9296 Y9.2135
G01 X11.9254 Y9.1966
G01 X11.9185 Y9.1780
G01 X11.9121 Y9.1645
G01 X11.9045 Y9.1517
G01 X11.8928 Y9.1357
G01 X11.8812 Y9.1228
G01 X11.8663 Y9.1096
G01 X11.8543 Y9.1008
G01 X11.8416 Y9.0931
G01 X11.8248 Y9.0849
G01 X11.8073 Y9.0786
G01 X11.7905 Y9.0743
G01 X11.7733 Y9.0718
G01 X11.7572 Y9.0710
G01 X10.1491 Y9.0709
G01 X10.1330 Y9.0717
G01 X10.1085 Y9.0741
G01 X9.9811 Y9.0615
G01 X9.8586 Y9.0244
G01 X9.7457 Y8.9640
G01 X9.6467 Y8.8828
G01 X9.6339 Y8.8672
G01 X9.6222 Y8.8544
G01 X9.6102 Y8.8436
G01 X9.5941 Y8.8320
G01 X9.5813 Y8.8244
G01 X9.5678 Y8.8179
G01 X9.5481 Y8.8107
G01 X9.5324 Y8.8068
G01 X9.5176 Y8.8046
G01 X9.4954 Y8.8035
G01 X9.4780 Y8.8046
G01 X9.4633 Y8.8068
G01 X9.4488 Y8.8104
G01 X9.4301 Y8.8169
G01 X9.4144 Y8.8243
G01 X9.3995 Y8.8333
G01 X9.3865 Y8.8429
G01 X9.3253 Y8.8930
G01 X9.2124 Y8.9534
G01 X9.0899 Y8.9905
G01 X8.9625 Y9.0031
G01 X8.9380 Y9.0007
G01 X8.9219 Y8.9999
G01 X8.2975 Y9.0000
G01 X8.2826 Y9.0008
G01 X8.2678 Y9.0029
G01 X8.2485 Y9.0076
G01 X8.2299 Y9.0144
G01 X8.2165 Y9.0208
G01 X8.2026 Y9.0291
G01 X8.1876 Y9.0401
G01 X8.1730 Y9.0536
G01 X8.1630 Y9.0647
G01 X8.1541 Y9.0766
G01 X8.1432 Y9.0946
G01 X8.1363 Y9.1092
G01 X8.1298 Y9.1280
G01 X8.1263 Y9.1425
G01 X8.1240 Y9.1572
G01 X8.1199 Y9.1986
G01 X8.0999 Y9.2646
G01 X8.0674 Y9.3254
G01 X8.0236 Y9.3786
G01 X7.9704 Y9.4224
G01 X7.9096 Y9.4549
G01 X7.8436 Y9.4749
G01 X7.7663 Y9.4825
G01 X7.6991 Y9.4825
G01 X7.6817 Y9.4833
G01 X7.6646 Y9.4859
G01 X7.6501 Y9.4895
G01 X7.6313 Y9.4960
G01 X7.6156 Y9.5034
G01 X7.6007 Y9.5123
G01 X7.5868 Y9.5227
G01 X7.5757 Y9.5327
G01 X7.5607 Y9.5492
G01 X7.5519 Y9.5612
G01 X7.5424 Y9.5772
G01 X7.5346 Y9.5941
G01 X7.5297 Y9.6081
G01 X7.5260 Y9.6226
G01 X7.5229 Y9.6422
G01 X7.5220 Y9.6595
G01 X7.5229 Y9.6769
G01 X7.5260 Y9.6965
G01 X7.5297 Y9.7109
G01 X7.5346 Y9.7250
G01 X7.5429 Y9.7430
G01 X7.5533 Y9.7599
G01 X7.5622 Y9.7719
G01 X7.5730 Y9.7839
G01 X7.7071 Y9.9180
G01 X7.7191 Y9.9288
G01 X7.7331 Y9.9391
G01 X7.7480 Y9.9480
G01 X7.7660 Y9.9564
G01 X7.7800 Y9.9613
G01 X7.7945 Y9.9650
G01 X7.8117 Y9.9678
G01 X7.8314 Y9.9690
G01 X7.8488 Y9.9681
G01 X7.8660 Y9.9656
G01 X7.8840 Y9.9610
G01 X7.8992 Y9.9555
G01 X7.9127 Y9.9492
G01 X7.9298 Y9.9391
G01 X7.9447 Y9.9280
G01 X7.9558 Y9.9180
G01 X7.9670 Y9.9068
G01 X8.1553 Y9.7809
G01 X8.3646 Y9.6943
G01 X8.5867 Y9.6501
G01 X8.8133 Y9.6501
G01 X9.0354 Y9.6943
G01 X9.2447 Y9.7809
G01 X9.4330 Y9.9068
G01 X9.5932 Y10.0670
G01 X9.7191 Y10.2553
G01 X9.8057 Y10.4646
G01 X9.8499 Y10.6867
G01 X9.8499 Y10.8730
G01 X9.8506 Y10.8879
G01 X9.8536 Y10.9087
G01 X9.8576 Y10.9244
G01 X9.8625 Y10.9385
G01 X9.8708 Y10.9565
G01 X9.8812 Y10.9734
G01 X9.8901 Y10.9853
G01 X9.9009 Y10.9973
G01 X9.9166 Y11.0114
G01 X9.9286 Y11.0202
G01 X9.9414 Y11.0279
G01 X9.9592 Y11.0366
G01 X9.9780 Y11.0431
G01 X9.9925 Y11.0467
G01 X10.0084 Y11.0491
G01 X10.0270 Y11.0501
G01 X11.3525 Y11.0501
G01 X11.3687 Y11.0493
G01 X11.3871 Y11.0467
G01 X11.4039 Y11.0424
G01 X11.4203 Y11.0366
G01 X11.4360 Y11.0292
G01 X11.4509 Y11.0202
G01 X11.4639 Y11.0106
G01 X11.5102 Y10.9727
G01 X11.6120 Y10.9182
G01 X11.7226 Y10.8847
G01 X11.8462 Y10.8725
G01 X12.4038 Y10.8725
G01 X12.5274 Y10.8847
G01 X12.6380 Y10.9182
G01 X12.7398 Y10.9727
G01 X12.8291 Y11.0459
G01 X12.8631 Y11.0874
G01 X12.8739 Y11.0994
G01 X12.8877 Y11.1120
G01 X12.9027 Y11.1230
G01 X12.9165 Y11.1312
G01 X12.9300 Y11.1377
G01 X12.9486 Y11.1445
G01 X12.9655 Y11.1487
G01 X12.9802 Y11.1510
G01 X13.0025 Y11.1521
G01 X13.0174 Y11.1513
G01 X13.0321 Y11.1492
G01 X13.0514 Y11.1445
G01 X13.0678 Y11.1387
G01 X13.0813 Y11.1323
G01 X13.0994 Y11.1216
G01 X13.1123 Y11.1120
G01 X13.1261 Y11.0994
G01 X13.1369 Y11.0874
G01 X13.1709 Y11.0459
G01 X13.2602 Y10.9727
G01 X13.3620 Y10.9182
G01 X13.4726 Y10.8847
G01 X13.5962 Y10.8725
G01 X14.1538 Y10.8725
G01 X14.2774 Y10.8847
G01 X14.3880 Y10.9182
G01 X14.4898 Y10.9727
G01 X14.5832 Y11.0493
G01 X14.5959 Y11.0606
G01 X14.6089 Y11.0702
G01 X14.6216 Y11.0779
G01 X14.6395 Y11.0866
G01 X14.6558 Y11.0924
G01 X14.6727 Y11.0967
G01 X14.6899 Y11.0992
G01 X14.7073 Y11.1001
G01 X16.2118 Y11.1001
G01 X16.2280 Y11.0993
G01 X16.2500 Y11.0972
G01 X16.3676 Y11.1087
G01 X16.4807 Y11.1430
G01 X16.5849 Y11.1988
G01 X16.6763 Y11.2737
G01 X16.6903 Y11.2908
G01 X16.7012 Y11.3028
G01 X18.2466 Y12.8482
G01 X18.2615 Y12.8614
G01 X18.2735 Y12.8702
G01 X18.2884 Y12.8792
G01 X18.3041 Y12.8866
G01 X18.3181 Y12.8917
G01 X18.3397 Y12.8971
G01 X18.3545 Y12.8992
G01 X18.3718 Y12.9001
G01 X19.1217 Y12.9000
G01 X19.1402 Y12.8989
G01 X19.1550 Y12.8967
G01 X19.1695 Y12.8931
G01 X19.1882 Y12.8866
G01 X19.2050 Y12.8786
G01 X19.2188 Y12.8702
G01 X19.2328 Y12.8599
G01 X19.2457 Y12.8482
G01 X19.2573 Y12.8353
G01 X19.2677 Y12.8214
G01 X19.2766 Y12.8065
G01 X19.2840 Y12.7908
G01 X19.2899 Y12.7744
G01 X19.2941 Y12.7575
G01 X19.2968 Y12.7379
G01 X19.2975 Y12.7230
G01 X19.2975 Y12.5587
G01 X19.3051 Y12.4814
G01 X19.3251 Y12.4154
G01 X19.3576 Y12.3546
G01 X19.4014 Y12.3014
G01 X19.4546 Y12.2576
G01 X19.5154 Y12.2251
G01 X19.5814 Y12.2051
G01 X19.6587 Y12.1975
G01 X20.4413 Y12.1975
G01 X20.5186 Y12.2051
G01 X20.5846 Y12.2251
G01 X20.6454 Y12.2576
G01 X20.6986 Y12.3014
G01 X20.7490 Y12.3627
G01 X20.7615 Y12.3764
G01 X20.7735 Y12.3872
G01 X20.7855 Y12.3962
G01 X20.8013 Y12.4059
G01 X20.8204 Y12.4148
G01 X20.8344 Y12.4198
G01 X20.8513 Y12.4240
G01 X20.8685 Y12.4266
G01 X20.8834 Y12.4274
G01 X20.9032 Y12.4266
G01 X20.9204 Y12.4240
G01 X20.9372 Y12.4198
G01 X20.9536 Y12.4139
G01 X20.9671 Y12.4076
G01 X20.9862 Y12.3962
G01 X20.9982 Y12.3872
G01 X21.0110 Y12.3755
G01 X21.0227 Y12.3627
G01 X21.0344 Y12.3466
G01 X21.0420 Y12.3338
G01 X21.0905 Y12.2430
G01 X21.1593 Y12.1593
G01 X21.2430 Y12.0905
G01 X21.3385 Y12.0395
G01 X21.4422 Y12.0080
G01 X21.5220 Y12.0002
G01 X21.5999 Y12.0781
G01 X21.5999 Y12.5000
G01 X21.5463 Y12.5001
G01 X21.5367 Y12.5018
G01 X21.5275 Y12.5053
G01 X21.5212 Y12.5091
G01 X21.5164 Y12.5130
G01 X21.5121 Y12.5173
G01 X21.5078 Y12.5233
G01 X21.5043 Y12.5297
G01 X21.5022 Y12.5355
G01 X21.5005 Y12.5427
G01 X21.5000 Y12.5488
G01 X21.5000 Y14.4512
G01 X21.5012 Y14.4610
G01 X21.5038 Y14.4691
G01 X21.5084 Y14.4778
G01 X21.5138 Y14.4845
G01 X21.5212 Y14.4909
G01 X21.5286 Y14.4952
G01 X21.5367 Y14.4982
G01 X21.5463 Y14.4999
G01 X22.3512 Y14.5000
G01 X22.3573 Y14.4995
G01 X22.3633 Y14.4982
G01 X22.3691 Y14.4962
G01 X22.3746 Y14.4935
G01 X22.3798 Y14.4902
G01 X22.3845 Y14.4862
G01 X22.3887 Y14.4817
G01 X22.3922 Y14.4767
G01 X22.3957 Y14.4703
G01 X22.3982 Y14.4633
G01 X22.3996 Y14.4561
G01 X22.4000 Y14.4500
G01 X22.3999 Y12.5475
G01 X22.3993 Y12.5415
G01 X22.3975 Y12.5343
G01 X22.3952 Y12.5286
G01 X22.3916 Y12.5222
G01 X22.3870 Y12.5164
G01 X22.3827 Y12.5121
G01 X22.3778 Y12.5084
G01 X22.3714 Y12.5048
G01 X22.3621 Y12.5015
G01 X22.3537 Y12.5001
G01 X22.3001 Y12.5000
G01 X22.3001 Y12.0781
G01 X22.3780 Y12.0002
G01 X22.4578 Y12.0080
G01 X22.5615 Y12.0395
G01 X22.6570 Y12.0905
G01 X22.7423 Y12.1605
G01 X22.7487 Y12.1674
G01 X22.7597 Y12.1774
G01 X22.7726 Y12.1871
G01 X22.7906 Y12.1980
G01 X22.8052 Y12.2049
G01 X22.8193 Y12.2100
G01 X22.8385 Y12.2150
G01 X22.8556 Y12.2175
G01 X22.8730 Y12.2184
G01 X22.8928 Y12.2172
G01 X22.9099 Y12.2144
G01 X22.9244 Y12.2107
G01 X22.9385 Y12.2058
G01 X22.9565 Y12.1975
G01 X22.9703 Y12.1892
G01 X22.9853 Y12.1782
G01 X22.9982 Y12.1665
G01 X23.0099 Y12.1536
G01 X23.0215 Y12.1376
G01 X23.0303 Y12.1226
G01 X23.0366 Y12.1091
G01 X23.0417 Y12.0950
G01 X23.0467 Y12.0758
G01 X23.0492 Y12.0587
G01 X23.0501 Y12.0413
G01 X23.0501 Y11.5107
G01 X23.0493 Y11.4946
G01 X23.0468 Y11.4689
G01 X23.0500 Y11.3592
G01 X23.0501 Y11.3001
G01 X23.5571 Y11.3001
G01 X23.5624 Y11.3210
G01 X23.5710 Y11.3452
G01 X23.5828 Y11.3708
G01 X23.5985 Y11.3972
G01 X23.6153 Y11.4199
G01 X23.6342 Y11.4408
G01 X23.6570 Y11.4613
G01 X23.6778 Y11.4765
G01 X23.6998 Y11.4898
G01 X23.7264 Y11.5026
G01 X23.7540 Y11.5126
G01 X23.7790 Y11.5189
G01 X23.8105 Y11.5237
G01 X23.8375 Y11.5250
G01 X24.0713 Y11.5250
G01 X25.5000 Y12.9537
G01 X25.5000 Y14.4500
G01 X25.5007 Y14.4585
G01 X25.5029 Y14.4668
G01 X25.5071 Y14.4757
G01 X25.5121 Y14.4827
G01 X25.5192 Y14.4894
G01 X25.5243 Y14.4929
G01 X25.5286 Y14.4952
G01 X25.5343 Y14.4975
G01 X25.5390 Y14.4988
G01 X25.5488 Y14.5000
G01 X26.3500 Y14.5000
G01 X26.3561 Y14.4996
G01 X26.3645 Y14.4978
G01 X26.3725 Y14.4947
G01 X26.3798 Y14.4902
G01 X26.3870 Y14.4836
G01 X26.3922 Y14.4767
G01 X26.3962 Y14.4691
G01 X26.3990 Y14.4598
G01 X26.4000 Y14.4512
G01 X26.4000 Y12.5500
G01 X26.3990 Y12.5402
G01 X26.3966 Y12.5320
G01 X26.3929 Y12.5243
G01 X26.3879 Y12.5173
G01 X26.3808 Y12.5106
G01 X26.3757 Y12.5071
G01 X26.3714 Y12.5048
G01 X26.3657 Y12.5025
G01 X26.3610 Y12.5012
G01 X26.3512 Y12.5000
G01 X25.7537 Y12.5000
G01 X24.6513 Y11.3976
G01 X24.6672 Y11.3708
G01 X24.6781 Y11.3475
G01 X24.6869 Y11.3233
G01 X24.6945 Y11.2936
G01 X24.6987 Y11.2645
G01 X24.7000 Y11.2375
G01 X24.7000 Y10.7625
G01 X24.6985 Y10.7331
G01 X24.6939 Y10.7040
G01 X24.6876 Y10.6790
G01 X24.6790 Y10.6548
G01 X24.6661 Y10.6270
G01 X24.6515 Y10.6028
G01 X24.6347 Y10.5801
G01 X24.6140 Y10.5575
G01 X24.5930 Y10.5387
G01 X24.5722 Y10.5235
G01 X24.5502 Y10.5102
G01 X24.5225 Y10.4969
G01 X24.4936 Y10.4867
G01 X24.4686 Y10.4805
G01 X24.4431 Y10.4767
G01 X24.4150 Y10.4751
G01 X23.8375 Y10.4750
G01 X23.8069 Y10.4767
G01 X23.7790 Y10.4811
G01 X23.7540 Y10.4874
G01 X23.7298 Y10.4960
G01 X23.7020 Y10.5089
G01 X23.6758 Y10.5249
G01 X23.6551 Y10.5403
G01 X23.6360 Y10.5575
G01 X23.6153 Y10.5801
G01 X23.5971 Y10.6048
G01 X23.5839 Y10.6270
G01 X23.5730 Y10.6499
G01 X23.1281 Y10.6499
G01 X23.0479 Y10.5698
G01 X23.0468 Y10.5311
G01 X23.0580 Y10.4172
G01 X23.0895 Y10.3135
G01 X23.1405 Y10.2180
G01 X23.2093 Y10.1343
G01 X23.2930 Y10.0655
G01 X23.3885 Y10.0145
G01 X23.4170 Y10.0058
G01 X23.4299 Y10.0012
G01 X23.4479 Y9.9929
G01 X23.4648 Y9.9826
G01 X23.4767 Y9.9736
G01 X23.4878 Y9.9636
G01 X23.5028 Y9.9471
G01 X23.5123 Y9.9341
G01 X23.5217 Y9.9180
G01 X23.5280 Y9.9045
G01 X23.5338 Y9.8882
G01 X23.5381 Y9.8713
G01 X23.5405 Y9.8553
G01 X23.5415 Y9.8368
G01 X23.5408 Y9.8218
G01 X23.5375 Y9.7998
G01 X23.5338 Y9.7854
G01 X23.5280 Y9.7690
G01 X23.5206 Y9.7533
G01 X23.5123 Y9.7394
G01 X23.5013 Y9.7244
G01 X23.4887 Y9.7107
G01 X23.4767 Y9.6999
G01 X23.4209 Y9.6541
G01 X23.3477 Y9.5648
G01 X23.2932 Y9.4630
G01 X23.2597 Y9.3524
G01 X23.2475 Y9.2288
G01 X23.2475 Y8.7712
G01 X23.2597 Y8.6476
G01 X23.2932 Y8.5370
G01 X23.3477 Y8.4352
G01 X23.4243 Y8.3418
G01 X23.4349 Y8.3301
G01 X23.4465 Y8.3140
G01 X23.4542 Y8.3012
G01 X23.4606 Y8.2877
G01 X23.4667 Y8.2715
G01 X23.4717 Y8.2523
G01 X23.4741 Y8.2363
G01 X23.4751 Y8.2177
G01 X23.4751 Y7.8270
G01 X23.4743 Y7.8109
G01 X23.4711 Y7.7901
G01 X23.4674 Y7.7756
G01 X23.4616 Y7.7592
G01 X23.4542 Y7.7435
G01 X23.4465 Y7.7307
G01 X23.4341 Y7.7137
G01 X23.4232 Y7.7018
G01 X23.4103 Y7.6901
G01 X23.3964 Y7.6798
G01 X23.3793 Y7.6697
G01 X23.3635 Y7.6625
G01 X23.3494 Y7.6576
G01 X23.3349 Y7.6539
G01 X23.3166 Y7.6509
G01 X23.3005 Y7.6500
G01 X22.0434 Y7.6499
G01 X22.0236 Y7.6511
G01 X22.0088 Y7.6533
G01 X21.9944 Y7.6569
G01 X21.9756 Y7.6634
G01 X21.9578 Y7.6721
G01 X21.9450 Y7.6798
G01 X21.9320 Y7.6894
G01 X21.9182 Y7.7018
G01 X21.9081 Y7.7128
G01 X21.8976 Y7.7266
G01 X21.8932 Y7.7330
G01 X21.7330 Y7.8932
G01 X21.5447 Y8.0191
G01 X21.3354 Y8.1057
G01 X21.1133 Y8.1499
G01 X20.8867 Y8.1499
G01 X20.6646 Y8.1057
G01 X20.4553 Y8.0191
G01 X20.2670 Y7.8932
G01 X20.1068 Y7.7330
G01 X19.9809 Y7.5447
G01 X19.8943 Y7.3354
G01 X19.8501 Y7.1133
G01 X19.8501 Y6.8867
G01 X19.8943 Y6.6646
G01 X19.9809 Y6.4553
G01 X20.1068 Y6.2670
G01 X20.2670 Y6.1068
G01 X20.4553 Y5.9809
G01 X20.6646 Y5.8943
G01 X20.8867 Y5.8501
G01 X21.1133 Y5.8501
G01 X21.3354 Y5.8943
G01 X21.5447 Y5.9809
G01 X21.7330 Y6.1068
G01 X21.8932 Y6.2670
G01 X21.8976 Y6.2734
G01 X21.9081 Y6.2872
G01 X21.9182 Y6.2982
G01 X21.9320 Y6.3106
G01 X21.9450 Y6.3202
G01 X21.9578 Y6.3279
G01 X21.9756 Y6.3366
G01 X21.9920 Y6.3424
G01 X22.0064 Y6.3461
G01 X22.0273 Y6.3493
G01 X22.0434 Y6.3501
G01 X23.3525 Y6.3501
G01 X23.3687 Y6.3493
G01 X23.3871 Y6.3467
G01 X23.4039 Y6.3424
G01 X23.4203 Y6.3366
G01 X23.4360 Y6.3292
G01 X23.4509 Y6.3202
G01 X23.4639 Y6.3106
G01 X23.5102 Y6.2727
G01 X23.6120 Y6.2182
G01 X23.7226 Y6.1847
G01 X23.8462 Y6.1725
G01 X24.4038 Y6.1725
G01 X24.5274 Y6.1847
G01 X24.6380 Y6.2182
G01 X24.7398 Y6.2727
G01 X24.8291 Y6.3459
G01 X24.8631 Y6.3874
G01 X24.8739 Y6.3994
G01 X24.8877 Y6.4120
G01 X24.9027 Y6.4230
G01 X24.9165 Y6.4312
G01 X24.9300 Y6.4377
G01 X24.9486 Y6.4445
G01 X24.9655 Y6.4487
G01 X24.9802 Y6.4510
G01 X25.0025 Y6.4521
G01 X25.0174 Y6.4513
G01 X25.0345 Y6.4487
G01 X25.0514 Y6.4445
G01 X25.0655 Y6.4396
G01 X25.0856 Y6.4300
G01 X25.0984 Y6.4223
G01 X25.1114 Y6.4127
G01 X25.1252 Y6.4003
G01 X25.1353 Y6.3893
G01 X25.1709 Y6.3459
G01 X25.2603 Y6.2726
G01 X25.2741 Y6.2600
G01 X25.2849 Y6.2480
G01 X25.2952 Y6.2340
G01 X25.3042 Y6.2191
G01 X25.3106 Y6.2057
G01 X25.3174 Y6.1871
G01 X25.3217 Y6.1702
G01 X25.3242 Y6.1530
G01 X25.3250 Y6.1369
G01 X25.3251 Y5.7607
G01 X25.3243 Y5.7446
G01 X25.3224 Y5.7250
G01 X25.3330 Y5.6172
G01 X25.3645 Y5.5135
G01 X25.4155 Y5.4180
G01 X25.4843 Y5.3343
G01 X25.4995 Y5.3218
G01 X25.5114 Y5.3109
G01 X25.6982 Y5.1241
G01 X25.7091 Y5.1121
G01 X25.7202 Y5.0972
G01 X25.7303 Y5.0801
G01 X25.7375 Y5.0643
G01 X25.7424 Y5.0503
G01 X25.7461 Y5.0358
G01 X25.7492 Y5.0162
G01 X25.7500 Y5.0001
G01 X25.7500 Y4.8958
G01 X25.7489 Y4.8772
G01 X25.7467 Y4.8625
G01 X25.7431 Y4.8480
G01 X25.7356 Y4.8270
G01 X25.7292 Y4.8136
G01 X25.7195 Y4.7976
G01 X25.7099 Y4.7847
G01 X25.6982 Y4.7718
G01 X25.6853 Y4.7601
G01 X25.6734 Y4.7512
G01 X25.6565 Y4.7409
G01 X25.6419 Y4.7339
G01 X25.6256 Y4.7280
G01 X25.6154 Y4.7249
G01 X25.5546 Y4.6924
G01 X25.5215 Y4.6651
G01 X25.5095 Y4.6562
G01 X25.4904 Y4.6447
G01 X25.4746 Y4.6375
G01 X25.4605 Y4.6326
G01 X25.4461 Y4.6289
G01 X25.4265 Y4.6258
G01 X25.4091 Y4.6249
G01 X22.9896 Y4.6250
G01 X22.9735 Y4.6258
G01 X22.9539 Y4.6289
G01 X22.9395 Y4.6326
G01 X22.9254 Y4.6375
G01 X22.9096 Y4.6447
G01 X22.8905 Y4.6562
G01 X22.8785 Y4.6651
G01 X22.8454 Y4.6924
G01 X22.7846 Y4.7249
G01 X22.7186 Y4.7449
G01 X22.6413 Y4.7525
G01 X21.6087 Y4.7525
G01 X21.5314 Y4.7449
G01 X21.4654 Y4.7249
G01 X21.4046 Y4.6924
G01 X21.3514 Y4.6486
G01 X21.3076 Y4.5954
G01 X21.2751 Y4.5346
G01 X21.2551 Y4.4686
G01 X21.2475 Y4.3913
G01 X21.2475 Y3.7587
G01 X21.2551 Y3.6814
G01 X21.2751 Y3.6154
G01 X21.3076 Y3.5546
G01 X21.3514 Y3.5014
G01 X21.4046 Y3.4576
G01 X21.4654 Y3.4251
G01 X21.5314 Y3.4051
G01 X21.6087 Y3.3975
G01 X22.6413 Y3.3975
G01 X22.7186 Y3.4051
G01 X22.7846 Y3.4251
G01 X22.8454 Y3.4576
G01 X22.8785 Y3.4849
G01 X22.8905 Y3.4938
G01 X22.9096 Y3.5053
G01 X22.9254 Y3.5125
G01 X22.9395 Y3.5174
G01 X22.9539 Y3.5211
G01 X22.9735 Y3.5242
G01 X22.9896 Y3.5250
G01 X25.4091 Y3.5251
G01 X25.4265 Y3.5242
G01 X25.4461 Y3.5211
G01 X25.4605 Y3.5174
G01 X25.4746 Y3.5125
G01 X25.4904 Y3.5053
G01 X25.5095 Y3.4938
G01 X25.5215 Y3.4849
G01 X25.5546 Y3.4576
G01 X25.6154 Y3.4251
G01 X25.6814 Y3.4051
G01 X25.7587 Y3.3975
G01 X26.7913 Y3.3975
G01 X26.8686 Y3.4051
G01 X26.9346 Y3.4251
G01 X26.9954 Y3.4576
G01 X27.0486 Y3.5014
G01 X27.0924 Y3.5546
G01 X27.1249 Y3.6154
G01 X27.1449 Y3.6814
G01 X27.1525 Y3.7587
G01 X27.1525 Y4.3913
G01 X27.1449 Y4.4686
G01 X27.1249 Y4.5346
G01 X27.0924 Y4.5954
G01 X27.0486 Y4.6486
G01 X26.9954 Y4.6924
G01 X26.9414 Y4.7213
G01 X26.9286 Y4.7290
G01 X26.9137 Y4.7401
G01 X26.9001 Y4.7528
G01 X26.8901 Y4.7639
G01 X26.8812 Y4.7758
G01 X26.8708 Y4.7928
G01 X26.8630 Y4.8096
G01 X26.8576 Y4.8248
G01 X26.8533 Y4.8417
G01 X26.8508 Y4.8589
G01 X26.8500 Y4.8750
G01 X26.8499 Y5.2643
G01 X26.8507 Y5.2804
G01 X26.8526 Y5.3000
G01 X26.8420 Y5.4078
G01 X26.8105 Y5.5115
G01 X26.7595 Y5.6070
G01 X26.6907 Y5.6907
G01 X26.6755 Y5.7032
G01 X26.6636 Y5.7141
G01 X26.4751 Y5.9027
G01 X26.4651 Y5.9138
G01 X26.4548 Y5.9278
G01 X26.4458 Y5.9427
G01 X26.4394 Y5.9561
G01 X26.4319 Y5.9771
G01 X26.4283 Y5.9916
G01 X26.4257 Y6.0100
G01 X26.4249 Y6.0261
G01 X26.4249 Y6.1357
G01 X26.4256 Y6.1506
G01 X26.4283 Y6.1702
G01 X26.4333 Y6.1894
G01 X26.4384 Y6.2034
G01 X26.4447 Y6.2170
G01 X26.4541 Y6.2330
G01 X26.4651 Y6.2480
G01 X26.4777 Y6.2617
G01 X26.4897 Y6.2726
G01 X26.5791 Y6.3459
G01 X26.6017 Y6.3734
G01 X26.6117 Y6.3845
G01 X26.6254 Y6.3970
G01 X26.6384 Y6.4067
G01 X26.6543 Y6.4163
G01 X26.6711 Y6.4242
G01 X26.6863 Y6.4296
G01 X26.7307 Y6.4430
G01 X26.8349 Y6.4988
G01 X26.9263 Y6.5737
G01 X26.9403 Y6.5908
G01 X26.9512 Y6.6028
G01 X28.1457 Y7.7973
G01 X28.1586 Y7.8090
G01 X28.1706 Y7.8179
G01 X28.1875 Y7.8282
G01 X28.2032 Y7.8357
G01 X28.2219 Y7.8422
G01 X28.2364 Y7.8458
G01 X28.2511 Y7.8480
G01 X28.2697 Y7.8491
G01 X29.6413 Y7.8492
G01 X29.7186 Y7.8568
G01 X29.7846 Y7.8768
G01 X29.8454 Y7.9093
G01 X29.8986 Y7.9530
G01 X29.9424 Y8.0063
G01 X29.9749 Y8.0671
G01 X29.9949 Y8.1330
G01 X30.0025 Y8.2103
G01 X30.0025 Y9.1929
G01 X29.9949 Y9.2702
G01 X29.9749 Y9.3362
G01 X29.9424 Y9.3970
G01 X29.8986 Y9.4503
G01 X29.8454 Y9.4940
G01 X29.7846 Y9.5265
G01 X29.7663 Y9.5321
G01 X29.7511 Y9.5375
G01 X29.7354 Y9.5450
G01 X29.7215 Y9.5532
G01 X29.7047 Y9.5659
G01 X29.6937 Y9.5759
G01 X29.6820 Y9.5888
G01 X29.6716 Y9.6028
G01 X29.6639 Y9.6155
G01 X29.6544 Y9.6357
G01 X29.6494 Y9.6497
G01 X29.6452 Y9.6666
G01 X29.6426 Y9.6838
G01 X29.6418 Y9.7011
G01 X29.6426 Y9.7185
G01 X29.6452 Y9.7357
G01 X29.6494 Y9.7525
G01 X29.6544 Y9.7666
G01 X29.6639 Y9.7867
G01 X29.6716 Y9.7995
G01 X29.6820 Y9.8135
G01 X29.6937 Y9.8263
G01 X29.7047 Y9.8364
G01 X29.7215 Y9.8490
G01 X29.7354 Y9.8573
G01 X29.7511 Y9.8647
G01 X29.7663 Y9.8702
G01 X29.7846 Y9.8758
G01 X29.8454 Y9.9083
G01 X29.8986 Y9.9520
G01 X29.9424 Y10.0053
G01 X29.9749 Y10.0661
G01 X29.9949 Y10.1320
G01 X30.0025 Y10.2093
G01 X30.0025 Y11.1919
G01 X29.9949 Y11.2692
G01 X29.9749 Y11.3352
G01 X29.9424 Y11.3960
G01 X29.8986 Y11.4493
G01 X29.8454 Y11.4930
G01 X29.7846 Y11.5255
G01 X29.7621 Y11.5323
G01 X29.7469 Y11.5378
G01 X29.7312 Y11.5452
G01 X29.7173 Y11.5535
G01 X29.7005 Y11.5661
G01 X29.6895 Y11.5762
G01 X29.6778 Y11.5891
G01 X29.6674 Y11.6030
G01 X29.6585 Y11.6179
G01 X29.6511 Y11.6336
G01 X29.6460 Y11.6477
G01 X29.6406 Y11.6693
G01 X29.6385 Y11.6840
G01 X29.6376 Y11.7014
G01 X29.6385 Y11.7187
G01 X29.6410 Y11.7359
G01 X29.6452 Y11.7528
G01 X29.6511 Y11.7691
G01 X29.6585 Y11.7848
G01 X29.6674 Y11.7998
G01 X29.6778 Y11.8137
G01 X29.6895 Y11.8266
G01 X29.7043 Y11.8398
G01 X29.7163 Y11.8486
G01 X29.7312 Y11.8575
G01 X29.7492 Y11.8658
G01 X29.7621 Y11.8704
G01 X29.7846 Y11.8773
G01 X29.8454 Y11.9098
G01 X29.8986 Y11.9535
G01 X29.9424 Y12.0068
G01 X29.9749 Y12.0676
G01 X29.9949 Y12.1335
G01 X30.0025 Y12.2108
G01 X30.0025 Y13.1934
G01 X29.9949 Y13.2707
G01 X29.9749 Y13.3367
G01 X29.9424 Y13.3975
G01 X29.8986 Y13.4508
G01 X29.8454 Y13.4945
G01 X29.7846 Y13.5270
G01 X29.7663 Y13.5326
G01 X29.7511 Y13.5380
G01 X29.7354 Y13.5455
G01 X29.7215 Y13.5537
G01 X29.7047 Y13.5664
G01 X29.6937 Y13.5764
G01 X29.6820 Y13.5893
G01 X29.6716 Y13.6033
G01 X29.6639 Y13.6160
G01 X29.6544 Y13.6362
G01 X29.6494 Y13.6502
G01 X29.6452 Y13.6671
G01 X29.6426 Y13.6843
G01 X29.6418 Y13.7016
G01 X29.6426 Y13.7190
G01 X29.6452 Y13.7362
G01 X29.6494 Y13.7530
G01 X29.6553 Y13.7694
G01 X29.6627 Y13.7851
G01 X29.6716 Y13.8000
G01 X29.6820 Y13.8140
G01 X29.6937 Y13.8268
G01 X29.7065 Y13.8385
G01 X29.7185 Y13.8474
G01 X29.7354 Y13.8578
G01 X29.7522 Y13.8657
G01 X29.7663 Y13.8707
G01 X29.7846 Y13.8763
G01 X29.8454 Y13.9088
G01 X29.8986 Y13.9525
G01 X29.9424 Y14.0058
G01 X29.9749 Y14.0666
G01 X29.9949 Y14.1325
G01 X30.0025 Y14.2098
G01 X30.0025 Y15.1924
G01 X29.9949 Y15.2697
G01 X29.9749 Y15.3357
G01 X29.9424 Y15.3965
G01 X29.8986 Y15.4498
G01 X29.8454 Y15.4935
G01 X29.7846 Y15.5260
G01 X29.7705 Y15.5303
G01 X29.7542 Y15.5362
G01 X29.7396 Y15.5432
G01 X29.7257 Y15.5514
G01 X29.7089 Y15.5641
G01 X29.6978 Y15.5741
G01 X29.6862 Y15.5870
G01 X29.6758 Y15.6010
G01 X29.6681 Y15.6137
G01 X29.6586 Y15.6339
G01 X29.6536 Y15.6479
G01 X29.6494 Y15.6648
G01 X29.6468 Y15.6820
G01 X29.6460 Y15.6993
G01 X29.6468 Y15.7167
G01 X29.6494 Y15.7339
G01 X29.6536 Y15.7507
G01 X29.6586 Y15.7648
G01 X29.6681 Y15.7849
G01 X29.6758 Y15.7977
G01 X29.6862 Y15.8117
G01 X29.6978 Y15.8245
G01 X29.7089 Y15.8346
G01 X29.7257 Y15.8472
G01 X29.7396 Y15.8555
G01 X29.7542 Y15.8624
G01 X29.7705 Y15.8684
G01 X29.7846 Y15.8727
G01 X29.8454 Y15.9052
G01 X29.8986 Y15.9489
G01 X29.9424 Y16.0022
G01 X29.9749 Y16.0630
G01 X29.9949 Y16.1290
G01 X30.0025 Y16.2063
G01 X30.0025 Y17.1889
G01 X29.9949 Y17.2662
G01 X29.9749 Y17.3321
G01 X29.9424 Y17.3929
G01 X29.8986 Y17.4462
G01 X29.8454 Y17.4899
G01 X29.7846 Y17.5224
G01 X29.7621 Y17.5293
G01 X29.7469 Y17.5347
G01 X29.7312 Y17.5422
G01 X29.7173 Y17.5504
G01 X29.7005 Y17.5631
G01 X29.6895 Y17.5731
G01 X29.6778 Y17.5860
G01 X29.6674 Y17.5999
G01 X29.6585 Y17.6149
G01 X29.6511 Y17.6306
G01 X29.6460 Y17.6446
G01 X29.6406 Y17.6662
G01 X29.6385 Y17.6810
G01 X29.6376 Y17.6983
G01 X29.6385 Y17.7157
G01 X29.6410 Y17.7329
G01 X29.6452 Y17.7497
G01 X29.6511 Y17.7661
G01 X29.6585 Y17.7818
G01 X29.6674 Y17.7967
G01 X29.6778 Y17.8106
G01 X29.6895 Y17.8235
G01 X29.7043 Y17.8367
G01 X29.7163 Y17.8455
G01 X29.7312 Y17.8545
G01 X29.7492 Y17.8628
G01 X29.7621 Y17.8674
G01 X29.7846 Y17.8742
G01 X29.8454 Y17.9067
G01 X29.8986 Y17.9504
G01 X29.9424 Y18.0037
G01 X29.9749 Y18.0645
G01 X29.9949 Y18.1305
G01 X30.0025 Y18.2078
G01 X30.0025 Y19.1904
G01 X29.9949 Y19.2677
G01 X29.9749 Y19.3336
G01 X29.9424 Y19.3944
G01 X29.8986 Y19.4477
G01 X29.8454 Y19.4914
G01 X29.7846 Y19.5239
G01 X29.7663 Y19.5295
G01 X29.7511 Y19.5350
G01 X29.7354 Y19.5424
G01 X29.7215 Y19.5507
G01 X29.7047 Y19.5633
G01 X29.6937 Y19.5734
G01 X29.6820 Y19.5862
G01 X29.6716 Y19.6002
G01 X29.6639 Y19.6130
G01 X29.6544 Y19.6331
G01 X29.6494 Y19.6472
G01 X29.6452 Y19.6640
G01 X29.6426 Y19.6812
G01 X29.6418 Y19.6986
G01 X29.6426 Y19.7159
G01 X29.6452 Y19.7331
G01 X29.6494 Y19.7500
G01 X29.6544 Y19.7640
G01 X29.6639 Y19.7842
G01 X29.6716 Y19.7969
G01 X29.6820 Y19.8109
G01 X29.6937 Y19.8238
G01 X29.7047 Y19.8338
G01 X29.7215 Y19.8465
G01 X29.7354 Y19.8547
G01 X29.7511 Y19.8622
G01 X29.7663 Y19.8676
G01 X29.7846 Y19.8732
G01 X29.8454 Y19.9057
G01 X29.8986 Y19.9494
G01 X29.9424 Y20.0027
G01 X29.9749 Y20.0635
G01 X29.9949 Y20.1295
G01 X30.0025 Y20.2068
G01 X30.0025 Y21.1894
G01 X29.9949 Y21.2667
G01 X29.9749 Y21.3326
G01 X29.9424 Y21.3934
G01 X29.8986 Y21.4467
G01 X29.8454 Y21.4904
G01 X29.7846 Y21.5229
G01 X29.7186 Y21.5429
G01 X29.6413 Y21.5505
G01 X28.1587 Y21.5505
G01 X28.0814 Y21.5429
G01 X28.0154 Y21.5229
G01 X27.9546 Y21.4904
G01 X27.9014 Y21.4467
G01 X27.8875 Y21.4311
G01 X27.8737 Y21.4187
G01 X27.8607 Y21.4091
G01 X27.8479 Y21.4014
G01 X27.8278 Y21.3919
G01 X27.8137 Y21.3869
G01 X27.7968 Y21.3827
G01 X27.7796 Y21.3801
G01 X27.7647 Y21.3793
G01 X27.7425 Y21.3804
G01 X27.7277 Y21.3827
G01 X27.7097 Y21.3873
G01 X27.6945 Y21.3928
G01 X27.6810 Y21.3991
G01 X27.6639 Y21.4091
G01 X27.6500 Y21.4195
G01 X27.6389 Y21.4294
G01 X27.6254 Y21.4440
G01 X27.6138 Y21.4600
G01 X27.6061 Y21.4729
G01 X27.5987 Y21.4886
G01 X27.5922 Y21.5073
G01 X27.5886 Y21.5218
G01 X27.5864 Y21.5366
G01 X27.5852 Y21.5563
G01 X27.5861 Y21.5737
G01 X27.5886 Y21.5909
G01 X27.5932 Y21.6089
G01 X27.5987 Y21.6241
G01 X27.6056 Y21.6387
G01 X27.6455 Y21.7135
G01 X27.6770 Y21.8172
G01 X27.6883 Y21.9319
G01 X27.6864 Y22.0204
G01 X27.6069 Y22.0999
G01 X27.1779 Y22.0999
G01 X27.1726 Y22.0790
G01 X27.1631 Y22.0525
G01 X27.1511 Y22.0270
G01 X27.1379 Y22.0048
G01 X27.1181 Y21.9783
G01 X27.1008 Y21.9592
G01 X27.0808 Y21.9410
G01 X27.0552 Y21.9221
G01 X27.0330 Y21.9089
G01 X27.0075 Y21.8969
G01 X26.9810 Y21.8874
G01 X26.9560 Y21.8811
G01 X26.9245 Y21.8763
G01 X26.8975 Y21.8750
G01 X26.4213 Y21.8750
G01 X26.3919 Y21.8767
G01 X26.3664 Y21.8805
G01 X26.3402 Y21.8870
G01 X26.3125 Y21.8969
G01 X26.2848 Y21.9102
G01 X26.2628 Y21.9235
G01 X26.2420 Y21.9387
G01 X26.2183 Y21.9601
G01 X26.2003 Y21.9801
G01 X26.1849 Y22.0008
G01 X26.1689 Y22.0270
G01 X26.1560 Y22.0548
G01 X26.1474 Y22.0790
G01 X26.1421 Y22.0999
G01 X25.3179 Y22.0999
G01 X25.3126 Y22.0790
G01 X25.3040 Y22.0548
G01 X25.2911 Y22.0270
G01 X25.2751 Y22.0008
G01 X25.2597 Y21.9801
G01 X25.2425 Y21.9610
G01 X25.2199 Y21.9403
G01 X25.1952 Y21.9221
G01 X25.1730 Y21.9089
G01 X25.1498 Y21.8979
G01 X25.1210 Y21.8874
G01 X25.0912 Y21.8801
G01 X25.0657 Y21.8764
G01 X25.0387 Y21.8750
G01 X24.5625 Y21.8750
G01 X24.5343 Y21.8764
G01 X24.5064 Y21.8805
G01 X24.4790 Y21.8874
G01 X24.4548 Y21.8960
G01 X24.4248 Y21.9102
G01 X24.4028 Y21.9235
G01 X24.3801 Y21.9403
G01 X24.3592 Y21.9592
G01 X24.3419 Y21.9783
G01 X24.3221 Y22.0048
G01 X24.3089 Y22.0270
G01 X24.2969 Y22.0525
G01 X24.2874 Y22.0790
G01 X24.2821 Y22.0999
G01 X23.8531 Y22.0999
G01 X23.7736 Y22.0204
G01 X23.7717 Y21.9319
G01 X23.7830 Y21.8172
G01 X23.8145 Y21.7135
G01 X23.8701 Y21.6094
G01 X23.8770 Y21.5948
G01 X23.8821 Y21.5807
G01 X23.8871 Y21.5615
G01 X23.8896 Y21.5444
G01 X23.8905 Y21.5270
G01 X23.8896 Y21.5096
G01 X23.8871 Y21.4925
G01 X23.8835 Y21.4780
G01 X23.8770 Y21.4592
G01 X23.8683 Y21.4414
G01 X23.8606 Y21.4286
G01 X23.8518 Y21.4166
G01 X23.8386 Y21.4018
G01 X23.8238 Y21.3886
G01 X23.8118 Y21.3798
G01 X23.7990 Y21.3721
G01 X23.7800 Y21.3630
G01 X23.7648 Y21.3576
G01 X23.7479 Y21.3533
G01 X23.7308 Y21.3508
G01 X23.7134 Y21.3499
G01 X21.9037 Y21.3499
G01 X21.8839 Y21.3511
G01 X21.8691 Y21.3533
G01 X21.8546 Y21.3569
G01 X21.8337 Y21.3644
G01 X21.8191 Y21.3714
G01 X21.8033 Y21.3812
G01 X21.7913 Y21.3901
G01 X21.7776 Y21.4027
G01 X21.7668 Y21.4147
G01 X21.7551 Y21.4307
G01 X21.7475 Y21.4435
G01 X21.7401 Y21.4592
G01 X21.7342 Y21.4756
G01 X21.7300 Y21.4925
G01 X21.7275 Y21.5096
G01 X21.7266 Y21.5270
G01 X21.7275 Y21.5444
G01 X21.7298 Y21.5603
G01 X21.7342 Y21.5784
G01 X21.7401 Y21.5948
G01 X21.7475 Y21.6105
G01 X21.7579 Y21.6274
G01 X21.7668 Y21.6393
G01 X21.7776 Y21.6513
G01 X21.8932 Y21.7670
G01 X22.0191 Y21.9553
G01 X22.1057 Y22.1646
G01 X22.1499 Y22.3867
G01 X22.1499 Y22.6133
G01 X22.1057 Y22.8354
G01 X22.0191 Y23.0447
G01 X21.8932 Y23.2330
G01 X21.7330 Y23.3932
G01 X21.5447 Y23.5191
G01 X21.3354 Y23.6057
G01 X21.1133 Y23.6499
G01 X20.8867 Y23.6499
G01 X20.6646 Y23.6057
G01 X20.4553 Y23.5191
G01 X20.2670 Y23.3932
G01 X20.1068 Y23.2330
G01 X19.9809 Y23.0447
G01 X19.8943 Y22.8354
G01 X19.8501 Y22.6133
G01 X19.8501 Y22.3867
G01 X19.8943 Y22.1646
G01 X19.9809 Y21.9553
G01 X20.1068 Y21.7670
G01 X20.2678 Y21.6059
G01 X20.2779 Y21.5983
G01 X20.2898 Y21.5874
G01 X20.3030 Y21.5726
G01 X20.3118 Y21.5606
G01 X20.3195 Y21.5478
G01 X20.3282 Y21.5300
G01 X20.3340 Y21.5136
G01 X20.3377 Y21.4992
G01 X20.3409 Y21.4784
G01 X20.3416 Y21.4598
G01 X20.3408 Y21.4449
G01 X20.3387 Y21.4301
G01 X20.3340 Y21.4108
G01 X20.3282 Y21.3945
G01 X20.3207 Y21.3788
G01 X20.3111 Y21.3628
G01 X20.3015 Y21.3499
G01 X20.2727 Y21.3148
G01 X20.2182 Y21.2130
G01 X20.1847 Y21.1024
G01 X20.1725 Y20.9788
G01 X20.1725 Y20.8472
G01 X20.1718 Y20.8311
G01 X20.1691 Y20.8127
G01 X20.1641 Y20.7935
G01 X20.1586 Y20.7783
G01 X20.1504 Y20.7616
G01 X20.1427 Y20.7488
G01 X20.1338 Y20.7368
G01 X20.1223 Y20.7238
G01 X20.1078 Y20.7103
G01 X20.0938 Y20.7000
G01 X20.0789 Y20.6910
G01 X20.0621 Y20.6832
G01 X20.0469 Y20.6778
G01 X20.0324 Y20.6741
G01 X20.0128 Y20.6710
G01 X19.9930 Y20.6702
G01 X19.9781 Y20.6710
G01 X19.9633 Y20.6731
G01 X19.9441 Y20.6778
G01 X19.9254 Y20.6846
G01 X19.9120 Y20.6910
G01 X19.8992 Y20.6987
G01 X19.8822 Y20.7111
G01 X19.8702 Y20.7220
G01 X19.8602 Y20.7330
G01 X19.8482 Y20.7488
G01 X19.8393 Y20.7637
G01 X19.8012 Y20.8349
G01 X19.7263 Y20.9263
G01 X19.7092 Y20.9403
G01 X19.6972 Y20.9512
G01 X18.8462 Y21.8022
G01 X18.8353 Y21.8142
G01 X18.8213 Y21.8313
G01 X18.7299 Y21.9062
G01 X18.6257 Y21.9620
G01 X18.5126 Y21.9963
G01 X18.3950 Y22.0078
G01 X18.3730 Y22.0057
G01 X18.3568 Y22.0049
G01 X18.0616 Y22.0049
G01 X18.0455 Y22.0057
G01 X18.0270 Y22.0083
G01 X18.0114 Y22.0122
G01 X18.0025 Y22.0153
G01 X17.8979 Y22.0470
G01 X17.7913 Y22.0575
G01 X16.6216 Y22.0575
G01 X16.6055 Y22.0582
G01 X16.5871 Y22.0609
G01 X16.5679 Y22.0659
G01 X16.5538 Y22.0710
G01 X16.5403 Y22.0773
G01 X16.5232 Y22.0873
G01 X16.5093 Y22.0977
G01 X16.4947 Y22.1111
G01 X16.4847 Y22.1222
G01 X16.4758 Y22.1342
G01 X16.4661 Y22.1499
G01 X12.0339 Y22.1499
G01 X12.0242 Y22.1342
G01 X12.0153 Y22.1222
G01 X12.0053 Y22.1111
G01 X11.9907 Y22.0977
G01 X11.9768 Y22.0873
G01 X11.9619 Y22.0784
G01 X11.9439 Y22.0701
G01 X11.9298 Y22.0651
G01 X11.9153 Y22.0614
G01 X11.8958 Y22.0583
G01 X11.8784 Y22.0575
G01 X11.2087 Y22.0575
G01 X11.1021 Y22.0470
G01 X11.0080 Y22.0184
G01 X10.9213 Y21.9721
G01 X10.8453 Y21.9097
G01 X10.7829 Y21.8337
G01 X10.7366 Y21.7470
G01 X10.7080 Y21.6529
G01 X10.6975 Y21.5463
G01 X10.6975 Y21.2637
G01 X10.7080 Y21.1571
G01 X10.7366 Y21.0630
G01 X10.7829 Y20.9763
G01 X10.8472 Y20.8979
G01 X10.8518 Y20.8934
G01 X10.8626 Y20.8814
G01 X10.8722 Y20.8684
G01 X10.8817 Y20.8524
G01 X10.8894 Y20.8355
G01 X10.8944 Y20.8214
G01 X10.8981 Y20.8069
G01 X10.9012 Y20.7874
G01 X10.9020 Y20.7675
G01 X10.9009 Y20.7502
G01 X10.8986 Y20.7355
G01 X10.8950 Y20.7210
G01 X10.8885 Y20.7022
G01 X10.8817 Y20.6876
G01 X10.8722 Y20.6716
G01 X10.8626 Y20.6586
G01 X10.8518 Y20.6466
G01 X10.8472 Y20.6421
G01 X10.7829 Y20.5637
G01 X10.7366 Y20.4770
G01 X10.7080 Y20.3829
G01 X10.6975 Y20.2763
G01 X10.6975 Y19.9937
G01 X10.7080 Y19.8871
G01 X10.7366 Y19.7930
G01 X10.7465 Y19.7744
G01 X10.7534 Y19.7598
G01 X10.7592 Y19.7434
G01 X10.7635 Y19.7265
G01 X10.7660 Y19.7094
G01 X10.7669 Y19.6920
G01 X10.7660 Y19.6746
G01 X10.7632 Y19.6563
G01 X10.7592 Y19.6406
G01 X10.7543 Y19.6265
G01 X10.7447 Y19.6064
G01 X10.7370 Y19.5936
G01 X10.7267 Y19.5797
G01 X10.7150 Y19.5668
G01 X10.7040 Y19.5567
G01 X10.6861 Y19.5435
G01 X10.6733 Y19.5358
G01 X10.6575 Y19.5284
G01 X10.6412 Y19.5226
G01 X10.6267 Y19.5189
G01 X10.6071 Y19.5158
G01 X10.5898 Y19.5149
G01 X7.9776 Y19.5149
G01 X7.9602 Y19.5158
G01 X7.9442 Y19.5181
G01 X7.9238 Y19.5233
G01 X7.9098 Y19.5284
G01 X7.8963 Y19.5347
G01 X7.8792 Y19.5448
G01 X7.8634 Y19.5567
G01 X7.8524 Y19.5668
G01 X7.4883 Y19.9308
G01 X7.4774 Y19.9428
G01 X7.4618 Y19.9618
G01 X7.3628 Y20.0430
G01 X7.2499 Y20.1034
G01 X7.1274 Y20.1405
G01 X7.0000 Y20.1531
G01 X6.9755 Y20.1507
G01 X6.9594 Y20.1499
G01 X4.0768 Y20.1499
G01 X4.0594 Y20.1508
G01 X4.0399 Y20.1539
G01 X4.0254 Y20.1576
G01 X4.0113 Y20.1625
G01 X3.9955 Y20.1697
G01 X3.9784 Y20.1798
G01 X3.9645 Y20.1901
G01 X3.9507 Y20.2027
G01 X3.9399 Y20.2147
G01 X3.9332 Y20.2237
G01 X3.8503 Y20.3067
G01 X3.8379 Y20.3205
G01 X3.8283 Y20.3335
G01 X3.8183 Y20.3506
G01 X3.8119 Y20.3641
G01 X3.8069 Y20.3781
G01 X3.8024 Y20.3949
G01 X3.7993 Y20.4145
G01 X3.7985 Y20.4318
G01 X3.7993 Y20.4492
G01 X3.8019 Y20.4664
G01 X3.8061 Y20.4832
G01 X3.8119 Y20.4996
G01 X3.8194 Y20.5153
G01 X3.8283 Y20.5302
G01 X3.8387 Y20.5442
G01 X3.8503 Y20.5571
G01 X3.8632 Y20.5687
G01 X3.8772 Y20.5791
G01 X3.8943 Y20.5891
G01 X3.9078 Y20.5954
G01 X3.9230 Y20.6009
G01 X3.9410 Y20.6055
G01 X3.9578 Y20.6080
G01 X4.0615 Y20.6395
G01 X4.1570 Y20.6905
G01 X4.2407 Y20.7593
G01 X4.3095 Y20.8430
G01 X4.3605 Y20.9385
G01 X4.3920 Y21.0422
G01 X4.4034 Y21.1581
G01 X4.4005 Y21.5714
G01 X4.3219 Y21.6499
G01 X3.9000 Y21.6499
G01 X3.8999 Y21.1463
G01 X3.8988 Y21.1390
G01 X3.8962 Y21.1309
G01 X3.8929 Y21.1243
G01 X3.8887 Y21.1183
G01 X3.8836 Y21.1130
G01 X3.8767 Y21.1078
G01 X3.8691 Y21.1038
G01 X3.8621 Y21.1015
G01 X3.8561 Y21.1004
G01 X3.8500 Y21.1000
G01 X2.1500 Y21.1000
G01 X2.1415 Y21.1007
G01 X2.1320 Y21.1034
G01 X2.1233 Y21.1078
G01 X2.1164 Y21.1130
G01 X2.1098 Y21.1202
G01 X2.1053 Y21.1275
G01 X2.1018 Y21.1367
G01 X2.1002 Y21.1451
G01 X2.1000 Y21.6499
G01 X1.6781 Y21.6499
G01 X1.5995 Y21.5714
G01 X1.5966 Y21.1581
G01 X1.6080 Y21.0422
G01 X1.6395 Y20.9385
G01 X1.6905 Y20.8430
G01 X1.7593 Y20.7593
G01 X1.8430 Y20.6905
G01 X1.9385 Y20.6395
G01 X2.0422 Y20.6080
G01 X2.0590 Y20.6055
G01 X2.0770 Y20.6009
G01 X2.0922 Y20.5954
G01 X2.1057 Y20.5891
G01 X2.1239 Y20.5784
G01 X2.1368 Y20.5687
G01 X2.1514 Y20.5553
G01 X2.1629 Y20.5422
G01 X2.1717 Y20.5302
G01 X2.1794 Y20.5175
G01 X2.1881 Y20.4996
G01 X2.1939 Y20.4832
G01 X2.1981 Y20.4664
G01 X2.2008 Y20.4480
G01 X2.2015 Y20.4318
G01 X2.2009 Y20.4169
G01 X2.1981 Y20.3973
G01 X2.1939 Y20.3804
G01 X2.1889 Y20.3664
G01 X2.1800 Y20.3473
G01 X2.1703 Y20.3315
G01 X2.1613 Y20.3195
G01 X2.1514 Y20.3084
G01 X2.0679 Y20.2249
G01 X1.9366 Y20.0284
G01 X1.8462 Y19.8100
G01 X1.8001 Y19.5782
G01 X1.8001 Y19.3418
G01 X1.8462 Y19.1100
G01 X1.9366 Y18.8916
G01 X2.0679 Y18.6951
G01 X2.2351 Y18.5279
G01 X2.4316 Y18.3966
G01 X2.5378 Y18.3526
G01 X2.5512 Y18.3462
G01 X2.5641 Y18.3385
G01 X2.5810 Y18.3261
G01 X2.5930 Y18.3152
G01 X2.6062 Y18.3004
G01 X2.6163 Y18.2863
G01 X2.6239 Y18.2735
G01 X2.6304 Y18.2600
G01 X2.6372 Y18.2414
G01 X2.6414 Y18.2245
G01 X2.6440 Y18.2074
G01 X2.6448 Y18.1912
G01 X2.6440 Y18.1726
G01 X2.6414 Y18.1555
G01 X2.6372 Y18.1386
G01 X2.6314 Y18.1222
G01 X2.6239 Y18.1065
G01 X2.6150 Y18.0916
G01 X2.6046 Y18.0777
G01 X2.5930 Y18.0648
G01 X2.5801 Y18.0531
G01 X2.5682 Y18.0442
G01 X2.5502 Y18.0333
G01 X2.5355 Y18.0264
G01 X2.4316 Y17.9834
G01 X2.2351 Y17.8521
G01 X2.0679 Y17.6849
G01 X1.9366 Y17.4884
G01 X1.8462 Y17.2700
G01 X1.8001 Y17.0382
G01 X1.8001 Y16.8018
G01 X1.8462 Y16.5700
G01 X1.9366 Y16.3516
G01 X2.0679 Y16.1551
G01 X2.2351 Y15.9879
G01 X2.4316 Y15.8566
G01 X2.6500 Y15.7662
G01 X2.8818 Y15.7201
G01 X3.1182 Y15.7201
G01 X3.3500 Y15.7662
G01 X3.5684 Y15.8566
G01 X3.7649 Y15.9879
G01 X3.9321 Y16.1551
G01 X4.0634 Y16.3516
G01 X4.1538 Y16.5700
G01 X4.1999 Y16.8018
G01 X4.1999 Y17.0382
G01 X4.1538 Y17.2700
G01 X4.0634 Y17.4884
G01 X3.9321 Y17.6849
G01 X3.7649 Y17.8521
G01 X3.5684 Y17.9834
G01 X3.4622 Y18.0274
G01 X3.4488 Y18.0338
G01 X3.4359 Y18.0415
G01 X3.4190 Y18.0539
G01 X3.4070 Y18.0648
G01 X3.3938 Y18.0796
G01 X3.3837 Y18.0937
G01 X3.3761 Y18.1065
G01 X3.3696 Y18.1200
G01 X3.3628 Y18.1386
G01 X3.3586 Y18.1555
G01 X3.3560 Y18.1726
G01 X3.3552 Y18.1912
G01 X3.3560 Y18.2074
G01 X3.3586 Y18.2245
G01 X3.3628 Y18.2414
G01 X3.3696 Y18.2600
G01 X3.3761 Y18.2735
G01 X3.3837 Y18.2863
G01 X3.3938 Y18.3004
G01 X3.4070 Y18.3152
G01 X3.4190 Y18.3261
G01 X3.4359 Y18.3385
G01 X3.4488 Y18.3462
G01 X3.4622 Y18.3526
G01 X3.5684 Y18.3966
G01 X3.7649 Y18.5279
G01 X3.9321 Y18.6951
G01 X3.9837 Y18.7724
G01 X3.9934 Y18.7853
G01 X4.0059 Y18.7991
G01 X4.0179 Y18.8099
G01 X4.0299 Y18.8188
G01 X4.0468 Y18.8292
G01 X4.0625 Y18.8366
G01 X4.0765 Y18.8417
G01 X4.0969 Y18.8469
G01 X4.1129 Y18.8492
G01 X4.1302 Y18.8501
G01 X6.6574 Y18.8501
G01 X6.6748 Y18.8492
G01 X6.6908 Y18.8469
G01 X6.7112 Y18.8417
G01 X6.7252 Y18.8366
G01 X6.7387 Y18.8303
G01 X6.7558 Y18.8202
G01 X6.7716 Y18.8083
G01 X6.7826 Y18.7982
G01 X7.1467 Y18.4341
G01 X7.1576 Y18.4222
G01 X7.1732 Y18.4032
G01 X7.2722 Y18.3220
G01 X7.3851 Y18.2616
G01 X7.5076 Y18.2245
G01 X7.6350 Y18.2119
G01 X7.6595 Y18.2143
G01 X7.6756 Y18.2151
G01 X10.3347 Y18.2151
G01 X10.3499 Y18.2144
G01 X10.3699 Y18.2115
G01 X10.3871 Y18.2071
G01 X10.4038 Y18.2010
G01 X10.4197 Y18.1933
G01 X10.4348 Y18.1840
G01 X10.4489 Y18.1733
G01 X10.4619 Y18.1612
G01 X10.4728 Y18.1488
G01 X10.4839 Y18.1334
G01 X10.4926 Y18.1180
G01 X10.4999 Y18.1018
G01 X10.5054 Y18.0850
G01 X10.5093 Y18.0677
G01 X10.5114 Y18.0501
G01 X10.5117 Y18.0324
G01 X10.5100 Y18.0131
G01 X10.5781 Y17.9451
G01 X11.7703 Y17.9451
G01 X11.7854 Y17.9520
G01 X11.8030 Y17.9581
G01 X11.8175 Y17.9617
G01 X11.8322 Y17.9639
G01 X11.8495 Y17.9650
G01 X12.1980 Y17.9651
G01 X12.2154 Y17.9642
G01 X12.2349 Y17.9611
G01 X12.2494 Y17.9574
G01 X12.2635 Y17.9525
G01 X12.2798 Y17.9450
G01 X12.8500 Y17.9450
G01 X12.8685 Y17.9441
G01 X12.8856 Y17.9418
G01 X12.9069 Y17.9367
G01 X12.9222 Y17.9315
G01 X12.9391 Y17.9240
G01 X12.9553 Y17.9150
G01 X12.9687 Y17.9060
G01 X12.9847 Y17.8928
G01 X12.9978 Y17.8797
G01 X13.0082 Y17.8673
G01 X13.0200 Y17.8503
G01 X13.0300 Y17.8321
G01 X13.0365 Y17.8172
G01 X13.0417 Y17.8019
G01 X13.0470 Y17.7795
G01 X13.0491 Y17.7635
G01 X13.0500 Y17.7462
G01 X13.0499 Y17.4425
G01 X13.0490 Y17.4254
G01 X13.0466 Y17.4084
G01 X13.0406 Y17.3846
G01 X13.0348 Y17.3685
G01 X13.0264 Y17.3507
G01 X13.0163 Y17.3339
G01 X13.0061 Y17.3201
G01 X12.9896 Y17.3019
G01 X12.9769 Y17.2904
G01 X12.9611 Y17.2787
G01 X12.9421 Y17.2675
G01 X12.9265 Y17.2602
G01 X12.9081 Y17.2536
G01 X12.8866 Y17.2484
G01 X12.8696 Y17.2460
G01 X12.8512 Y17.2450
G01 X12.3751 Y17.2450
G01 X12.3751 Y16.8231
G01 X12.3991 Y16.7991
G01 X12.4099 Y16.7871
G01 X12.4202 Y16.7731
G01 X12.4286 Y16.7593
G01 X12.4366 Y16.7425
G01 X12.4424 Y16.7261
G01 X12.4467 Y16.7093
G01 X12.4489 Y16.6945
G01 X12.4501 Y16.6747
G01 X12.4500 Y16.3033
G01 X12.4489 Y16.2848
G01 X12.4467 Y16.2700
G01 X12.4431 Y16.2555
G01 X12.4366 Y16.2368
G01 X12.4279 Y16.2189
G01 X12.4202 Y16.2062
G01 X12.4114 Y16.1942
G01 X12.3982 Y16.1793
G01 X12.3834 Y16.1662
G01 X12.3714 Y16.1573
G01 X12.3575 Y16.1490
G01 X12.3408 Y16.1410
G01 X12.3244 Y16.1351
G01 X12.3075 Y16.1309
G01 X12.2879 Y16.1282
G01 X12.2730 Y16.1275
G01 X11.8462 Y16.1275
G01 X11.7226 Y16.1153
G01 X11.6120 Y16.0818
G01 X11.5102 Y16.0273
G01 X11.4639 Y15.9894
G01 X11.4509 Y15.9798
G01 X11.4360 Y15.9708
G01 X11.4203 Y15.9634
G01 X11.4039 Y15.9576
G01 X11.3871 Y15.9533
G01 X11.3699 Y15.9508
G01 X11.3525 Y15.9499
G01 X9.8406 Y15.9499
G01 X9.8245 Y15.9507
G01 X9.8000 Y15.9531
G01 X9.6726 Y15.9405
G01 X9.5501 Y15.9034
G01 X9.4372 Y15.8430
G01 X9.3382 Y15.7618
G01 X9.3226 Y15.7428
G01 X9.3117 Y15.7309
G01 X8.9782 Y15.3974
G01 X8.9653 Y15.3857
G01 X8.9534 Y15.3768
G01 X8.9354 Y15.3658
G01 X8.9208 Y15.3590
G01 X8.9020 Y15.3525
G01 X8.8876 Y15.3489
G01 X8.8728 Y15.3467
G01 X8.8555 Y15.3456
G01 X8.8357 Y15.3464
G01 X8.8133 Y15.3499
G01 X8.5867 Y15.3499
G01 X8.3646 Y15.3057
G01 X8.1553 Y15.2191
G01 X7.9670 Y15.0932
G01 X7.8068 Y14.9330
G01 X7.6809 Y14.7447
G01 X7.5943 Y14.5354
G01 X7.5501 Y14.3133
G01 X7.5501 Y14.0867
G01 X7.5943 Y13.8646
G01 X7.6809 Y13.6553
G01 X7.8068 Y13.4670
G01 X7.9670 Y13.3068
G01 X8.1553 Y13.1809
G01 X8.3646 Y13.0943
G01 X8.5867 Y13.0501
G01 X8.8133 Y13.0501
G01 X9.0354 Y13.0943
G01 X9.2447 Y13.1809
G01 X9.4330 Y13.3068
G01 X9.5932 Y13.4670
G01 X9.7191 Y13.6553
G01 X9.8057 Y13.8646
G01 X9.8499 Y14.0867
G01 X9.8499 Y14.3133
G01 X9.8464 Y14.3357
G01 X9.8455 Y14.3542
G01 X9.8464 Y14.3704
G01 X9.8489 Y14.3876
G01 X9.8531 Y14.4044
G01 X9.8585 Y14.4196
G01 X9.8664 Y14.4365
G01 X9.8753 Y14.4514
G01 X9.8857 Y14.4653
G01 X9.8957 Y14.4764
G01 X10.0182 Y14.5991
G01 X10.0302 Y14.6099
G01 X10.0432 Y14.6195
G01 X10.0613 Y14.6303
G01 X10.0748 Y14.6366
G01 X10.0912 Y14.6424
G01 X10.1104 Y14.6471
G01 X10.1252 Y14.6492
G01 X10.1413 Y14.6500
G01 X11.0682 Y14.6501
G01 X11.0880 Y14.6489
G01 X11.1028 Y14.6467
G01 X11.1173 Y14.6431
G01 X11.1382 Y14.6356
G01 X11.1517 Y14.6292
G01 X11.1666 Y14.6202
G01 X11.1805 Y14.6099
G01 X11.1916 Y14.5999
G01 X11.2066 Y14.5834
G01 X11.2154 Y14.5714
G01 X11.2244 Y14.5565
G01 X11.2318 Y14.5408
G01 X11.2369 Y14.5267
G01 X11.2423 Y14.5051
G01 X11.2444 Y14.4904
G01 X11.2453 Y14.4742
G01 X11.2444 Y14.4556
G01 X11.2413 Y14.4361
G01 X11.2377 Y14.4216
G01 X11.2327 Y14.4075
G01 X11.2255 Y14.3917
G01 X11.2154 Y14.3746
G01 X11.2059 Y14.3616
G01 X11.1405 Y14.2820
G01 X11.0895 Y14.1865
G01 X11.0580 Y14.0828
G01 X11.0468 Y13.9689
G01 X11.0479 Y13.9302
G01 X11.1281 Y13.8501
G01 X11.5730 Y13.8501
G01 X11.5839 Y13.8730
G01 X11.5971 Y13.8952
G01 X11.6153 Y13.9199
G01 X11.6342 Y13.9408
G01 X11.6533 Y13.9581
G01 X11.6778 Y13.9765
G01 X11.7020 Y13.9911
G01 X11.7252 Y14.0021
G01 X11.7540 Y14.0126
G01 X11.7838 Y14.0199
G01 X11.8093 Y14.0236
G01 X11.8350 Y14.0249
G01 X12.4125 Y14.0250
G01 X12.4419 Y14.0235
G01 X12.4686 Y14.0195
G01 X12.4960 Y14.0126
G01 X12.5225 Y14.0031
G01 X12.5480 Y13.9911
G01 X12.5722 Y13.9765
G01 X12.5949 Y13.9597
G01 X12.6158 Y13.9408
G01 X12.6340 Y13.9208
G01 X12.6529 Y13.8952
G01 X12.6661 Y13.8730
G01 X12.6781 Y13.8475
G01 X12.6876 Y13.8210
G01 X12.6939 Y13.7960
G01 X12.6986 Y13.7657
G01 X12.7000 Y13.7375
G01 X12.7000 Y13.2625
G01 X12.6986 Y13.2343
G01 X12.6939 Y13.2040
G01 X12.6876 Y13.1790
G01 X12.6790 Y13.1548
G01 X12.6661 Y13.1270
G01 X12.6515 Y13.1028
G01 X12.6331 Y13.0783
G01 X12.6158 Y13.0592
G01 X12.5967 Y13.0419
G01 X12.5722 Y13.0235
G01 X12.5480 Y13.0089
G01 X12.5225 Y12.9969
G01 X12.4936 Y12.9867
G01 X12.4686 Y12.9805
G01 X12.4431 Y12.9767
G01 X12.4150 Y12.9751
G01 X11.8375 Y12.9750
G01 X11.8093 Y12.9764
G01 X11.7790 Y12.9811
G01 X11.7540 Y12.9874
G01 X11.7298 Y12.9960
G01 X11.7020 Y13.0089
G01 X11.6758 Y13.0249
G01 X11.6551 Y13.0403
G01 X11.6360 Y13.0575
G01 X11.6153 Y13.0801
G01 X11.5971 Y13.1048
G01 X11.5839 Y13.1270
G01 X11.5730 Y13.1499
G01 X11.1281 Y13.1499
G01 X11.0479 Y13.0698
G01 X11.0468 Y13.0311
G01 X11.0580 Y12.9172
G01 X11.0895 Y12.8135
G01 X11.1405 Y12.7180
G01 X11.2059 Y12.6384
G01 X11.2154 Y12.6254
G01 X11.2255 Y12.6083
G01 X11.2318 Y12.5948
G01 X11.2369 Y12.5807
G01 X11.2413 Y12.5639
G01 X11.2444 Y12.5444
G01 X11.2453 Y12.5282
G01 X11.2441 Y12.5072
G01 X11.2419 Y12.4925
G01 X11.2383 Y12.4780
G01 X11.2318 Y12.4592
G01 X11.2232 Y12.4414
G01 X11.2154 Y12.4286
G01 X11.2066 Y12.4166
G01 X11.1934 Y12.4018
G01 X11.1786 Y12.3886
G01 X11.1666 Y12.3798
G01 X11.1528 Y12.3714
G01 X11.1360 Y12.3634
G01 X11.1173 Y12.3569
G01 X11.1028 Y12.3533
G01 X11.0880 Y12.3511
G01 X11.0694 Y12.3500
G01 X9.6406 Y12.3499
G01 X9.6245 Y12.3507
G01 X9.6000 Y12.3531
G01 X9.4726 Y12.3405
G01 X9.3501 Y12.3034
G01 X9.2372 Y12.2430
G01 X9.1382 Y12.1618
G01 X9.1226 Y12.1428
G01 X9.1117 Y12.1309
G01 X8.9782 Y11.9974
G01 X8.9672 Y11.9873
G01 X8.9493 Y11.9740
G01 X8.9365 Y11.9664
G01 X8.9196 Y11.9585
G01 X8.9044 Y11.9531
G01 X8.8876 Y11.9489
G01 X8.8704 Y11.9464
G01 X8.8542 Y11.9455
G01 X8.8357 Y11.9464
G01 X8.8133 Y11.9499
G01 X8.5867 Y11.9499
G01 X8.3646 Y11.9057
G01 X8.1553 Y11.8191
G01 X7.9670 Y11.6932
G01 X7.8068 Y11.5330
G01 X7.7954 Y11.5175
G01 X7.7837 Y11.5047
G01 X7.7689 Y11.4915
G01 X7.7569 Y11.4826
G01 X7.7441 Y11.4749
G01 X7.7240 Y11.4654
G01 X7.7099 Y11.4604
G01 X7.6919 Y11.4560
G01 X7.6759 Y11.4537
G01 X7.5426 Y11.4405
G01 X7.4201 Y11.4034
G01 X7.3072 Y11.3430
G01 X7.2082 Y11.2618
G01 X7.1926 Y11.2428
G01 X7.1817 Y11.2309
G01 X6.0692 Y10.1183
G01 X6.0572 Y10.1074
G01 X6.0382 Y10.0918
G01 X5.9570 Y9.9928
G01 X5.8966 Y9.8799
G01 X5.8594 Y9.7571
G01 X5.8571 Y9.7425
G01 X5.8529 Y9.7256
G01 X5.8471 Y9.7092
G01 X5.8407 Y9.6957
G01 X5.8307 Y9.6786
G01 X5.8187 Y9.6628
G01 X5.8087 Y9.6518
G01 X5.7977 Y9.6417
G01 X5.7808 Y9.6291
G01 X5.7669 Y9.6208
G01 X5.7535 Y9.6144
G01 X5.7349 Y9.6076
G01 X5.7156 Y9.6029
G01 X5.7008 Y9.6008
G01 X5.6847 Y9.6000
G01 X4.5001 Y9.5999
G01 X4.5000 Y9.5425
G01 X4.4992 Y9.5275
G01 X4.4967 Y9.5104
G01 X4.4924 Y9.4935
G01 X4.4866 Y9.4771
G01 X4.4792 Y9.4614
G01 X4.4702 Y9.4465
G01 X4.4599 Y9.4326
G01 X4.4482 Y9.4197
G01 X4.4353 Y9.4080
G01 X4.4193 Y9.3964
G01 X4.4065 Y9.3887
G01 X4.3930 Y9.3823
G01 X4.3767 Y9.3762
G01 X4.3575 Y9.3712
G01 X4.3416 Y9.3688
G01 X4.3230 Y9.3678
G01 X4.3032 Y9.3690
G01 X4.2885 Y9.3712
G01 X4.2740 Y9.3748
G01 X4.2541 Y9.3818
G01 X4.2395 Y9.3887
G01 X4.2236 Y9.3984
G01 X4.2107 Y9.4080
G01 X4.1592 Y9.4502
G01 X4.0552 Y9.5058
G01 X3.9424 Y9.5401
G01 X3.8163 Y9.5525
G01 X3.5853 Y9.5525
G01 X3.5691 Y9.5533
G01 X3.5544 Y9.5555
G01 X3.5339 Y9.5605
G01 X3.5165 Y9.5670
G01 X3.5030 Y9.5734
G01 X3.4902 Y9.5810
G01 X3.4742 Y9.5927
G01 X3.4613 Y9.6043
G01 X3.4496 Y9.6172
G01 X3.4380 Y9.6333
G01 X3.4303 Y9.6461
G01 X3.4239 Y9.6595
G01 X3.4171 Y9.6782
G01 X3.4128 Y9.6950
G01 X3.4101 Y9.7146
G01 X3.4095 Y9.7320
G01 X3.4103 Y9.7469
G01 X3.4124 Y9.7617
G01 X3.4171 Y9.7809
G01 X3.4229 Y9.7973
G01 X3.4303 Y9.8130
G01 X3.4400 Y9.8289
G01 X3.4496 Y9.8419
G01 X3.4596 Y9.8530
G01 X3.4742 Y9.8664
G01 X3.4881 Y9.8768
G01 X3.5330 Y9.9068
G01 X3.6932 Y10.0670
G01 X3.8191 Y10.2553
G01 X3.9057 Y10.4646
G01 X3.9499 Y10.6867
G01 X3.9499 Y10.9133
G01 X3.9057 Y11.1354
G01 X3.8191 Y11.3447
G01 X3.6932 Y11.5330
G01 X3.5330 Y11.6932
G01 X3.3447 Y11.8191
G01 X3.1354 Y11.9057
G01 X2.9133 Y11.9499
G01 X2.6867 Y11.9499
G01 X2.4646 Y11.9057
G01 X2.2553 Y11.8191
G01 X2.0670 Y11.6932
G01 X1.9068 Y11.5330
G01 X1.7809 Y11.3447
G01 X1.6943 Y11.1354
G01 X1.6501 Y10.9133
G01 X1.6501 Y10.6867
G01 X1.6943 Y10.4646
G01 X1.7809 Y10.2553
G01 X1.9068 Y10.0670
G01 X2.0482 Y9.9255
G01 X2.0583 Y9.9145
G01 X2.0715 Y9.8966
G01 X2.0792 Y9.8838
G01 X2.0866 Y9.8681
G01 X2.0924 Y9.8517
G01 X2.0967 Y9.8349
G01 X2.0992 Y9.8177
G01 X2.1001 Y9.8003
G01 X2.1001 Y9.7295
G01 X2.0992 Y9.7122
G01 X2.0961 Y9.6926
G01 X2.0924 Y9.6782
G01 X2.0870 Y9.6629
G01 X2.0792 Y9.6461
G01 X2.0702 Y9.6312
G01 X2.0599 Y9.6172
G01 X2.0464 Y9.6027
G01 X2.0353 Y9.5927
G01 X2.0234 Y9.5837
G01 X2.0086 Y9.5746
G01 X1.9908 Y9.5660
G01 X1.9732 Y9.5598
G01 X1.9575 Y9.5559
G01 X1.9428 Y9.5536
G01 X1.9242 Y9.5525
G01 X1.6837 Y9.5525
G01 X1.5576 Y9.5401
G01 X1.4448 Y9.5058
G01 X1.3408 Y9.4502
G01 X1.2496 Y9.3754
G01 X1.1748 Y9.2842
G01 X1.1192 Y9.1802
G01 X1.0849 Y9.0674
G01 X1.0725 Y8.9413
G01 X1.0725 Y8.0337
G01 X1.0849 Y7.9076
G01 X1.1192 Y7.7948
G01 X1.1297 Y7.7750
G01 X1.1356 Y7.7626
G01 X1.1424 Y7.7440
G01 X1.1467 Y7.7272
G01 X1.1489 Y7.7124
G01 X1.1501 Y7.6926
G01 X1.1501 Y6.7945
G01 X1.1494 Y6.7796
G01 X1.1467 Y6.7600
G01 X1.1424 Y6.7431
G01 X1.1366 Y6.7268
G01 X1.1297 Y6.7122
G01 X1.1202 Y6.6962
G01 X1.1099 Y6.6822
G01 X1.0982 Y6.6693
G01 X1.0872 Y6.6593
G00 Z1.0000
G00 X1.3871 Y7.9407
G01 F50.00
G01 Z-0.0500
G01 F80.00
G01 X1.3953 Y7.9166
G01 X1.4065 Y7.8913
G01 X1.4199 Y7.8671
G01 X1.4342 Y7.8461
G01 X1.4549 Y7.8212
G01 X1.4729 Y7.8033
G01 X1.4924 Y7.7870
G01 X1.5191 Y7.7688
G01 X1.5413 Y7.7565
G01 X1.5666 Y7.7453
G01 X1.5929 Y7.7365
G01 X1.6176 Y7.7306
G01 X1.6473 Y7.7263
G01 X1.6750 Y7.7250
G01 X3.8250 Y7.7250
G01 X3.8504 Y7.7261
G01 X3.8801 Y7.7301
G01 X3.9093 Y7.7371
G01 X3.9334 Y7.7453
G01 X3.9566 Y7.7555
G01 X3.9829 Y7.7699
G01 X4.0058 Y7.7856
G01 X4.0288 Y7.8049
G01 X4.0467 Y7.8229
G01 X4.0630 Y7.8424
G01 X4.0794 Y7.8661
G01 X4.0935 Y7.8913
G01 X4.1047 Y7.9166
G01 X4.1135 Y7.9429
G01 X4.1201 Y7.9710
G01 X4.1237 Y7.9973
G01 X4.1250 Y8.0238
G01 X4.1250 Y8.1374
G01 X5.1750 Y8.1373
G01 X5.1750 Y7.5688
G01 X5.1754 Y7.5639
G01 X5.1765 Y7.5579
G01 X5.1798 Y7.5486
G01 X5.1848 Y7.5402
G01 X5.1888 Y7.5355
G01 X5.1923 Y7.5321
G01 X5.1993 Y7.5271
G01 X5.2070 Y7.5234
G01 X5.2152 Y7.5210
G01 X5.2238 Y7.5200
G01 X5.8750 Y7.5200
G01 X5.8811 Y7.5204
G01 X5.8883 Y7.5218
G01 X5.8953 Y7.5243
G01 X5.9028 Y7.5284
G01 X5.9086 Y7.5330
G01 X5.9144 Y7.5392
G01 X5.9191 Y7.5464
G01 X5.9221 Y7.5532
G01 X5.9243 Y7.5615
G01 X5.9250 Y7.5688
G01 X5.9250 Y9.1300
G01 X5.9246 Y9.1361
G01 X5.9232 Y9.1433
G01 X5.9202 Y9.1514
G01 X5.9166 Y9.1578
G01 X5.9120 Y9.1636
G01 X5.9067 Y9.1687
G01 X5.9007 Y9.1729
G01 X5.8930 Y9.1766
G01 X5.8860 Y9.1788
G01 X5.8775 Y9.1799
G01 X5.2250 Y9.1800
G01 X5.2152 Y9.1790
G01 X5.2059 Y9.1762
G01 X5.2004 Y9.1735
G01 X5.1942 Y9.1694
G01 X5.1888 Y9.1645
G01 X5.1848 Y9.1598
G01 X5.1809 Y9.1536
G01 X5.1784 Y9.1480
G01 X5.1765 Y9.1421
G01 X5.1752 Y9.1349
G01 X5.1750 Y8.8376
G01 X4.1250 Y8.8377
G01 X4.1250 Y8.9500
G01 X4.1233 Y8.9818
G01 X4.1192 Y9.0085
G01 X4.1121 Y9.0371
G01 X4.1022 Y9.0648
G01 X4.0907 Y9.0892
G01 X4.0730 Y9.1187
G01 X4.0569 Y9.1403
G01 X4.0354 Y9.1638
G01 X4.0153 Y9.1819
G01 X3.9917 Y9.1994
G01 X3.9664 Y9.2146
G01 X3.9398 Y9.2272
G01 X3.9121 Y9.2371
G01 X3.8835 Y9.2442
G01 X3.8544 Y9.2486
G01 X3.8262 Y9.2500
G01 X3.1001 Y9.2500
G01 X3.1002 Y10.0056
G01 X3.1264 Y10.0152
G01 X3.2018 Y10.0510
G01 X3.2722 Y10.0933
G01 X3.3402 Y10.1437
G01 X3.4010 Y10.1990
G01 X3.4571 Y10.2608
G01 X3.5067 Y10.3278
G01 X3.5490 Y10.3982
G01 X3.5853 Y10.4747
G01 X3.6126 Y10.5509
G01 X3.6341 Y10.6366
G01 X3.6459 Y10.7167
G01 X3.6500 Y10.8000
G01 X3.6459 Y10.8833
G01 X3.6334 Y10.9670
G01 X3.6134 Y11.0467
G01 X3.5853 Y11.1253
G01 X3.5496 Y11.2007
G01 X3.5053 Y11.2742
G01 X3.4555 Y11.3411
G01 X3.4010 Y11.4010
G01 X3.3411 Y11.4555
G01 X3.2722 Y11.5067
G01 X3.2028 Y11.5484
G01 X3.1253 Y11.5853
G01 X3.0467 Y11.6134
G01 X2.9658 Y11.6337
G01 X2.8833 Y11.6459
G01 X2.8000 Y11.6500
G01 X2.7167 Y11.6459
G01 X2.6342 Y11.6337
G01 X2.5544 Y11.6137
G01 X2.4725 Y11.5843
G01 X2.3993 Y11.5496
G01 X2.3278 Y11.5067
G01 X2.2589 Y11.4555
G01 X2.1990 Y11.4010
G01 X2.1429 Y11.3392
G01 X2.0933 Y11.2722
G01 X2.0516 Y11.2028
G01 X2.0147 Y11.1253
G01 X1.9866 Y11.0467
G01 X1.9669 Y10.9682
G01 X1.9540 Y10.8821
G01 X1.9500 Y10.8000
G01 X1.9539 Y10.7191
G01 X1.9663 Y10.6342
G01 X1.9874 Y10.5509
G01 X2.0147 Y10.4747
G01 X2.0504 Y10.3993
G01 X2.0933 Y10.3278
G01 X2.1414 Y10.2627
G01 X2.1990 Y10.1990
G01 X2.2608 Y10.1429
G01 X2.3258 Y10.0947
G01 X2.3999 Y10.0501
G01 X2.3998 Y9.2500
G01 X1.6750 Y9.2500
G01 X1.6444 Y9.2484
G01 X1.6165 Y9.2442
G01 X1.5879 Y9.2371
G01 X1.5602 Y9.2272
G01 X1.5336 Y9.2146
G01 X1.5083 Y9.1994
G01 X1.4847 Y9.1819
G01 X1.4629 Y9.1621
G01 X1.4423 Y9.1394
G01 X1.4256 Y9.1167
G01 X1.4116 Y9.0936
G01 X1.3970 Y9.0625
G01 X1.3879 Y9.0371
G01 X1.3808 Y9.0085
G01 X1.3764 Y8.9794
G01 X1.3751 Y8.9525
G01 X1.3750 Y8.0238
G01 X1.3763 Y7.9973
G01 X1.3797 Y7.9722
G01 X1.3871 Y7.9407
G00 Z1.0000
G00 X3.9093 Y4.7621
G01 F50.00
G01 Z-0.0500
G01 F80.00
G01 X3.8778 Y4.7547
G01 X3.8527 Y4.7513
G01 X3.8262 Y4.7500
G01 X3.1001 Y4.7500
G01 X3.1001 Y4.3281
G01 X3.1784 Y4.2498
G01 X4.0666 Y4.2466
G01 X4.1828 Y4.2580
G01 X4.2865 Y4.2895
G01 X4.3052 Y4.2985
G01 X4.3228 Y4.3047
G01 X4.3385 Y4.3086
G01 X4.3532 Y4.3109
G01 X4.3730 Y4.3120
G01 X4.3904 Y4.3112
G01 X4.4075 Y4.3086
G01 X4.4244 Y4.3044
G01 X4.4430 Y4.2975
G01 X4.4575 Y4.2905
G01 X4.4734 Y4.2808
G01 X4.4872 Y4.2702
G01 X4.4982 Y4.2601
G01 X4.5083 Y4.2491
G01 X4.5195 Y4.2343
G01 X4.5279 Y4.2205
G01 X4.5375 Y4.2004
G01 X4.5424 Y4.1863
G01 X4.5467 Y4.1695
G01 X4.5492 Y4.1523
G01 X4.5500 Y4.1362
G01 X4.5501 Y3.5107
G01 X4.5493 Y3.4946
G01 X4.5468 Y3.4689
G01 X4.5501 Y3.3547
G01 X4.5501 Y2.6453
G01 X4.5468 Y2.5311
G01 X4.5580 Y2.4172
G01 X4.5895 Y2.3135
G01 X4.6405 Y2.2180
G01 X4.7093 Y2.1343
G01 X4.7930 Y2.0655
G01 X4.8885 Y2.0145
G01 X4.9922 Y1.9830
G01 X5.1069 Y1.9717
G01 X5.1954 Y1.9736
G01 X5.2749 Y2.0531
G01 X5.2749 Y2.4730
G01 X5.2753 Y2.4820
G01 X5.2540 Y2.4874
G01 X5.2275 Y2.4969
G01 X5.2020 Y2.5089
G01 X5.1798 Y2.5221
G01 X5.1533 Y2.5419
G01 X5.1342 Y2.5592
G01 X5.1153 Y2.5801
G01 X5.0985 Y2.6028
G01 X5.0839 Y2.6270
G01 X5.0719 Y2.6525
G01 X5.0631 Y2.6767
G01 X5.0551 Y2.7088
G01 X5.0514 Y2.7343
G01 X5.0500 Y2.7625
G01 X5.0500 Y3.2387
G01 X5.0514 Y3.2657
G01 X5.0551 Y3.2912
G01 X5.0628 Y3.3221
G01 X5.0719 Y3.3475
G01 X5.0828 Y3.3708
G01 X5.0985 Y3.3972
G01 X5.1169 Y3.4217
G01 X5.1342 Y3.4408
G01 X5.1542 Y3.4590
G01 X5.1798 Y3.4779
G01 X5.2020 Y3.4911
G01 X5.2264 Y3.5026
G01 X5.2552 Y3.5130
G01 X5.2814 Y3.5195
G01 X5.2999 Y3.5223
G01 X5.2999 Y4.8200
G01 X5.2238 Y4.8200
G01 X5.2177 Y4.8205
G01 X5.2105 Y4.8222
G01 X5.2047 Y4.8243
G01 X5.1993 Y4.8271
G01 X5.1942 Y4.8306
G01 X5.1888 Y4.8355
G01 X5.1848 Y4.8402
G01 X5.1815 Y4.8454
G01 X5.1784 Y4.8520
G01 X5.1765 Y4.8579
G01 X5.1754 Y4.8639
G01 X5.1750 Y4.8700
G01 X5.1750 Y5.2999
G01 X4.7531 Y5.2999
G01 X4.6666 Y5.2134
G01 X4.6546 Y5.2026
G01 X4.6416 Y5.1930
G01 X4.6257 Y5.1833
G01 X4.6077 Y5.1750
G01 X4.5936 Y5.1701
G01 X4.5792 Y5.1664
G01 X4.5608 Y5.1634
G01 X4.5422 Y5.1624
G01 X4.1250 Y5.1624
G01 X4.1250 Y5.0500
G01 X4.1235 Y5.0200
G01 X4.1199 Y4.9949
G01 X4.1135 Y4.9679
G01 X4.1047 Y4.9416
G01 X4.0930 Y4.9153
G01 X4.0801 Y4.8921
G01 X4.0644 Y4.8692
G01 X4.0467 Y4.8479
G01 X4.0254 Y4.8268
G01 X4.0058 Y4.8106
G01 X3.9809 Y4.7938
G01 X3.9587 Y4.7815
G01 X3.9355 Y4.7711
G01 X3.9093 Y4.7621
G00 Z1.0000
G00 X7.1250 Y7.5200
G01 F50.00
G01 Z-0.0500
G01 F80.00
G01 X7.7762 Y7.5200
G01 X7.7835 Y7.5207
G01 X7.7907 Y7.5225
G01 X7.7975 Y7.5253
G01 X7.8028 Y7.5284
G01 X7.8077 Y7.5321
G01 X7.8120 Y7.5364
G01 X7.8159 Y7.5412
G01 X7.8185 Y7.5454
G01 X7.8212 Y7.5509
G01 X7.8228 Y7.5555
G01 X7.8243 Y7.5615
G01 X7.8249 Y7.5675
G01 X7.8250 Y7.9999
G01 X8.8175 Y7.9998
G01 X9.0250 Y7.7923
G01 X9.0250 Y7.4125
G01 X9.0266 Y7.3843
G01 X9.0300 Y7.3613
G01 X9.0363 Y7.3363
G01 X9.0450 Y7.3120
G01 X9.0549 Y7.2910
G01 X9.0692 Y7.2667
G01 X9.0831 Y7.2479
G01 X9.1037 Y7.2252
G01 X9.1210 Y7.2096
G01 X9.1417 Y7.1942
G01 X9.1638 Y7.1810
G01 X9.1848 Y7.1710
G01 X9.2137 Y7.1606
G01 X9.2363 Y7.1550
G01 X9.2606 Y7.1514
G01 X9.2875 Y7.1500
G01 X9.7125 Y7.1500
G01 X9.7382 Y7.1513
G01 X9.7661 Y7.1556
G01 X9.7887 Y7.1613
G01 X9.8107 Y7.1691
G01 X9.8362 Y7.1810
G01 X9.8583 Y7.1942
G01 X9.8790 Y7.2096
G01 X9.8998 Y7.2287
G01 X9.9154 Y7.2460
G01 X9.9293 Y7.2647
G01 X9.9434 Y7.2877
G01 X9.9550 Y7.3120
G01 X9.9637 Y7.3363
G01 X9.9700 Y7.3613
G01 X9.9738 Y7.3880
G01 X9.9750 Y7.4125
G01 X9.9750 Y7.7923
G01 X10.2535 Y8.0709
G01 X12.2355 Y8.0708
G01 X12.2356 Y7.2120
G01 X12.2365 Y7.2047
G01 X12.2389 Y7.1965
G01 X12.2420 Y7.1899
G01 X12.2468 Y7.1828
G01 X12.2528 Y7.1766
G01 X12.2588 Y7.1723
G01 X12.2664 Y7.1683
G01 X12.2734 Y7.1660
G01 X12.2794 Y7.1649
G01 X12.2855 Y7.1645
G01 X15.7145 Y7.1645
G01 X15.7206 Y7.1649
G01 X15.7266 Y7.1660
G01 X15.7348 Y7.1688
G01 X15.7423 Y7.1729
G01 X15.7481 Y7.1775
G01 X15.7539 Y7.1837
G01 X15.7580 Y7.1899
G01 X15.7616 Y7.1977
G01 X15.7638 Y7.2060
G01 X15.7645 Y7.2133
G01 X15.7645 Y9.6275
G01 X15.7641 Y9.6336
G01 X15.7630 Y9.6396
G01 X15.7602 Y9.6478
G01 X15.7561 Y9.6553
G01 X15.7507 Y9.6620
G01 X15.7453 Y9.6669
G01 X15.7381 Y9.6716
G01 X15.7302 Y9.6750
G01 X15.7230 Y9.6768
G01 X15.7145 Y9.6775
G01 X12.2855 Y9.6775
G01 X12.2757 Y9.6765
G01 X12.2675 Y9.6741
G01 X12.2598 Y9.6704
G01 X12.2528 Y9.6654
G01 X12.2476 Y9.6602
G01 X12.2433 Y9.6542
G01 X12.2393 Y9.6466
G01 X12.2367 Y9.6385
G01 X12.2356 Y9.6300
G01 X12.2355 Y8.7711
G01 X10.1085 Y8.7711
G01 X10.0730 Y8.7693
G01 X10.0378 Y8.7639
G01 X10.0069 Y8.7561
G01 X9.9768 Y8.7454
G01 X9.9434 Y8.7298
G01 X9.9120 Y8.7107
G01 X9.8864 Y8.6917
G01 X9.8618 Y8.6695
G01 X9.6673 Y8.4750
G01 X9.3327 Y8.4750
G01 X9.2092 Y8.5985
G01 X9.1846 Y8.6207
G01 X9.1570 Y8.6411
G01 X9.1276 Y8.6588
G01 X9.0942 Y8.6744
G01 X9.0641 Y8.6851
G01 X9.0332 Y8.6929
G01 X8.9980 Y8.6983
G01 X8.9625 Y8.7001
G01 X7.8250 Y8.7002
G01 X7.8249 Y9.1325
G01 X7.8245 Y9.1373
G01 X7.8232 Y9.1433
G01 X7.8212 Y9.1491
G01 X7.8185 Y9.1546
G01 X7.8159 Y9.1588
G01 X7.8120 Y9.1636
G01 X7.8077 Y9.1679
G01 X7.8028 Y9.1716
G01 X7.7964 Y9.1752
G01 X7.7895 Y9.1778
G01 X7.7823 Y9.1795
G01 X7.7750 Y9.1800
G01 X7.1250 Y9.1800
G01 X7.1189 Y9.1796
G01 X7.1129 Y9.1785
G01 X7.1047 Y9.1757
G01 X7.0972 Y9.1716
G01 X7.0905 Y9.1662
G01 X7.0856 Y9.1608
G01 X7.0815 Y9.1546
G01 X7.0779 Y9.1468
G01 X7.0757 Y9.1385
G01 X7.0750 Y9.1312
G01 X7.0750 Y7.5700
G01 X7.0760 Y7.5602
G01 X7.0788 Y7.5509
G01 X7.0834 Y7.5422
G01 X7.0896 Y7.5346
G01 X7.0972 Y7.5284
G01 X7.1059 Y7.5238
G01 X7.1152 Y7.5210
G01 X7.1250 Y7.5200
G00 Z1.0000
G00 X6.1498 Y9.1732
G01 F50.00
G01 Z-0.0500
G01 F80.00
G01 X6.1442 Y9.1694
G01 X6.1396 Y9.1654
G01 X6.1356 Y9.1608
G01 X6.1321 Y9.1557
G01 X6.1293 Y9.1503
G01 X6.1272 Y9.1445
G01 X6.1257 Y9.1385
G01 X6.1250 Y9.1312
G01 X6.1250 Y7.5700
G01 X6.1257 Y7.5615
G01 X6.1279 Y7.5532
G01 X6.1298 Y7.5486
G01 X6.1328 Y7.5433
G01 X6.1363 Y7.5383
G01 X6.1405 Y7.5338
G01 X6.1452 Y7.5298
G01 X6.1504 Y7.5265
G01 X6.1559 Y7.5238
G01 X6.1617 Y7.5218
G01 X6.1677 Y7.5205
G01 X6.1738 Y7.5200
G01 X6.2499 Y7.5200
G01 X6.2499 Y7.3988
G01 X6.2511 Y7.3755
G01 X6.2547 Y7.3512
G01 X6.2614 Y7.3251
G01 X6.2689 Y7.3043
G01 X6.2783 Y7.2843
G01 X6.2920 Y7.2611
G01 X6.3075 Y7.2404
G01 X6.3232 Y7.2232
G01 X7.0856 Y6.4607
G01 X7.0809 Y6.4536
G01 X7.0775 Y6.4457
G01 X7.0757 Y6.4385
G01 X7.0750 Y6.4300
G01 X7.0750 Y4.8700
G01 X7.0754 Y4.8639
G01 X7.0765 Y4.8579
G01 X7.0784 Y4.8520
G01 X7.0815 Y4.8454
G01 X7.0848 Y4.8402
G01 X7.0896 Y4.8346
G01 X7.0942 Y4.8306
G01 X7.0999 Y4.8268
G01 X7.0998 Y3.5250
G01 X7.0863 Y3.5250
G01 X7.0581 Y3.5235
G01 X7.0314 Y3.5195
G01 X7.0052 Y3.5130
G01 X6.9752 Y3.5021
G01 X6.9520 Y3.4911
G01 X6.9288 Y3.4772
G01 X6.9033 Y3.4581
G01 X6.8842 Y3.4408
G01 X6.8653 Y3.4199
G01 X6.8485 Y3.3972
G01 X6.8352 Y3.3752
G01 X6.8210 Y3.3452
G01 X6.8124 Y3.3210
G01 X6.8055 Y3.2936
G01 X6.8014 Y3.2657
G01 X6.8000 Y3.2387
G01 X6.8000 Y2.7625
G01 X6.8014 Y2.7343
G01 X6.8058 Y2.7052
G01 X6.8124 Y2.6790
G01 X6.8210 Y2.6548
G01 X6.8339 Y2.6270
G01 X6.8485 Y2.6028
G01 X6.8637 Y2.5820
G01 X6.8842 Y2.5592
G01 X6.9070 Y2.5387
G01 X6.9278 Y2.5235
G01 X6.9520 Y2.5089
G01 X6.9798 Y2.4960
G01 X7.0040 Y2.4874
G01 X7.0290 Y2.4811
G01 X7.0593 Y2.4764
G01 X7.0875 Y2.4750
G01 X7.6625 Y2.4750
G01 X7.6907 Y2.4764
G01 X7.7198 Y2.4808
G01 X7.7460 Y2.4874
G01 X7.7725 Y2.4969
G01 X7.7980 Y2.5089
G01 X7.8202 Y2.5221
G01 X7.8467 Y2.5419
G01 X7.8658 Y2.5592
G01 X7.8847 Y2.5801
G01 X7.9015 Y2.6028
G01 X7.9148 Y2.6248
G01 X7.9290 Y2.6548
G01 X7.9376 Y2.6790
G01 X7.9445 Y2.7064
G01 X7.9486 Y2.7343
G01 X7.9500 Y2.7613
G01 X7.9500 Y3.2375
G01 X7.9486 Y3.2657
G01 X7.9445 Y3.2936
G01 X7.9376 Y3.3210
G01 X7.9281 Y3.3475
G01 X7.9161 Y3.3730
G01 X7.9001 Y3.3992
G01 X7.8831 Y3.4217
G01 X7.8658 Y3.4408
G01 X7.8467 Y3.4581
G01 X7.8222 Y3.4765
G01 X7.8001 Y3.4898
G01 X7.8002 Y4.8268
G01 X7.8058 Y4.8306
G01 X7.8104 Y4.8346
G01 X7.8152 Y4.8402
G01 X7.8185 Y4.8454
G01 X7.8212 Y4.8509
G01 X7.8232 Y4.8567
G01 X7.8246 Y4.8639
G01 X7.8250 Y4.8700
G01 X7.8250 Y6.4300
G01 X7.8246 Y6.4361
G01 X7.8232 Y6.4433
G01 X7.8207 Y6.4503
G01 X7.8179 Y6.4557
G01 X7.8137 Y6.4617
G01 X7.8095 Y6.4662
G01 X7.8038 Y6.4709
G01 X7.7975 Y6.4747
G01 X7.7918 Y6.4771
G01 X7.7835 Y6.4793
G01 X7.7762 Y6.4800
G01 X7.6981 Y6.4800
G01 X7.6953 Y6.4988
G01 X7.6893 Y6.5226
G01 X7.6811 Y6.5457
G01 X7.6717 Y6.5657
G01 X7.6565 Y6.5910
G01 X7.6433 Y6.6087
G01 X7.6285 Y6.6251
G01 X6.7501 Y7.5036
G01 X6.7501 Y7.5200
G01 X6.8275 Y7.5201
G01 X6.8335 Y7.5207
G01 X6.8383 Y7.5218
G01 X6.8475 Y7.5253
G01 X6.8528 Y7.5284
G01 X6.8586 Y7.5330
G01 X6.8629 Y7.5373
G01 X6.8666 Y7.5422
G01 X6.8702 Y7.5486
G01 X6.8725 Y7.5543
G01 X6.8740 Y7.5602
G01 X6.8749 Y7.5675
G01 X6.8750 Y9.1312
G01 X6.8745 Y9.1373
G01 X6.8728 Y9.1445
G01 X6.8707 Y9.1503
G01 X6.8679 Y9.1557
G01 X6.8644 Y9.1608
G01 X6.8604 Y9.1654
G01 X6.8558 Y9.1694
G01 X6.8501 Y9.1732
G01 X6.8502 Y9.4850
G01 X7.8150 Y10.4499
G01 X7.9264 Y10.4498
G01 X7.9504 Y10.3993
G01 X7.9919 Y10.3298
G01 X8.0422 Y10.2617
G01 X8.0990 Y10.1990
G01 X8.1598 Y10.1437
G01 X8.2278 Y10.0933
G01 X8.2993 Y10.0504
G01 X8.3747 Y10.0147
G01 X8.4556 Y9.9859
G01 X8.5366 Y9.9659
G01 X8.6167 Y9.9541
G01 X8.6975 Y9.9501
G01 X8.7833 Y9.9541
G01 X8.8634 Y9.9659
G01 X8.9467 Y9.9866
G01 X9.0253 Y10.0147
G01 X9.1007 Y10.0504
G01 X9.1712 Y10.0926
G01 X9.2411 Y10.1445
G01 X9.3010 Y10.1990
G01 X9.3571 Y10.2608
G01 X9.4081 Y10.3298
G01 X9.4496 Y10.3993
G01 X9.4848 Y10.4736
G01 X9.5134 Y10.5533
G01 X9.5337 Y10.6342
G01 X9.5459 Y10.7167
G01 X9.5500 Y10.7988
G01 X9.5459 Y10.8833
G01 X9.5339 Y10.9646
G01 X9.5134 Y11.0467
G01 X9.4946 Y11.0994
G01 X9.7450 Y11.3499
G01 X11.5731 Y11.3498
G01 X11.5839 Y11.3270
G01 X11.5971 Y11.3048
G01 X11.6137 Y11.2820
G01 X11.6342 Y11.2592
G01 X11.6551 Y11.2403
G01 X11.6798 Y11.2221
G01 X11.7020 Y11.2089
G01 X11.7252 Y11.1979
G01 X11.7540 Y11.1874
G01 X11.7838 Y11.1801
G01 X11.8093 Y11.1764
G01 X11.8375 Y11.1750
G01 X12.4137 Y11.1750
G01 X12.4407 Y11.1764
G01 X12.4686 Y11.1805
G01 X12.4960 Y11.1874
G01 X12.5236 Y11.1974
G01 X12.5502 Y11.2102
G01 X12.5722 Y11.2235
G01 X12.5930 Y11.2387
G01 X12.6158 Y11.2592
G01 X12.6347 Y11.2801
G01 X12.6529 Y11.3048
G01 X12.6661 Y11.3270
G01 X12.6771 Y11.3502
G01 X12.6876 Y11.3790
G01 X12.6947 Y11.4076
G01 X12.6986 Y11.4343
G01 X12.7000 Y11.4625
G01 X12.7000 Y11.9387
G01 X12.6986 Y11.9657
G01 X12.6945 Y11.9936
G01 X12.6876 Y12.0210
G01 X12.6776 Y12.0486
G01 X12.6648 Y12.0752
G01 X12.6515 Y12.0972
G01 X12.6363 Y12.1180
G01 X12.6158 Y12.1408
G01 X12.5949 Y12.1597
G01 X12.5702 Y12.1779
G01 X12.5480 Y12.1911
G01 X12.5248 Y12.2021
G01 X12.4960 Y12.2126
G01 X12.4686 Y12.2195
G01 X12.4407 Y12.2236
G01 X12.4125 Y12.2250
G01 X11.8375 Y12.2250
G01 X11.8069 Y12.2233
G01 X11.7814 Y12.2195
G01 X11.7540 Y12.2126
G01 X11.7252 Y12.2021
G01 X11.7020 Y12.1911
G01 X11.6778 Y12.1765
G01 X11.6533 Y12.1581
G01 X11.6342 Y12.1408
G01 X11.6153 Y12.1199
G01 X11.5971 Y12.0952
G01 X11.5839 Y12.0730
G01 X11.5731 Y12.0501
G01 X9.6000 Y12.0501
G01 X9.5657 Y12.0485
G01 X9.5317 Y12.0434
G01 X9.5007 Y12.0357
G01 X9.4660 Y12.0235
G01 X9.4328 Y12.0076
G01 X9.4055 Y11.9911
G01 X9.3779 Y11.9707
G01 X9.3524 Y11.9476
G01 X8.9994 Y11.5946
G01 X8.9467 Y11.6134
G01 X8.8646 Y11.6339
G01 X8.7833 Y11.6459
G01 X8.6988 Y11.6500
G01 X8.6167 Y11.6459
G01 X8.5342 Y11.6337
G01 X8.4533 Y11.6134
G01 X8.3736 Y11.5848
G01 X8.2993 Y11.5496
G01 X8.2278 Y11.5067
G01 X8.1608 Y11.4571
G01 X8.0998 Y11.4019
G01 X8.0429 Y11.3392
G01 X7.9939 Y11.2732
G01 X7.9504 Y11.2007
G01 X7.9264 Y11.1501
G01 X7.6688 Y11.1501
G01 X7.6357 Y11.1485
G01 X7.6029 Y11.1436
G01 X7.5684 Y11.1351
G01 X7.5338 Y11.1225
G01 X7.5049 Y11.1088
G01 X7.4775 Y11.0925
G01 X7.4479 Y11.0707
G01 X7.4224 Y11.0476
G01 X6.2507 Y9.8758
G01 X6.2293 Y9.8521
G01 X6.2103 Y9.8265
G01 X6.1901 Y9.7929
G01 X6.1765 Y9.7640
G01 X6.1649 Y9.7316
G01 X6.1566 Y9.6983
G01 X6.1518 Y9.6668
G01 X6.1499 Y9.6300
G01 X6.1498 Y9.1732
G00 Z1.0000
G00 X8.9994 Y14.9946
G01 F50.00
G01 Z-0.0500
G01 F80.00
G01 X8.9467 Y15.0134
G01 X8.8646 Y15.0339
G01 X8.7833 Y15.0459
G01 X8.6988 Y15.0500
G01 X8.6167 Y15.0459
G01 X8.5342 Y15.0337
G01 X8.4533 Y15.0134
G01 X8.3736 Y14.9848
G01 X8.2993 Y14.9496
G01 X8.2278 Y14.9067
G01 X8.1608 Y14.8571
G01 X8.0990 Y14.8010
G01 X8.0429 Y14.7392
G01 X7.9933 Y14.6722
G01 X7.9504 Y14.6007
G01 X7.9143 Y14.5241
G01 X7.8866 Y14.4467
G01 X7.8663 Y14.3658
G01 X7.8541 Y14.2833
G01 X7.8500 Y14.2000
G01 X7.8541 Y14.1167
G01 X7.8663 Y14.0342
G01 X7.8866 Y13.9533
G01 X7.9147 Y13.8747
G01 X7.9504 Y13.7993
G01 X7.9933 Y13.7278
G01 X8.0429 Y13.6608
G01 X8.0990 Y13.5990
G01 X8.1608 Y13.5429
G01 X8.2278 Y13.4933
G01 X8.2993 Y13.4504
G01 X8.3759 Y13.4142
G01 X8.4533 Y13.3866
G01 X8.5318 Y13.3669
G01 X8.6167 Y13.3541
G01 X8.7025 Y13.3501
G01 X8.7833 Y13.3541
G01 X8.8658 Y13.3663
G01 X8.9491 Y13.3874
G01 X9.0253 Y13.4147
G01 X9.1007 Y13.4504
G01 X9.1722 Y13.4933
G01 X9.2373 Y13.5414
G01 X9.3010 Y13.5990
G01 X9.3586 Y13.6627
G01 X9.4068 Y13.7278
G01 X9.4496 Y13.7993
G01 X9.4862 Y13.8770
G01 X9.5134 Y13.9533
G01 X9.5334 Y14.0330
G01 X9.5461 Y14.1191
G01 X9.5500 Y14.2000
G01 X9.5460 Y14.2821
G01 X9.5334 Y14.3670
G01 X9.5134 Y14.4467
G01 X9.4946 Y14.4994
G01 X9.9450 Y14.9499
G01 X11.5731 Y14.9498
G01 X11.5839 Y14.9270
G01 X11.5971 Y14.9048
G01 X11.6137 Y14.8820
G01 X11.6342 Y14.8592
G01 X11.6551 Y14.8403
G01 X11.6798 Y14.8221
G01 X11.7020 Y14.8089
G01 X11.7252 Y14.7979
G01 X11.7540 Y14.7874
G01 X11.7814 Y14.7805
G01 X11.8093 Y14.7764
G01 X11.8375 Y14.7750
G01 X12.4125 Y14.7750
G01 X12.4407 Y14.7764
G01 X12.4698 Y14.7808
G01 X12.4960 Y14.7874
G01 X12.5202 Y14.7960
G01 X12.5480 Y14.8089
G01 X12.5742 Y14.8249
G01 X12.5949 Y14.8403
G01 X12.6140 Y14.8575
G01 X12.6347 Y14.8801
G01 X12.6529 Y14.9048
G01 X12.6661 Y14.9270
G01 X12.6771 Y14.9502
G01 X12.6880 Y14.9802
G01 X12.6945 Y15.0064
G01 X12.6983 Y15.0319
G01 X12.7000 Y15.0625
G01 X12.7000 Y15.5375
G01 X12.6986 Y15.5657
G01 X12.6947 Y15.5924
G01 X12.6876 Y15.6210
G01 X12.6790 Y15.6452
G01 X12.6648 Y15.6752
G01 X12.6515 Y15.6972
G01 X12.6347 Y15.7199
G01 X12.6158 Y15.7408
G01 X12.5949 Y15.7597
G01 X12.5722 Y15.7765
G01 X12.5502 Y15.7898
G01 X12.5202 Y15.8040
G01 X12.4960 Y15.8126
G01 X12.4686 Y15.8195
G01 X12.4407 Y15.8236
G01 X12.4137 Y15.8250
G01 X11.8375 Y15.8250
G01 X11.8093 Y15.8236
G01 X11.7814 Y15.8195
G01 X11.7540 Y15.8126
G01 X11.7252 Y15.8021
G01 X11.7020 Y15.7911
G01 X11.6798 Y15.7779
G01 X11.6551 Y15.7597
G01 X11.6342 Y15.7408
G01 X11.6137 Y15.7180
G01 X11.5971 Y15.6952
G01 X11.5839 Y15.6730
G01 X11.5731 Y15.6501
G01 X9.8000 Y15.6501
G01 X9.7657 Y15.6485
G01 X9.7329 Y15.6436
G01 X9.6960 Y15.6343
G01 X9.6660 Y15.6235
G01 X9.6371 Y15.6099
G01 X9.6055 Y15.5911
G01 X9.5760 Y15.5691
G01 X9.5524 Y15.5476
G01 X8.9994 Y14.9946
G00 Z1.0000
G00 X10.5101 Y17.1769
G01 F50.00
G01 Z-0.0500
G01 F80.00
G01 X10.5439 Y17.0731
G01 X10.5969 Y16.9787
G01 X10.6673 Y16.8963
G01 X10.7525 Y16.8294
G01 X10.8490 Y16.7802
G01 X10.9533 Y16.7509
G01 X11.0713 Y16.7417
G01 X11.5965 Y16.7447
G01 X11.6749 Y16.8231
G01 X11.6749 Y17.2449
G01 X10.5781 Y17.2449
G01 X10.5101 Y17.1769
G00 Z1.0000
G00 X11.0001 Y19.9825
G01 F50.00
G01 Z-0.0500
G01 F80.00
G01 X11.0010 Y19.9654
G01 X11.0038 Y19.9460
G01 X11.0086 Y19.9269
G01 X11.0152 Y19.9085
G01 X11.0236 Y19.8907
G01 X11.0337 Y19.8739
G01 X11.0454 Y19.8581
G01 X11.0569 Y19.8454
G01 X11.0751 Y19.8289
G01 X11.0889 Y19.8187
G01 X11.1079 Y19.8075
G01 X11.1235 Y19.8002
G01 X11.1419 Y19.7936
G01 X11.1610 Y19.7888
G01 X11.1816 Y19.7859
G01 X11.2000 Y19.7850
G01 X12.8512 Y19.7850
G01 X12.8696 Y19.7860
G01 X12.8866 Y19.7884
G01 X12.9081 Y19.7936
G01 X12.9265 Y19.8002
G01 X12.9421 Y19.8075
G01 X12.9620 Y19.8193
G01 X13.6249 Y19.1564
G01 X13.6249 Y15.8250
G01 X13.5863 Y15.8250
G01 X13.5593 Y15.8236
G01 X13.5314 Y15.8195
G01 X13.5040 Y15.8126
G01 X13.4775 Y15.8031
G01 X13.4520 Y15.7911
G01 X13.4278 Y15.7765
G01 X13.4033 Y15.7581
G01 X13.3842 Y15.7408
G01 X13.3637 Y15.7180
G01 X13.3485 Y15.6972
G01 X13.3352 Y15.6752
G01 X13.3229 Y15.6498
G01 X13.3124 Y15.6210
G01 X13.3055 Y15.5936
G01 X13.3014 Y15.5657
G01 X13.3000 Y15.5375
G01 X13.3000 Y15.0613
G01 X13.3014 Y15.0343
G01 X13.3055 Y15.0064
G01 X13.3124 Y14.9790
G01 X13.3210 Y14.9548
G01 X13.3352 Y14.9248
G01 X13.3485 Y14.9028
G01 X13.3653 Y14.8801
G01 X13.3860 Y14.8575
G01 X13.4051 Y14.8403
G01 X13.4268 Y14.8241
G01 X13.4542 Y14.8078
G01 X13.4775 Y14.7969
G01 X13.5029 Y14.7878
G01 X13.5326 Y14.7803
G01 X13.5581 Y14.7765
G01 X13.5749 Y14.7756
G01 X13.5749 Y14.0244
G01 X13.5581 Y14.0235
G01 X13.5302 Y14.0192
G01 X13.5040 Y14.0126
G01 X13.4786 Y14.0036
G01 X13.4498 Y13.9898
G01 X13.4278 Y13.9765
G01 X13.4061 Y13.9605
G01 X13.3825 Y13.9390
G01 X13.3653 Y13.9199
G01 X13.3485 Y13.8972
G01 X13.3328 Y13.8708
G01 X13.3219 Y13.8475
G01 X13.3131 Y13.8233
G01 X13.3051 Y13.7912
G01 X13.3014 Y13.7657
G01 X13.3000 Y13.7387
G01 X13.3000 Y13.2625
G01 X13.3014 Y13.2343
G01 X13.3061 Y13.2040
G01 X13.3124 Y13.1790
G01 X13.3219 Y13.1525
G01 X13.3339 Y13.1270
G01 X13.3471 Y13.1048
G01 X13.3669 Y13.0783
G01 X13.3842 Y13.0592
G01 X13.4051 Y13.0403
G01 X13.4278 Y13.0235
G01 X13.4498 Y13.0102
G01 X13.4798 Y12.9960
G01 X13.5040 Y12.9874
G01 X13.5290 Y12.9811
G01 X13.5593 Y12.9764
G01 X13.5875 Y12.9750
G01 X14.1637 Y12.9750
G01 X14.1907 Y12.9764
G01 X14.2186 Y12.9805
G01 X14.2460 Y12.9874
G01 X14.2748 Y12.9979
G01 X14.3002 Y13.0102
G01 X14.3222 Y13.0235
G01 X14.3430 Y13.0387
G01 X14.3658 Y13.0592
G01 X14.3847 Y13.0801
G01 X14.4015 Y13.1028
G01 X14.4172 Y13.1292
G01 X14.4281 Y13.1525
G01 X14.4369 Y13.1767
G01 X14.4442 Y13.2052
G01 X14.4486 Y13.2343
G01 X14.4500 Y13.2625
G01 X14.4500 Y13.7375
G01 X14.4488 Y13.7632
G01 X14.4439 Y13.7960
G01 X14.4376 Y13.8210
G01 X14.4271 Y13.8498
G01 X14.4161 Y13.8730
G01 X14.4015 Y13.8972
G01 X14.3847 Y13.9199
G01 X14.3649 Y13.9417
G01 X14.3449 Y13.9597
G01 X14.3222 Y13.9765
G01 X14.2980 Y13.9911
G01 X14.2736 Y14.0026
G01 X14.2460 Y14.0126
G01 X14.2198 Y14.0192
G01 X14.1919 Y14.0235
G01 X14.1751 Y14.0244
G01 X14.1751 Y14.7756
G01 X14.1919 Y14.7765
G01 X14.2174 Y14.7803
G01 X14.2471 Y14.7878
G01 X14.2725 Y14.7969
G01 X14.2958 Y14.8078
G01 X14.3232 Y14.8241
G01 X14.3449 Y14.8403
G01 X14.3640 Y14.8575
G01 X14.3847 Y14.8801
G01 X14.4015 Y14.9028
G01 X14.4148 Y14.9248
G01 X14.4290 Y14.9548
G01 X14.4376 Y14.9790
G01 X14.4445 Y15.0064
G01 X14.4486 Y15.0343
G01 X14.4500 Y15.0613
G01 X14.4500 Y15.5387
G01 X14.4486 Y15.5657
G01 X14.4445 Y15.5936
G01 X14.4376 Y15.6210
G01 X14.4271 Y15.6498
G01 X14.4148 Y15.6752
G01 X14.4015 Y15.6972
G01 X14.3863 Y15.7180
G01 X14.3658 Y15.7408
G01 X14.3458 Y15.7590
G01 X14.3222 Y15.7765
G01 X14.2980 Y15.7911
G01 X14.2725 Y15.8031
G01 X14.2460 Y15.8126
G01 X14.2186 Y15.8195
G01 X14.1907 Y15.8236
G01 X14.1637 Y15.8250
G01 X14.1251 Y15.8250
G01 X14.1251 Y19.2600
G01 X14.1239 Y19.2845
G01 X14.1203 Y19.3088
G01 X14.1143 Y19.3326
G01 X14.1051 Y19.3580
G01 X14.0956 Y19.3779
G01 X14.0830 Y19.3989
G01 X14.0683 Y19.4187
G01 X14.0527 Y19.4360
G01 X13.1751 Y20.3135
G01 X13.1587 Y20.3283
G01 X13.1389 Y20.3430
G01 X13.1179 Y20.3556
G01 X13.0980 Y20.3651
G01 X13.0702 Y20.3750
G01 X13.0488 Y20.3803
G01 X13.0236 Y20.3840
G01 X13.0163 Y20.3961
G01 X13.0061 Y20.4099
G01 X12.9931 Y20.4246
G01 X12.9769 Y20.4396
G01 X12.9621 Y20.4506
G01 X12.9443 Y20.4614
G01 X12.9265 Y20.4698
G01 X12.9081 Y20.4764
G01 X12.8890 Y20.4812
G01 X12.8696 Y20.4840
G01 X12.8500 Y20.4850
G01 X11.2000 Y20.4850
G01 X11.1780 Y20.4837
G01 X11.1610 Y20.4812
G01 X11.1431 Y20.4767
G01 X11.1235 Y20.4698
G01 X11.1036 Y20.4602
G01 X11.0889 Y20.4513
G01 X11.0751 Y20.4411
G01 X11.0586 Y20.4264
G01 X11.0439 Y20.4099
G01 X11.0337 Y20.3961
G01 X11.0248 Y20.3814
G01 X11.0152 Y20.3615
G01 X11.0083 Y20.3419
G01 X11.0034 Y20.3216
G01 X11.0010 Y20.3046
G01 X11.0000 Y20.2862
G01 X11.0001 Y19.9825
G00 Z1.0000
G00 X11.0001 Y21.2525
G01 F50.00
G01 Z-0.0500
G01 F80.00
G01 X11.0010 Y21.2354
G01 X11.0038 Y21.2160
G01 X11.0086 Y21.1969
G01 X11.0152 Y21.1785
G01 X11.0236 Y21.1607
G01 X11.0337 Y21.1439
G01 X11.0454 Y21.1281
G01 X11.0569 Y21.1154
G01 X11.0731 Y21.1004
G01 X11.0889 Y21.0887
G01 X11.1057 Y21.0786
G01 X11.1212 Y21.0712
G01 X11.1419 Y21.0636
G01 X11.1586 Y21.0594
G01 X11.1828 Y21.0558
G01 X11.2000 Y21.0550
G01 X12.8512 Y21.0550
G01 X12.8696 Y21.0560
G01 X12.8890 Y21.0588
G01 X12.9081 Y21.0636
G01 X12.9254 Y21.0698
G01 X12.9443 Y21.0786
G01 X12.9601 Y21.0880
G01 X12.9759 Y21.0996
G01 X12.9819 Y21.1049
G01 X13.4707 Y21.1049
G01 X14.6999 Y19.8757
G01 X14.6999 Y16.5500
G01 X14.7013 Y16.5206
G01 X14.7056 Y16.4914
G01 X14.7128 Y16.4629
G01 X14.7237 Y16.4329
G01 X14.7353 Y16.4085
G01 X14.7505 Y16.3833
G01 X14.7680 Y16.3596
G01 X14.7878 Y16.3378
G01 X17.6256 Y13.5000
G01 X16.1257 Y12.0001
G01 X14.4429 Y12.0001
G01 X14.4376 Y12.0210
G01 X14.4290 Y12.0452
G01 X14.4161 Y12.0730
G01 X14.4015 Y12.0972
G01 X14.3863 Y12.1180
G01 X14.3658 Y12.1408
G01 X14.3430 Y12.1613
G01 X14.3222 Y12.1765
G01 X14.2980 Y12.1911
G01 X14.2702 Y12.2040
G01 X14.2460 Y12.2126
G01 X14.2186 Y12.2195
G01 X14.1907 Y12.2236
G01 X14.1625 Y12.2250
G01 X13.5850 Y12.2249
G01 X13.5569 Y12.2233
G01 X13.5314 Y12.2195
G01 X13.5064 Y12.2133
G01 X13.4775 Y12.2031
G01 X13.4520 Y12.1911
G01 X13.4278 Y12.1765
G01 X13.4033 Y12.1581
G01 X13.3842 Y12.1408
G01 X13.3669 Y12.1217
G01 X13.3485 Y12.0972
G01 X13.3328 Y12.0708
G01 X13.3219 Y12.0475
G01 X13.3131 Y12.0233
G01 X13.3055 Y11.9936
G01 X13.3013 Y11.9645
G01 X13.3000 Y11.9375
G01 X13.3000 Y11.4625
G01 X13.3015 Y11.4331
G01 X13.3055 Y11.4064
G01 X13.3124 Y11.3790
G01 X13.3219 Y11.3525
G01 X13.3328 Y11.3292
G01 X13.3485 Y11.3028
G01 X13.3637 Y11.2820
G01 X13.3860 Y11.2575
G01 X13.4051 Y11.2403
G01 X13.4278 Y11.2235
G01 X13.4520 Y11.2089
G01 X13.4752 Y11.1979
G01 X13.5064 Y11.1867
G01 X13.5314 Y11.1805
G01 X13.5593 Y11.1764
G01 X13.5875 Y11.1750
G01 X14.1625 Y11.1750
G01 X14.1882 Y11.1762
G01 X14.2210 Y11.1811
G01 X14.2460 Y11.1874
G01 X14.2725 Y11.1969
G01 X14.2980 Y11.2089
G01 X14.3202 Y11.2221
G01 X14.3458 Y11.2410
G01 X14.3658 Y11.2592
G01 X14.3831 Y11.2783
G01 X14.4029 Y11.3048
G01 X14.4161 Y11.3270
G01 X14.4281 Y11.3525
G01 X14.4376 Y11.3790
G01 X14.4429 Y11.3999
G01 X16.2500 Y11.3999
G01 X16.2794 Y11.4013
G01 X16.3086 Y11.4056
G01 X16.3371 Y11.4128
G01 X16.3649 Y11.4227
G01 X16.3915 Y11.4353
G01 X16.4167 Y11.4505
G01 X16.4404 Y11.4680
G01 X16.4622 Y11.4878
G01 X18.1743 Y13.1999
G01 X19.6000 Y13.1999
G01 X19.6000 Y12.5488
G01 X19.6004 Y12.5439
G01 X19.6015 Y12.5379
G01 X19.6034 Y12.5320
G01 X19.6053 Y12.5275
G01 X19.6084 Y12.5222
G01 X19.6113 Y12.5183
G01 X19.6155 Y12.5138
G01 X19.6192 Y12.5106
G01 X19.6264 Y12.5059
G01 X19.6332 Y12.5029
G01 X19.6415 Y12.5007
G01 X19.6488 Y12.5000
G01 X20.4500 Y12.5000
G01 X20.4549 Y12.5002
G01 X20.4610 Y12.5012
G01 X20.4703 Y12.5043
G01 X20.4788 Y12.5091
G01 X20.4827 Y12.5121
G01 X20.4870 Y12.5164
G01 X20.4929 Y12.5243
G01 X20.4966 Y12.5320
G01 X20.4990 Y12.5402
G01 X20.5000 Y12.5500
G01 X20.5000 Y14.4500
G01 X20.4998 Y14.4549
G01 X20.4988 Y14.4610
G01 X20.4975 Y14.4657
G01 X20.4952 Y14.4714
G01 X20.4922 Y14.4767
G01 X20.4894 Y14.4808
G01 X20.4854 Y14.4854
G01 X20.4817 Y14.4887
G01 X20.4746 Y14.4935
G01 X20.4668 Y14.4971
G01 X20.4585 Y14.4993
G01 X20.4500 Y14.5000
G01 X19.6488 Y14.5000
G01 X19.6415 Y14.4993
G01 X19.6332 Y14.4971
G01 X19.6254 Y14.4935
G01 X19.6192 Y14.4894
G01 X19.6155 Y14.4862
G01 X19.6113 Y14.4817
G01 X19.6084 Y14.4778
G01 X19.6053 Y14.4725
G01 X19.6029 Y14.4668
G01 X19.6015 Y14.4621
G01 X19.6005 Y14.4573
G01 X19.6000 Y14.4512
G01 X19.6000 Y13.8001
G01 X18.1743 Y13.8001
G01 X15.3001 Y16.6743
G01 X15.3001 Y20.0000
G01 X15.2984 Y20.0319
G01 X15.2944 Y20.0586
G01 X15.2872 Y20.0871
G01 X15.2773 Y20.1149
G01 X15.2635 Y20.1436
G01 X15.2495 Y20.1667
G01 X15.2335 Y20.1885
G01 X15.2131 Y20.2113
G01 X13.8054 Y21.6189
G01 X13.7854 Y21.6370
G01 X13.7637 Y21.6531
G01 X13.7343 Y21.6708
G01 X13.7099 Y21.6823
G01 X13.6821 Y21.6922
G01 X13.6536 Y21.6994
G01 X13.6269 Y21.7034
G01 X13.5950 Y21.7051
G01 X12.9819 Y21.7051
G01 X12.9759 Y21.7104
G01 X12.9601 Y21.7220
G01 X12.9443 Y21.7314
G01 X12.9265 Y21.7398
G01 X12.9081 Y21.7464
G01 X12.8914 Y21.7506
G01 X12.8672 Y21.7542
G01 X12.8500 Y21.7550
G01 X11.2000 Y21.7550
G01 X11.1792 Y21.7539
G01 X11.1610 Y21.7512
G01 X11.1443 Y21.7470
G01 X11.1235 Y21.7398
G01 X11.1036 Y21.7302
G01 X11.0889 Y21.7213
G01 X11.0731 Y21.7096
G01 X11.0569 Y21.6946
G01 X11.0454 Y21.6819
G01 X11.0337 Y21.6661
G01 X11.0225 Y21.6471
G01 X11.0152 Y21.6315
G01 X11.0094 Y21.6154
G01 X11.0034 Y21.5916
G01 X11.0010 Y21.5746
G01 X11.0000 Y21.5562
G01 X11.0001 Y21.2525
G00 Z1.0000
G00 X15.9501 Y21.2525
G01 F50.00
G01 Z-0.0500
G01 F80.00
G01 X15.9510 Y21.2354
G01 X15.9538 Y21.2160
G01 X15.9586 Y21.1969
G01 X15.9652 Y21.1785
G01 X15.9736 Y21.1607
G01 X15.9837 Y21.1439
G01 X15.9954 Y21.1281
G01 X16.0069 Y21.1154
G01 X16.0251 Y21.0989
G01 X16.0389 Y21.0887
G01 X16.0579 Y21.0775
G01 X16.0735 Y21.0702
G01 X16.0919 Y21.0636
G01 X16.1110 Y21.0588
G01 X16.1316 Y21.0559
G01 X16.1500 Y21.0550
G01 X17.8012 Y21.0550
G01 X17.8196 Y21.0560
G01 X17.8390 Y21.0588
G01 X17.8581 Y21.0636
G01 X17.8754 Y21.0698
G01 X17.8943 Y21.0786
G01 X17.9101 Y21.0880
G01 X17.9259 Y21.0996
G01 X17.9319 Y21.1049
G01 X18.2707 Y21.1049
G01 X18.9999 Y20.3757
G01 X18.9999 Y16.9243
G01 X18.7495 Y16.6739
G01 X18.7241 Y16.6858
G01 X18.6479 Y16.7130
G01 X18.5646 Y16.7339
G01 X18.4833 Y16.7459
G01 X18.4025 Y16.7499
G01 X18.3179 Y16.7460
G01 X18.2342 Y16.7337
G01 X18.1509 Y16.7126
G01 X18.0747 Y16.6853
G01 X18.0015 Y16.6507
G01 X17.9278 Y16.6068
G01 X17.8608 Y16.5571
G01 X17.7973 Y16.4993
G01 X17.7414 Y16.4373
G01 X17.6933 Y16.3722
G01 X17.6516 Y16.3028
G01 X17.6147 Y16.2253
G01 X17.5866 Y16.1467
G01 X17.5663 Y16.0658
G01 X17.5539 Y15.9809
G01 X17.5500 Y15.9000
G01 X17.5539 Y15.8191
G01 X17.5663 Y15.7342
G01 X17.5874 Y15.6509
G01 X17.6147 Y15.5747
G01 X17.6493 Y15.5015
G01 X17.6933 Y15.4278
G01 X17.7445 Y15.3589
G01 X17.7990 Y15.2990
G01 X17.8589 Y15.2445
G01 X17.9258 Y15.1947
G01 X17.9993 Y15.1504
G01 X18.0770 Y15.1138
G01 X18.1533 Y15.0866
G01 X18.2318 Y15.0669
G01 X18.3167 Y15.0541
G01 X18.4025 Y15.0501
G01 X18.4833 Y15.0541
G01 X18.5634 Y15.0659
G01 X18.6467 Y15.0866
G01 X18.7264 Y15.1152
G01 X18.8007 Y15.1504
G01 X18.8722 Y15.1933
G01 X18.9392 Y15.2429
G01 X18.9993 Y15.2973
G01 X19.0586 Y15.3627
G01 X19.1067 Y15.4278
G01 X19.1496 Y15.4993
G01 X19.1853 Y15.5747
G01 X19.2141 Y15.6556
G01 X19.2337 Y15.7342
G01 X19.2456 Y15.8143
G01 X19.2500 Y15.8988
G01 X19.2459 Y15.9833
G01 X19.2334 Y16.0670
G01 X19.2130 Y16.1479
G01 X19.1858 Y16.2241
G01 X19.1739 Y16.2495
G01 X19.5122 Y16.5878
G01 X19.5312 Y16.6087
G01 X19.5509 Y16.6353
G01 X19.5647 Y16.6585
G01 X19.5763 Y16.6829
G01 X19.5872 Y16.7129
G01 X19.5948 Y16.7439
G01 X19.5987 Y16.7706
G01 X19.6001 Y16.8000
G01 X19.6001 Y20.5000
G01 X19.5987 Y20.5294
G01 X19.5944 Y20.5586
G01 X19.5872 Y20.5871
G01 X19.5768 Y20.6160
G01 X19.5647 Y20.6415
G01 X19.5495 Y20.6667
G01 X19.5320 Y20.6904
G01 X19.5131 Y20.7113
G01 X18.6063 Y21.6181
G01 X18.5854 Y21.6370
G01 X18.5637 Y21.6531
G01 X18.5365 Y21.6697
G01 X18.5099 Y21.6823
G01 X18.4845 Y21.6914
G01 X18.4523 Y21.6996
G01 X18.4244 Y21.7037
G01 X18.3950 Y21.7051
G01 X17.9319 Y21.7051
G01 X17.9259 Y21.7104
G01 X17.9101 Y21.7220
G01 X17.8943 Y21.7314
G01 X17.8754 Y21.7402
G01 X17.8581 Y21.7464
G01 X17.8390 Y21.7512
G01 X17.8196 Y21.7540
G01 X17.8012 Y21.7550
G01 X16.1500 Y21.7550
G01 X16.1304 Y21.7540
G01 X16.1122 Y21.7514
G01 X16.0896 Y21.7456
G01 X16.0735 Y21.7398
G01 X16.0579 Y21.7325
G01 X16.0389 Y21.7213
G01 X16.0213 Y21.7080
G01 X16.0086 Y21.6964
G01 X15.9970 Y21.6837
G01 X15.9837 Y21.6661
G01 X15.9725 Y21.6471
G01 X15.9652 Y21.6315
G01 X15.9590 Y21.6142
G01 X15.9534 Y21.5916
G01 X15.9510 Y21.5746
G01 X15.9500 Y21.5562
G01 X15.9501 Y21.2525
G00 Z1.0000
G00 X15.9501 Y19.9825
G01 F50.00
G01 Z-0.0500
G01 F80.00
G01 X15.9510 Y19.9654
G01 X15.9538 Y19.9460
G01 X15.9586 Y19.9269
G01 X15.9652 Y19.9085
G01 X15.9736 Y19.8907
G01 X15.9837 Y19.8739
G01 X15.9954 Y19.8581
G01 X16.0069 Y19.8454
G01 X16.0251 Y19.8289
G01 X16.0389 Y19.8187
G01 X16.0579 Y19.8075
G01 X16.0735 Y19.8002
G01 X16.0919 Y19.7936
G01 X16.1110 Y19.7888
G01 X16.1304 Y19.7860
G01 X16.1500 Y19.7850
G01 X17.8000 Y19.7850
G01 X17.8196 Y19.7860
G01 X17.8378 Y19.7886
G01 X17.8604 Y19.7944
G01 X17.8765 Y19.8002
G01 X17.8921 Y19.8075
G01 X17.9111 Y19.8187
G01 X17.9287 Y19.8320
G01 X17.9414 Y19.8436
G01 X17.9530 Y19.8563
G01 X17.9663 Y19.8739
G01 X17.9764 Y19.8907
G01 X17.9838 Y19.9062
G01 X17.9914 Y19.9269
G01 X17.9966 Y19.9484
G01 X17.9990 Y19.9654
G01 X18.0000 Y19.9838
G01 X18.0000 Y20.2850
G01 X17.9990 Y20.3046
G01 X17.9964 Y20.3228
G01 X17.9906 Y20.3454
G01 X17.9848 Y20.3615
G01 X17.9764 Y20.3793
G01 X17.9663 Y20.3961
G01 X17.9561 Y20.4099
G01 X17.9396 Y20.4281
G01 X17.9269 Y20.4396
G01 X17.9111 Y20.4513
G01 X17.8943 Y20.4614
G01 X17.8788 Y20.4688
G01 X17.8557 Y20.4770
G01 X17.8390 Y20.4812
G01 X17.8184 Y20.4841
G01 X17.8000 Y20.4850
G01 X16.1500 Y20.4850
G01 X16.1304 Y20.4840
G01 X16.1122 Y20.4814
G01 X16.0896 Y20.4756
G01 X16.0735 Y20.4698
G01 X16.0579 Y20.4625
G01 X16.0389 Y20.4513
G01 X16.0213 Y20.4380
G01 X16.0086 Y20.4264
G01 X15.9970 Y20.4137
G01 X15.9837 Y20.3961
G01 X15.9725 Y20.3771
G01 X15.9652 Y20.3615
G01 X15.9590 Y20.3442
G01 X15.9534 Y20.3216
G01 X15.9510 Y20.3046
G01 X15.9500 Y20.2862
G01 X15.9501 Y19.9825
G00 Z1.0000
G00 X15.9501 Y18.7127
G01 F50.00
G01 Z-0.0500
G01 F80.00
G01 X15.9509 Y18.6965
G01 X15.9534 Y18.6783
G01 X15.9576 Y18.6603
G01 X15.9635 Y18.6428
G01 X15.9710 Y18.6259
G01 X15.9800 Y18.6097
G01 X15.9904 Y18.5945
G01 X16.0022 Y18.5803
G01 X16.0153 Y18.5672
G01 X16.0295 Y18.5554
G01 X16.0447 Y18.5450
G01 X16.0609 Y18.5360
G01 X16.0778 Y18.5285
G01 X16.0953 Y18.5226
G01 X16.1133 Y18.5184
G01 X16.1315 Y18.5159
G01 X16.1500 Y18.5150
G01 X17.8000 Y18.5150
G01 X17.8196 Y18.5160
G01 X17.8378 Y18.5186
G01 X17.8604 Y18.5244
G01 X17.8765 Y18.5302
G01 X17.8921 Y18.5375
G01 X17.9111 Y18.5487
G01 X17.9287 Y18.5620
G01 X17.9414 Y18.5736
G01 X17.9530 Y18.5863
G01 X17.9663 Y18.6039
G01 X17.9764 Y18.6207
G01 X17.9838 Y18.6362
G01 X17.9914 Y18.6569
G01 X17.9966 Y18.6784
G01 X17.9990 Y18.6954
G01 X18.0000 Y18.7138
G01 X18.0000 Y19.0150
G01 X17.9990 Y19.0346
G01 X17.9964 Y19.0528
G01 X17.9906 Y19.0754
G01 X17.9848 Y19.0915
G01 X17.9764 Y19.1093
G01 X17.9663 Y19.1261
G01 X17.9561 Y19.1399
G01 X17.9396 Y19.1581
G01 X17.9269 Y19.1696
G01 X17.9111 Y19.1813
G01 X17.8943 Y19.1914
G01 X17.8788 Y19.1988
G01 X17.8557 Y19.2070
G01 X17.8390 Y19.2112
G01 X17.8184 Y19.2141
G01 X17.8000 Y19.2150
G01 X16.1500 Y19.2150
G01 X16.1304 Y19.2140
G01 X16.1122 Y19.2114
G01 X16.0896 Y19.2056
G01 X16.0735 Y19.1998
G01 X16.0579 Y19.1925
G01 X16.0389 Y19.1813
G01 X16.0213 Y19.1680
G01 X16.0086 Y19.1564
G01 X15.9970 Y19.1437
G01 X15.9837 Y19.1261
G01 X15.9725 Y19.1071
G01 X15.9652 Y19.0915
G01 X15.9590 Y19.0742
G01 X15.9534 Y19.0516
G01 X15.9510 Y19.0346
G01 X15.9500 Y19.0162
G01 X15.9501 Y18.7127
G00 Z1.0000
G00 X15.9501 Y17.4427
G01 F50.00
G01 Z-0.0500
G01 F80.00
G01 X15.9509 Y17.4265
G01 X15.9534 Y17.4083
G01 X15.9576 Y17.3903
G01 X15.9635 Y17.3728
G01 X15.9710 Y17.3559
G01 X15.9800 Y17.3397
G01 X15.9904 Y17.3245
G01 X16.0022 Y17.3103
G01 X16.0153 Y17.2972
G01 X16.0295 Y17.2854
G01 X16.0447 Y17.2750
G01 X16.0609 Y17.2660
G01 X16.0778 Y17.2585
G01 X16.0953 Y17.2526
G01 X16.1133 Y17.2484
G01 X16.1315 Y17.2459
G01 X16.1500 Y17.2450
G01 X17.8000 Y17.2450
G01 X17.8196 Y17.2460
G01 X17.8378 Y17.2486
G01 X17.8604 Y17.2544
G01 X17.8765 Y17.2602
G01 X17.8921 Y17.2675
G01 X17.9111 Y17.2787
G01 X17.9287 Y17.2920
G01 X17.9414 Y17.3036
G01 X17.9530 Y17.3163
G01 X17.9663 Y17.3339
G01 X17.9764 Y17.3507
G01 X17.9838 Y17.3662
G01 X17.9914 Y17.3869
G01 X17.9966 Y17.4084
G01 X17.9990 Y17.4254
G01 X18.0000 Y17.4438
G01 X18.0000 Y17.7450
G01 X17.9991 Y17.7635
G01 X17.9968 Y17.7806
G01 X17.9924 Y17.7997
G01 X17.9873 Y17.8151
G01 X17.9780 Y17.8362
G01 X17.9700 Y17.8503
G01 X17.9596 Y17.8655
G01 X17.9478 Y17.8797
G01 X17.9347 Y17.8928
G01 X17.9205 Y17.9046
G01 X17.9072 Y17.9138
G01 X17.8871 Y17.9250
G01 X17.8722 Y17.9315
G01 X17.8547 Y17.9374
G01 X17.8367 Y17.9416
G01 X17.8185 Y17.9441
G01 X17.8000 Y17.9450
G01 X16.1500 Y17.9450
G01 X16.1304 Y17.9440
G01 X16.1122 Y17.9414
G01 X16.0896 Y17.9356
G01 X16.0735 Y17.9298
G01 X16.0579 Y17.9225
G01 X16.0389 Y17.9113
G01 X16.0213 Y17.8980
G01 X16.0086 Y17.8864
G01 X15.9970 Y17.8737
G01 X15.9837 Y17.8561
G01 X15.9725 Y17.8371
G01 X15.9652 Y17.8215
G01 X15.9590 Y17.8042
G01 X15.9534 Y17.7816
G01 X15.9510 Y17.7646
G01 X15.9500 Y17.7462
G01 X15.9501 Y17.4427
G00 Z1.0000
G00 X20.5500 Y17.4500
G01 F50.00
G01 Z-0.0500
G01 F80.00
G01 X20.5500 Y15.5500
G01 X20.5505 Y15.5427
G01 X20.5525 Y15.5343
G01 X20.5559 Y15.5264
G01 X20.5606 Y15.5192
G01 X20.5646 Y15.5146
G01 X20.5683 Y15.5113
G01 X20.5722 Y15.5084
G01 X20.5775 Y15.5053
G01 X20.5832 Y15.5029
G01 X20.5890 Y15.5012
G01 X20.5951 Y15.5002
G01 X20.6000 Y15.5000
G01 X21.4012 Y15.5000
G01 X21.4085 Y15.5007
G01 X21.4168 Y15.5029
G01 X21.4236 Y15.5059
G01 X21.4308 Y15.5106
G01 X21.4354 Y15.5146
G01 X21.4387 Y15.5183
G01 X21.4416 Y15.5222
G01 X21.4447 Y15.5275
G01 X21.4466 Y15.5320
G01 X21.4485 Y15.5379
G01 X21.4495 Y15.5427
G01 X21.4500 Y15.5488
G01 X21.4500 Y16.2213
G01 X23.6000 Y14.0713
G01 X23.6000 Y12.5500
G01 X23.6007 Y12.5415
G01 X23.6029 Y12.5332
G01 X23.6065 Y12.5254
G01 X23.6113 Y12.5183
G01 X23.6146 Y12.5146
G01 X23.6192 Y12.5106
G01 X23.6233 Y12.5078
G01 X23.6286 Y12.5048
G01 X23.6332 Y12.5029
G01 X23.6390 Y12.5012
G01 X23.6439 Y12.5004
G01 X23.6500 Y12.5000
G01 X24.4512 Y12.5000
G01 X24.4585 Y12.5007
G01 X24.4668 Y12.5029
G01 X24.4746 Y12.5065
G01 X24.4808 Y12.5106
G01 X24.4854 Y12.5146
G01 X24.4887 Y12.5183
G01 X24.4922 Y12.5233
G01 X24.4952 Y12.5286
G01 X24.4975 Y12.5343
G01 X24.4988 Y12.5390
G01 X24.4996 Y12.5439
G01 X24.5000 Y12.5500
G01 X24.5000 Y14.4500
G01 X24.4995 Y14.4573
G01 X24.4978 Y14.4645
G01 X24.4947 Y14.4725
G01 X24.4909 Y14.4788
G01 X24.4870 Y14.4836
G01 X24.4836 Y14.4870
G01 X24.4788 Y14.4909
G01 X24.4736 Y14.4941
G01 X24.4680 Y14.4966
G01 X24.4621 Y14.4985
G01 X24.4561 Y14.4996
G01 X24.4512 Y14.5000
G01 X23.8787 Y14.5000
G01 X21.7001 Y16.6785
G01 X21.6817 Y16.6948
G01 X21.6639 Y16.7080
G01 X21.6450 Y16.7194
G01 X21.6207 Y16.7311
G01 X21.5964 Y16.7397
G01 X21.5738 Y16.7453
G01 X21.5483 Y16.7490
G01 X21.5250 Y16.7501
G01 X21.4500 Y16.7501
G01 X21.4500 Y17.4500
G01 X21.4496 Y17.4561
G01 X21.4485 Y17.4621
G01 X21.4462 Y17.4691
G01 X21.4435 Y17.4746
G01 X21.4402 Y17.4798
G01 X21.4354 Y17.4854
G01 X21.4308 Y17.4894
G01 X21.4257 Y17.4929
G01 X21.4203 Y17.4957
G01 X21.4110 Y17.4988
G01 X21.4025 Y17.4999
G01 X21.3501 Y17.5000
G01 X21.3502 Y18.3981
G01 X21.3730 Y18.4089
G01 X21.3952 Y18.4221
G01 X21.4180 Y18.4387
G01 X21.4408 Y18.4592
G01 X21.4597 Y18.4801
G01 X21.4779 Y18.5048
G01 X21.4911 Y18.5270
G01 X21.5021 Y18.5502
G01 X21.5126 Y18.5790
G01 X21.5195 Y18.6064
G01 X21.5236 Y18.6343
G01 X21.5250 Y18.6625
G01 X21.5249 Y19.2400
G01 X21.5236 Y19.2657
G01 X21.5199 Y19.2912
G01 X21.5126 Y19.3210
G01 X21.5021 Y19.3498
G01 X21.4911 Y19.3730
G01 X21.4765 Y19.3972
G01 X21.4581 Y19.4217
G01 X21.4408 Y19.4408
G01 X21.4199 Y19.4597
G01 X21.3972 Y19.4765
G01 X21.3752 Y19.4898
G01 X21.3464 Y19.5036
G01 X21.3210 Y19.5126
G01 X21.2936 Y19.5195
G01 X21.2657 Y19.5236
G01 X21.2387 Y19.5250
G01 X20.7625 Y19.5250
G01 X20.7343 Y19.5236
G01 X20.7076 Y19.5197
G01 X20.6790 Y19.5126
G01 X20.6502 Y19.5021
G01 X20.6270 Y19.4911
G01 X20.6048 Y19.4779
G01 X20.5801 Y19.4597
G01 X20.5575 Y19.4390
G01 X20.5403 Y19.4199
G01 X20.5249 Y19.3992
G01 X20.5089 Y19.3730
G01 X20.4964 Y19.3464
G01 X20.4874 Y19.3210
G01 X20.4805 Y19.2936
G01 X20.4764 Y19.2657
G01 X20.4750 Y19.2387
G01 X20.4750 Y18.6625
G01 X20.4764 Y18.6343
G01 X20.4803 Y18.6076
G01 X20.4874 Y18.5790
G01 X20.4979 Y18.5502
G01 X20.5089 Y18.5270
G01 X20.5221 Y18.5048
G01 X20.5403 Y18.4801
G01 X20.5592 Y18.4592
G01 X20.5820 Y18.4387
G01 X20.6048 Y18.4221
G01 X20.6270 Y18.4089
G01 X20.6499 Y18.3981
G01 X20.6498 Y17.5000
G01 X20.5963 Y17.4999
G01 X20.5867 Y17.4982
G01 X20.5775 Y17.4947
G01 X20.5712 Y17.4909
G01 X20.5664 Y17.4870
G01 X20.5613 Y17.4817
G01 X20.5578 Y17.4767
G01 X20.5543 Y17.4703
G01 X20.5518 Y17.4633
G01 X20.5504 Y17.4561
G01 X20.5500 Y17.4500
G00 Z1.0000
G00 X20.6498 Y21.2519
G01 F50.00
G01 Z-0.0500
G01 F80.00
G01 X20.6270 Y21.2411
G01 X20.6048 Y21.2279
G01 X20.5820 Y21.2113
G01 X20.5592 Y21.1908
G01 X20.5403 Y21.1699
G01 X20.5221 Y21.1452
G01 X20.5089 Y21.1230
G01 X20.4979 Y21.0998
G01 X20.4874 Y21.0710
G01 X20.4805 Y21.0436
G01 X20.4764 Y21.0157
G01 X20.4750 Y20.9875
G01 X20.4750 Y20.4125
G01 X20.4762 Y20.3868
G01 X20.4811 Y20.3540
G01 X20.4874 Y20.3290
G01 X20.4969 Y20.3025
G01 X20.5089 Y20.2770
G01 X20.5221 Y20.2548
G01 X20.5419 Y20.2283
G01 X20.5592 Y20.2092
G01 X20.5801 Y20.1903
G01 X20.6028 Y20.1735
G01 X20.6248 Y20.1602
G01 X20.6548 Y20.1460
G01 X20.6790 Y20.1374
G01 X20.7076 Y20.1303
G01 X20.7343 Y20.1264
G01 X20.7625 Y20.1250
G01 X21.2375 Y20.1250
G01 X21.2681 Y20.1267
G01 X21.2936 Y20.1305
G01 X21.3198 Y20.1370
G01 X21.3475 Y20.1469
G01 X21.3752 Y20.1602
G01 X21.3972 Y20.1735
G01 X21.4180 Y20.1887
G01 X21.4417 Y20.2101
G01 X21.4597 Y20.2301
G01 X21.4751 Y20.2508
G01 X21.4911 Y20.2770
G01 X21.5040 Y20.3048
G01 X21.5126 Y20.3290
G01 X21.5179 Y20.3499
G01 X24.2821 Y20.3498
G01 X24.2874 Y20.3290
G01 X24.2969 Y20.3025
G01 X24.3089 Y20.2770
G01 X24.3221 Y20.2548
G01 X24.3419 Y20.2283
G01 X24.3592 Y20.2092
G01 X24.3801 Y20.1903
G01 X24.4028 Y20.1735
G01 X24.4248 Y20.1602
G01 X24.4548 Y20.1460
G01 X24.4790 Y20.1374
G01 X24.5064 Y20.1305
G01 X24.5343 Y20.1264
G01 X24.5625 Y20.1250
G01 X25.0387 Y20.1250
G01 X25.0657 Y20.1264
G01 X25.0912 Y20.1301
G01 X25.1210 Y20.1374
G01 X25.1498 Y20.1479
G01 X25.1730 Y20.1589
G01 X25.1952 Y20.1721
G01 X25.2199 Y20.1903
G01 X25.2417 Y20.2101
G01 X25.2597 Y20.2301
G01 X25.2751 Y20.2508
G01 X25.2911 Y20.2770
G01 X25.3040 Y20.3048
G01 X25.3126 Y20.3290
G01 X25.3174 Y20.3479
G01 X26.1426 Y20.3479
G01 X26.1474 Y20.3290
G01 X26.1560 Y20.3048
G01 X26.1684 Y20.2781
G01 X26.1835 Y20.2528
G01 X26.2003 Y20.2301
G01 X26.2192 Y20.2092
G01 X26.2420 Y20.1887
G01 X26.2648 Y20.1721
G01 X26.2870 Y20.1589
G01 X26.3099 Y20.1481
G01 X26.3098 Y19.2173
G01 X26.2915 Y19.2126
G01 X26.2661 Y19.2036
G01 X26.2384 Y19.1905
G01 X26.2153 Y19.1765
G01 X26.1945 Y19.1613
G01 X26.1726 Y19.1417
G01 X26.1512 Y19.1180
G01 X26.1360 Y19.0972
G01 X26.1227 Y19.0752
G01 X26.1094 Y19.0475
G01 X26.0995 Y19.0198
G01 X26.0930 Y18.9936
G01 X26.0892 Y18.9681
G01 X26.0875 Y18.9387
G01 X26.0875 Y18.4625
G01 X26.0889 Y18.4343
G01 X26.0930 Y18.4064
G01 X26.0999 Y18.3790
G01 X26.1094 Y18.3525
G01 X26.1203 Y18.3292
G01 X26.1374 Y18.3008
G01 X26.1528 Y18.2801
G01 X26.1717 Y18.2592
G01 X26.1926 Y18.2403
G01 X26.2133 Y18.2249
G01 X26.2417 Y18.2078
G01 X26.2650 Y18.1969
G01 X26.2915 Y18.1874
G01 X26.3189 Y18.1805
G01 X26.3456 Y18.1765
G01 X26.3750 Y18.1750
G01 X26.9500 Y18.1750
G01 X26.9782 Y18.1764
G01 X27.0061 Y18.1805
G01 X27.0335 Y18.1874
G01 X27.0623 Y18.1979
G01 X27.0855 Y18.2089
G01 X27.1077 Y18.2221
G01 X27.1324 Y18.2403
G01 X27.1550 Y18.2610
G01 X27.1722 Y18.2801
G01 X27.1876 Y18.3008
G01 X27.2036 Y18.3270
G01 X27.2161 Y18.3536
G01 X27.2251 Y18.3790
G01 X27.2320 Y18.4064
G01 X27.2361 Y18.4343
G01 X27.2375 Y18.4613
G01 X27.2375 Y18.9375
G01 X27.2361 Y18.9657
G01 X27.2314 Y18.9960
G01 X27.2251 Y19.0210
G01 X27.2165 Y19.0452
G01 X27.2036 Y19.0730
G01 X27.1890 Y19.0972
G01 X27.1738 Y19.1180
G01 X27.1533 Y19.1408
G01 X27.1305 Y19.1613
G01 X27.1097 Y19.1765
G01 X27.0855 Y19.1911
G01 X27.0577 Y19.2040
G01 X27.0335 Y19.2126
G01 X27.0101 Y19.2185
G01 X27.0102 Y20.1481
G01 X27.0330 Y20.1589
G01 X27.0552 Y20.1721
G01 X27.0780 Y20.1887
G01 X27.1008 Y20.2092
G01 X27.1197 Y20.2301
G01 X27.1365 Y20.2528
G01 X27.1516 Y20.2781
G01 X27.1640 Y20.3048
G01 X27.1726 Y20.3290
G01 X27.1774 Y20.3479
G01 X28.1000 Y20.3479
G01 X28.1000 Y20.1981
G01 X28.1002 Y20.1932
G01 X28.1012 Y20.1871
G01 X28.1038 Y20.1789
G01 X28.1071 Y20.1724
G01 X28.1121 Y20.1654
G01 X28.1173 Y20.1602
G01 X28.1243 Y20.1552
G01 X28.1309 Y20.1519
G01 X28.1379 Y20.1496
G01 X28.1463 Y20.1482
G01 X29.6512 Y20.1481
G01 X29.6610 Y20.1493
G01 X29.6691 Y20.1519
G01 X29.6767 Y20.1558
G01 X29.6836 Y20.1610
G01 X29.6894 Y20.1673
G01 X29.6947 Y20.1756
G01 X29.6978 Y20.1835
G01 X29.6996 Y20.1919
G01 X29.7000 Y20.1981
G01 X29.6999 Y21.2005
G01 X29.6988 Y21.2090
G01 X29.6962 Y21.2172
G01 X29.6916 Y21.2258
G01 X29.6862 Y21.2325
G01 X29.6798 Y21.2382
G01 X29.6714 Y21.2433
G01 X29.6633 Y21.2462
G01 X29.6549 Y21.2478
