(G-CODE GENERATED BY FLATCAM v8.994 - www.flatcam.org - Version Date: 2020/11/7)

(Name: doorbell-F_Cu.gbr_iso_combined_ncc_cnc)
(Type: G-code from Geometry)
(Units: MM)

(Created on Mercredi, 04 août 2021 at 19:36)

(This preprocessor is the default preprocessor used by FlatCAM.)
(It is made to work with MACH3 compatible motion controllers.)

(TOOL DIAMETER: 0.1 mm)
(Feedrate_XY: 80.0 mm/min)
(Feedrate_Z: 50.0 mm/min)
(Feedrate rapids 1500.0 mm/min)

(Z_Cut: -0.05 mm)
(Z_Move: 1.0 mm)
(Z Start: None mm)
(Z End: 15.0 mm)
(X,Y End: None mm)
(Steps per circle: 64)
(Preprocessor Geometry: default)

(X range:   -1.0750 ...   46.0750  mm)
(Y range:   -1.0750 ...   26.0750  mm)

(Spindle Speed: 2000.0 RPM)
G21
G90
G94

G01 F80.00

M5
G00 Z15.0000
G00 X0.0000 Y0.0000
T1
M6    
(MSG, Change to Tool Dia = 0.1000)
M0
G00 Z15.0000

M03 S2000.0
G01 F80.00
G00 X-0.0863 Y-0.1523
G01 F50.00
G01 Z-0.0500
G01 F80.00
G01 X0.1813 Y-1.0750
G00 Z1.0000
G00 X-0.0174 Y-0.1742
G01 F50.00
G01 Z-0.0500
G01 F80.00
G01 X0.2438 Y-1.0750
G01 X0.3063 Y-1.0750
G01 X0.0453 Y-0.1750
G01 X0.1077 Y-0.1750
G01 X0.3687 Y-1.0750
G01 X0.4312 Y-1.0750
G01 X0.1702 Y-0.1750
G01 X0.2327 Y-0.1750
G01 X0.4937 Y-1.0750
G01 X0.5561 Y-1.0750
G01 X0.2951 Y-0.1750
G01 X0.3576 Y-0.1750
G01 X0.6186 Y-1.0750
G01 X0.6811 Y-1.0750
G01 X0.4201 Y-0.1750
G01 X0.4826 Y-0.1750
G01 X0.7435 Y-1.0750
G01 X0.8060 Y-1.0750
G01 X0.5450 Y-0.1750
G01 X0.6075 Y-0.1750
G01 X0.8685 Y-1.0750
G01 X0.9314 Y-1.0750
G01 X0.9264 Y-1.0592
G01 X0.6700 Y-0.1750
G01 X0.7324 Y-0.1750
G01 X0.9838 Y-1.0418
G01 X0.9943 Y-1.0750
G01 X1.0572 Y-1.0750
G01 X1.0412 Y-1.0244
G01 X0.7949 Y-0.1750
G01 X0.8574 Y-0.1750
G01 X1.0986 Y-1.0069
G01 X1.1202 Y-1.0750
G01 X1.1831 Y-1.0750
G01 X1.1560 Y-0.9895
G01 X0.9198 Y-0.1750
G01 X0.9823 Y-0.1750
G01 X1.2134 Y-0.9721
G01 X1.2460 Y-1.0750
G01 X1.3090 Y-1.0750
G01 X1.2709 Y-0.9547
G01 X1.0448 Y-0.1750
G01 X1.1072 Y-0.1750
G01 X1.3283 Y-0.9373
G01 X1.3719 Y-1.0750
G01 X1.4348 Y-1.0750
G01 X1.3857 Y-0.9199
G01 X1.1697 Y-0.1750
G01 X1.2322 Y-0.1750
G01 X1.4431 Y-0.9024
G01 X1.4978 Y-1.0750
G01 X1.5607 Y-1.0750
G01 X1.5005 Y-0.8850
G01 X1.2946 Y-0.1750
G01 X1.3571 Y-0.1750
G01 X1.5579 Y-0.8676
G01 X1.6236 Y-1.0750
G01 X1.6866 Y-1.0750
G01 X1.6154 Y-0.8502
G01 X1.4196 Y-0.1750
G01 X1.4820 Y-0.1750
G01 X1.6728 Y-0.8328
G01 X1.7495 Y-1.0750
G01 X1.8125 Y-1.0750
G01 X1.7302 Y-0.8154
G01 X1.5445 Y-0.1750
G01 X1.6070 Y-0.1750
G01 X1.7876 Y-0.7979
G01 X1.8754 Y-1.0750
G01 X1.9383 Y-1.0750
G01 X1.8450 Y-0.7805
G01 X1.6694 Y-0.1750
G01 X1.7319 Y-0.1750
G01 X1.9024 Y-0.7631
G01 X2.0013 Y-1.0750
G01 X2.0642 Y-1.0750
G01 X1.9598 Y-0.7457
G01 X1.7944 Y-0.1750
G01 X1.8568 Y-0.1750
G01 X2.0173 Y-0.7283
G01 X2.1271 Y-1.0750
G01 X2.1901 Y-1.0750
G01 X2.0747 Y-0.7109
G01 X1.9193 Y-0.1750
G01 X1.9818 Y-0.1750
G01 X2.1321 Y-0.6934
G01 X2.2530 Y-1.0750
G01 X2.3159 Y-1.0750
G01 X2.1895 Y-0.6760
G01 X2.0442 Y-0.1750
G01 X2.1067 Y-0.1750
G01 X2.2469 Y-0.6586
G01 X2.3789 Y-1.0750
G01 X2.4418 Y-1.0750
G01 X2.3043 Y-0.6412
G01 X2.1692 Y-0.1750
G01 X2.2316 Y-0.1750
G01 X2.3618 Y-0.6238
G01 X2.5047 Y-1.0750
G01 X2.5677 Y-1.0750
G01 X2.4192 Y-0.6064
G01 X2.2941 Y-0.1750
G01 X2.3566 Y-0.1750
G01 X2.4766 Y-0.5889
G01 X2.6306 Y-1.0750
G01 X2.6935 Y-1.0750
G01 X2.5340 Y-0.5715
G01 X2.4190 Y-0.1750
G01 X2.4815 Y-0.1750
G01 X2.5914 Y-0.5541
G01 X2.7565 Y-1.0750
G01 X2.8194 Y-1.0750
G01 X2.6488 Y-0.5367
G01 X2.5440 Y-0.1750
G01 X2.6064 Y-0.1750
G01 X2.7063 Y-0.5193
G01 X2.8823 Y-1.0750
G01 X2.9453 Y-1.0750
G01 X2.7637 Y-0.5019
G01 X2.6689 Y-0.1750
G01 X2.7314 Y-0.1750
G01 X2.8211 Y-0.4844
G01 X3.0082 Y-1.0750
G01 X3.0711 Y-1.0750
G01 X2.8785 Y-0.4670
G01 X2.7938 Y-0.1750
G01 X2.8563 Y-0.1750
G01 X2.9359 Y-0.4496
G01 X3.1341 Y-1.0750
G01 X3.1970 Y-1.0750
G01 X2.9933 Y-0.4322
G01 X2.9188 Y-0.1750
G01 X2.9812 Y-0.1750
G01 X3.0508 Y-0.4148
G01 X3.2599 Y-1.0750
G01 X3.3229 Y-1.0750
G01 X3.1082 Y-0.3973
G01 X3.0437 Y-0.1750
G01 X3.1062 Y-0.1750
G01 X3.1656 Y-0.3799
G01 X3.3858 Y-1.0750
G01 X3.4487 Y-1.0750
G01 X3.2230 Y-0.3625
G01 X3.1686 Y-0.1750
G01 X3.2311 Y-0.1750
G01 X3.2804 Y-0.3451
G01 X3.5117 Y-1.0750
G01 X3.5746 Y-1.0750
G01 X3.3378 Y-0.3277
G01 X3.2936 Y-0.1750
G01 X3.3560 Y-0.1750
G01 X3.3953 Y-0.3103
G01 X3.6375 Y-1.0750
G01 X3.7005 Y-1.0750
G01 X3.4527 Y-0.2928
G01 X3.4185 Y-0.1750
G01 X3.4810 Y-0.1750
G01 X3.5101 Y-0.2754
G01 X3.7634 Y-1.0750
G01 X3.8263 Y-1.0750
G01 X3.5675 Y-0.2580
G01 X3.5434 Y-0.1750
G01 X3.6059 Y-0.1750
G01 X3.6249 Y-0.2406
G01 X3.8893 Y-1.0750
G01 X3.9522 Y-1.0750
G01 X3.6823 Y-0.2232
G01 X3.6684 Y-0.1750
G01 X3.7308 Y-0.1750
G01 X3.7398 Y-0.2058
G01 X4.0151 Y-1.0750
G01 X4.0781 Y-1.0750
G01 X3.7972 Y-0.1883
G01 X3.7933 Y-0.1750
G01 X3.8559 Y-0.1750
G01 X4.1410 Y-1.0750
G01 X4.2039 Y-1.0750
G01 X3.9188 Y-0.1750
G01 X3.9818 Y-0.1750
G01 X4.2669 Y-1.0750
G01 X4.3298 Y-1.0750
G01 X4.0447 Y-0.1750
G01 X4.1076 Y-0.1750
G01 X4.3927 Y-1.0750
G01 X4.4557 Y-1.0750
G01 X4.1706 Y-0.1750
G01 X4.2335 Y-0.1750
G01 X4.5186 Y-1.0750
G01 X4.5819 Y-1.0750
G01 X4.5769 Y-1.0605
G01 X4.2964 Y-0.1750
G01 X4.3594 Y-0.1750
G01 X4.6339 Y-1.0416
G01 X4.6454 Y-1.0750
G01 X4.7088 Y-1.0750
G01 X4.6909 Y-1.0228
G01 X4.4223 Y-0.1750
G01 X4.4852 Y-0.1750
G01 X4.7478 Y-1.0040
G01 X4.7723 Y-1.0750
G01 X4.8357 Y-1.0750
G01 X4.8048 Y-0.9852
G01 X4.5482 Y-0.1750
G01 X4.6111 Y-0.1750
G01 X4.8618 Y-0.9664
G01 X4.8992 Y-1.0750
G01 X4.9626 Y-1.0750
G01 X4.9188 Y-0.9475
G01 X4.6740 Y-0.1750
G01 X4.7370 Y-0.1750
G01 X4.9757 Y-0.9287
G01 X5.0261 Y-1.0750
G01 X5.0895 Y-1.0750
G01 X5.0327 Y-0.9099
G01 X4.7999 Y-0.1750
G01 X4.8628 Y-0.1750
G01 X5.0897 Y-0.8911
G01 X5.1530 Y-1.0750
G01 X5.2164 Y-1.0750
G01 X5.1467 Y-0.8723
G01 X4.9258 Y-0.1750
G01 X4.9887 Y-0.1750
G01 X5.2036 Y-0.8534
G01 X5.2799 Y-1.0750
G01 X5.3433 Y-1.0750
G01 X5.2606 Y-0.8346
G01 X5.0516 Y-0.1750
G01 X5.1146 Y-0.1750
G01 X5.3176 Y-0.8158
G01 X5.4068 Y-1.0750
G01 X5.4702 Y-1.0750
G01 X5.3745 Y-0.7970
G01 X5.1775 Y-0.1750
G01 X5.2404 Y-0.1750
G01 X5.4315 Y-0.7781
G01 X5.5336 Y-1.0750
G01 X5.5971 Y-1.0750
G01 X5.4885 Y-0.7593
G01 X5.3034 Y-0.1750
G01 X5.3663 Y-0.1750
G01 X5.5455 Y-0.7405
G01 X5.6605 Y-1.0750
G01 X5.7240 Y-1.0750
G01 X5.6024 Y-0.7217
G01 X5.4292 Y-0.1750
G01 X5.4922 Y-0.1750
G01 X5.6594 Y-0.7029
G01 X5.7874 Y-1.0750
G01 X5.8509 Y-1.0750
G01 X5.7164 Y-0.6840
G01 X5.5551 Y-0.1750
G01 X5.6180 Y-0.1750
G01 X5.7733 Y-0.6652
G01 X5.9143 Y-1.0750
G01 X5.9778 Y-1.0750
G01 X5.8303 Y-0.6464
G01 X5.6810 Y-0.1750
G01 X5.7439 Y-0.1750
G01 X5.8873 Y-0.6276
G01 X6.0412 Y-1.0750
G01 X6.1047 Y-1.0750
G01 X5.9443 Y-0.6088
G01 X5.8069 Y-0.1750
G01 X5.8698 Y-0.1750
G01 X6.0012 Y-0.5899
G01 X6.1681 Y-1.0750
G01 X6.2316 Y-1.0750
G01 X6.0582 Y-0.5711
G01 X5.9327 Y-0.1750
G01 X5.9957 Y-0.1750
G01 X6.1152 Y-0.5523
G01 X6.2950 Y-1.0750
G01 X6.3585 Y-1.0750
G01 X6.1721 Y-0.5335
G01 X6.0586 Y-0.1750
G01 X6.1215 Y-0.1750
G01 X6.2291 Y-0.5147
G01 X6.4219 Y-1.0750
G01 X6.4853 Y-1.0750
G01 X6.2861 Y-0.4958
G01 X6.1845 Y-0.1750
G01 X6.2474 Y-0.1750
G01 X6.3431 Y-0.4770
G01 X6.5488 Y-1.0750
G01 X6.6122 Y-1.0750
G01 X6.4000 Y-0.4582
G01 X6.3103 Y-0.1750
G01 X6.3733 Y-0.1750
G01 X6.4570 Y-0.4394
G01 X6.6757 Y-1.0750
G01 X6.7391 Y-1.0750
G01 X6.5140 Y-0.4206
G01 X6.4362 Y-0.1750
G01 X6.4991 Y-0.1750
G01 X6.5709 Y-0.4017
G01 X6.8026 Y-1.0750
G01 X6.8660 Y-1.0750
G01 X6.6279 Y-0.3829
G01 X6.5621 Y-0.1750
G01 X6.6250 Y-0.1750
G01 X6.6849 Y-0.3641
G01 X6.9295 Y-1.0750
G01 X6.9929 Y-1.0750
G01 X6.7419 Y-0.3453
G01 X6.6879 Y-0.1750
G01 X6.7509 Y-0.1750
G01 X6.7988 Y-0.3264
G01 X7.0564 Y-1.0750
G01 X7.1198 Y-1.0750
G01 X6.8558 Y-0.3076
G01 X6.8138 Y-0.1750
G01 X6.8767 Y-0.1750
G01 X6.9128 Y-0.2888
G01 X7.1833 Y-1.0750
G01 X7.2467 Y-1.0750
G01 X6.9697 Y-0.2700
G01 X6.9397 Y-0.1750
G01 X7.0026 Y-0.1750
G01 X7.0267 Y-0.2512
G01 X7.3101 Y-1.0750
G01 X7.3736 Y-1.0750
G01 X7.0837 Y-0.2323
G01 X7.0655 Y-0.1750
G01 X7.1285 Y-0.1750
G01 X7.1407 Y-0.2135
G01 X7.4370 Y-1.0750
G01 X7.5005 Y-1.0750
G01 X7.1976 Y-0.1947
G01 X7.1914 Y-0.1750
G01 X7.2543 Y-0.1750
G01 X7.5639 Y-1.0750
G01 X7.6274 Y-1.0750
G01 X7.3178 Y-0.1750
G01 X7.3812 Y-0.1750
G01 X7.6909 Y-1.0750
G01 X7.7549 Y-1.0750
G01 X7.7467 Y-1.0531
G01 X7.4447 Y-0.1750
G01 X7.5081 Y-0.1750
G01 X7.8032 Y-1.0329
G01 X7.8189 Y-1.0750
G01 X7.8829 Y-1.0750
G01 X7.8597 Y-1.0127
G01 X7.5715 Y-0.1750
G01 X7.6350 Y-0.1750
G01 X7.9162 Y-0.9924
G01 X7.9469 Y-1.0750
G01 X8.0109 Y-1.0750
G01 X7.9727 Y-0.9722
G01 X7.6984 Y-0.1750
G01 X7.7619 Y-0.1750
G01 X8.0292 Y-0.9520
G01 X8.0749 Y-1.0750
G01 X8.1389 Y-1.0750
G01 X8.0857 Y-0.9318
G01 X7.8253 Y-0.1750
G01 X7.8888 Y-0.1750
G01 X8.1422 Y-0.9116
G01 X8.2029 Y-1.0750
G01 X8.2669 Y-1.0750
G01 X8.1987 Y-0.8914
G01 X7.9522 Y-0.1750
G01 X8.0157 Y-0.1750
G01 X8.2552 Y-0.8712
G01 X8.3309 Y-1.0750
G01 X8.3949 Y-1.0750
G01 X8.3116 Y-0.8509
G01 X8.0791 Y-0.1750
G01 X8.1426 Y-0.1750
G01 X8.3681 Y-0.8307
G01 X8.4589 Y-1.0750
G01 X8.5230 Y-1.0750
G01 X8.4246 Y-0.8105
G01 X8.2060 Y-0.1750
G01 X8.2695 Y-0.1750
G01 X8.4811 Y-0.7903
G01 X8.5870 Y-1.0750
G01 X8.6510 Y-1.0750
G01 X8.5376 Y-0.7701
G01 X8.3329 Y-0.1750
G01 X8.3964 Y-0.1750
G01 X8.5941 Y-0.7499
G01 X8.7150 Y-1.0750
G01 X8.7790 Y-1.0750
G01 X8.6506 Y-0.7297
G01 X8.4598 Y-0.1750
G01 X8.5232 Y-0.1750
G01 X8.7071 Y-0.7095
G01 X8.8430 Y-1.0750
G01 X8.9070 Y-1.0750
G01 X8.7636 Y-0.6892
G01 X8.5867 Y-0.1750
G01 X8.6501 Y-0.1750
G01 X8.8201 Y-0.6690
G01 X8.9710 Y-1.0750
G01 X9.0350 Y-1.0750
G01 X8.8766 Y-0.6488
G01 X8.7136 Y-0.1750
G01 X8.7770 Y-0.1750
G01 X8.9331 Y-0.6286
G01 X9.0990 Y-1.0750
G01 X9.1630 Y-1.0750
G01 X8.9896 Y-0.6084
G01 X8.8405 Y-0.1750
G01 X8.9039 Y-0.1750
G01 X9.0461 Y-0.5882
G01 X9.2270 Y-1.0750
G01 X9.2910 Y-1.0750
G01 X9.1025 Y-0.5680
G01 X8.9674 Y-0.1750
G01 X9.0308 Y-0.1750
G01 X9.1590 Y-0.5477
G01 X9.3550 Y-1.0750
G01 X9.4190 Y-1.0750
G01 X9.2155 Y-0.5275
G01 X9.0943 Y-0.1750
G01 X9.1577 Y-0.1750
G01 X9.2720 Y-0.5073
G01 X9.4830 Y-1.0750
G01 X9.5471 Y-1.0750
G01 X9.3285 Y-0.4871
G01 X9.2212 Y-0.1750
G01 X9.2846 Y-0.1750
G01 X9.3850 Y-0.4669
G01 X9.6111 Y-1.0750
G01 X9.6751 Y-1.0750
G01 X9.4415 Y-0.4467
G01 X9.3480 Y-0.1750
G01 X9.4115 Y-0.1750
G01 X9.4980 Y-0.4265
G01 X9.7391 Y-1.0750
G01 X9.8031 Y-1.0750
G01 X9.5545 Y-0.4063
G01 X9.4749 Y-0.1750
G01 X9.5384 Y-0.1750
G01 X9.6110 Y-0.3860
G01 X9.8671 Y-1.0750
G01 X9.9311 Y-1.0750
G01 X9.6675 Y-0.3658
G01 X9.6018 Y-0.1750
G01 X9.6653 Y-0.1750
G01 X9.7240 Y-0.3456
G01 X9.9951 Y-1.0750
G01 X10.0591 Y-1.0750
G01 X9.7805 Y-0.3254
G01 X9.7287 Y-0.1750
G01 X9.7922 Y-0.1750
G01 X9.8369 Y-0.3052
G01 X10.1231 Y-1.0750
G01 X10.1871 Y-1.0750
G01 X9.8934 Y-0.2850
G01 X9.8556 Y-0.1750
G01 X9.9191 Y-0.1750
G01 X9.9499 Y-0.2648
G01 X10.2511 Y-1.0750
G01 X10.3151 Y-1.0750
G01 X10.0064 Y-0.2445
G01 X9.9825 Y-0.1750
G01 X10.0460 Y-0.1750
G01 X10.0629 Y-0.2243
G01 X10.3791 Y-1.0750
G01 X10.4432 Y-1.0750
G01 X10.1194 Y-0.2041
G01 X10.1094 Y-0.1750
G01 X10.1729 Y-0.1750
G01 X10.4979 Y-1.0500
G01 X10.5079 Y-1.0750
G01 X10.5725 Y-1.0750
G01 X10.5538 Y-1.0285
G01 X10.2366 Y-0.1750
G01 X10.3006 Y-0.1750
G01 X10.6098 Y-1.0069
G01 X10.6371 Y-1.0750
G01 X10.7017 Y-1.0750
G01 X10.6658 Y-0.9853
G01 X10.3646 Y-0.1750
G01 X10.4286 Y-0.1750
G01 X10.7218 Y-0.9637
G01 X10.7663 Y-1.0750
G01 X10.8309 Y-1.0750
G01 X10.7778 Y-0.9421
G01 X10.4926 Y-0.1750
G01 X10.5566 Y-0.1750
G01 X10.8337 Y-0.9205
G01 X10.8955 Y-1.0750
G01 X10.9602 Y-1.0750
G01 X10.8897 Y-0.8989
G01 X10.6207 Y-0.1750
G01 X10.6847 Y-0.1750
G01 X10.9457 Y-0.8773
G01 X11.0248 Y-1.0750
G01 X11.0894 Y-1.0750
G01 X11.0017 Y-0.8557
G01 X10.7487 Y-0.1750
G01 X10.8127 Y-0.1750
G01 X11.0577 Y-0.8341
G01 X11.1540 Y-1.0750
G01 X11.2186 Y-1.0750
G01 X11.1136 Y-0.8125
G01 X10.8767 Y-0.1750
G01 X10.9407 Y-0.1750
G01 X11.1696 Y-0.7909
G01 X11.2832 Y-1.0750
G01 X11.3478 Y-1.0750
G01 X11.2256 Y-0.7693
G01 X11.0047 Y-0.1750
G01 X11.0687 Y-0.1750
G01 X11.2816 Y-0.7477
G01 X11.4125 Y-1.0750
G01 X11.4771 Y-1.0750
G01 X11.3376 Y-0.7261
G01 X11.1327 Y-0.1750
G01 X11.1967 Y-0.1750
G01 X11.3935 Y-0.7045
G01 X11.5417 Y-1.0750
G01 X11.6063 Y-1.0750
G01 X11.4495 Y-0.6830
G01 X11.2607 Y-0.1750
G01 X11.3247 Y-0.1750
G01 X11.5055 Y-0.6614
G01 X11.6709 Y-1.0750
G01 X11.7355 Y-1.0750
G01 X11.5615 Y-0.6398
G01 X11.3887 Y-0.1750
G01 X11.4527 Y-0.1750
G01 X11.6174 Y-0.6182
G01 X11.8002 Y-1.0750
G01 X11.8648 Y-1.0750
G01 X11.6734 Y-0.5966
G01 X11.5167 Y-0.1750
G01 X11.5807 Y-0.1750
G01 X11.7294 Y-0.5750
G01 X11.9294 Y-1.0750
G01 X11.9940 Y-1.0750
G01 X11.7854 Y-0.5534
G01 X11.6447 Y-0.1750
G01 X11.7088 Y-0.1750
G01 X11.8414 Y-0.5318
G01 X12.0586 Y-1.0750
G01 X12.1232 Y-1.0750
G01 X11.8973 Y-0.5102
G01 X11.7728 Y-0.1750
G01 X11.8368 Y-0.1750
G01 X11.9533 Y-0.4886
G01 X12.1878 Y-1.0750
G01 X12.2525 Y-1.0750
G01 X12.0093 Y-0.4670
G01 X11.9008 Y-0.1750
G01 X11.9648 Y-0.1750
G01 X12.0653 Y-0.4454
G01 X12.3171 Y-1.0750
G01 X12.3817 Y-1.0750
G01 X12.1213 Y-0.4238
G01 X12.0288 Y-0.1750
G01 X12.0928 Y-0.1750
G01 X12.1772 Y-0.4022
G01 X12.4463 Y-1.0750
G01 X12.5109 Y-1.0750
G01 X12.2332 Y-0.3806
G01 X12.1568 Y-0.1750
G01 X12.2208 Y-0.1750
G01 X12.2892 Y-0.3590
G01 X12.5755 Y-1.0750
G01 X12.6401 Y-1.0750
G01 X12.3452 Y-0.3375
G01 X12.2848 Y-0.1750
G01 X12.3488 Y-0.1750
G01 X12.4012 Y-0.3159
G01 X12.7048 Y-1.0750
G01 X12.7694 Y-1.0750
G01 X12.4571 Y-0.2943
G01 X12.4128 Y-0.1750
G01 X12.4768 Y-0.1750
G01 X12.5131 Y-0.2727
G01 X12.8340 Y-1.0750
G01 X12.8991 Y-1.0750
G01 X12.8920 Y-1.0585
G01 X12.5691 Y-0.2511
G01 X12.5408 Y-0.1750
G01 X12.6048 Y-0.1750
G01 X12.6251 Y-0.2295
G01 X12.9474 Y-1.0355
G01 X12.9644 Y-1.0750
G01 X13.0296 Y-1.0750
G01 X13.0029 Y-1.0126
G01 X12.6811 Y-0.2079
G01 X12.6688 Y-0.1750
G01 X12.7329 Y-0.1750
G01 X12.7370 Y-0.1863
G01 X13.0583 Y-0.9896
G01 X13.0949 Y-1.0750
G01 X13.1602 Y-1.0750
G01 X13.1137 Y-0.9666
G01 X12.7972 Y-0.1750
G01 X12.8618 Y-0.1750
G01 X13.1691 Y-0.9437
G01 X13.2255 Y-1.0750
G01 X13.2907 Y-1.0750
G01 X13.2246 Y-0.9207
G01 X12.9264 Y-0.1750
G01 X12.9910 Y-0.1750
G01 X13.2800 Y-0.8977
G01 X13.3560 Y-1.0750
G01 X13.4213 Y-1.0750
G01 X13.3354 Y-0.8748
G01 X13.0556 Y-0.1750
G01 X13.1202 Y-0.1750
G01 X13.3909 Y-0.8518
G01 X13.4866 Y-1.0750
G01 X13.5518 Y-1.0750
G01 X13.4463 Y-0.8289
G01 X13.1848 Y-0.1750
G01 X13.2495 Y-0.1750
G01 X13.5017 Y-0.8059
G01 X13.6171 Y-1.0750
G01 X13.6824 Y-1.0750
G01 X13.5572 Y-0.7829
G01 X13.3141 Y-0.1750
G01 X13.3787 Y-0.1750
G01 X13.6126 Y-0.7600
G01 X13.7477 Y-1.0750
G01 X13.8129 Y-1.0750
G01 X13.6680 Y-0.7370
G01 X13.4433 Y-0.1750
G01 X13.5079 Y-0.1750
G01 X13.7235 Y-0.7141
G01 X13.8782 Y-1.0750
G01 X13.9435 Y-1.0750
G01 X13.7789 Y-0.6911
G01 X13.5725 Y-0.1750
G01 X13.6371 Y-0.1750
G01 X13.8343 Y-0.6681
G01 X14.0088 Y-1.0750
G01 X14.0740 Y-1.0750
G01 X13.8898 Y-0.6452
G01 X13.7018 Y-0.1750
G01 X13.7664 Y-0.1750
G01 X13.9452 Y-0.6222
G01 X14.1393 Y-1.0750
G01 X14.2046 Y-1.0750
G01 X14.0006 Y-0.5993
G01 X13.8310 Y-0.1750
G01 X13.8956 Y-0.1750
G01 X14.0561 Y-0.5763
G01 X14.2699 Y-1.0750
G01 X14.3351 Y-1.0750
G01 X14.1115 Y-0.5533
G01 X13.9602 Y-0.1750
G01 X14.0248 Y-0.1750
G01 X14.1669 Y-0.5304
G01 X14.4004 Y-1.0750
G01 X14.4657 Y-1.0750
G01 X14.2224 Y-0.5074
G01 X14.0895 Y-0.1750
G01 X14.1541 Y-0.1750
G01 X14.2778 Y-0.4844
G01 X14.5310 Y-1.0750
G01 X14.5962 Y-1.0750
G01 X14.3332 Y-0.4615
G01 X14.2187 Y-0.1750
G01 X14.2833 Y-0.1750
G01 X14.3887 Y-0.4385
G01 X14.6615 Y-1.0750
G01 X14.7268 Y-1.0750
G01 X14.4441 Y-0.4156
G01 X14.3479 Y-0.1750
G01 X14.4125 Y-0.1750
G01 X14.4995 Y-0.3926
G01 X14.7921 Y-1.0750
G01 X14.8573 Y-1.0750
G01 X14.5550 Y-0.3696
G01 X14.4771 Y-0.1750
G01 X14.5418 Y-0.1750
G01 X14.6104 Y-0.3467
G01 X14.9226 Y-1.0750
G01 X14.9879 Y-1.0750
G01 X14.6658 Y-0.3237
G01 X14.6064 Y-0.1750
G01 X14.6710 Y-0.1750
G01 X14.7213 Y-0.3008
G01 X15.0447 Y-1.0553
G01 X15.0538 Y-1.0750
G01 X15.1197 Y-1.0750
G01 X15.0996 Y-1.0310
G01 X14.7767 Y-0.2778
G01 X14.7356 Y-0.1750
G01 X14.8002 Y-0.1750
G01 X14.8321 Y-0.2548
G01 X15.1544 Y-1.0067
G01 X15.1857 Y-1.0750
G01 X15.2517 Y-1.0750
G01 X15.2093 Y-0.9824
G01 X14.8876 Y-0.2319
G01 X14.8648 Y-0.1750
G01 X14.9294 Y-0.1750
G01 X14.9430 Y-0.2089
G01 X15.2641 Y-0.9581
G01 X15.3177 Y-1.0750
G01 X15.3837 Y-1.0750
G01 X15.3190 Y-0.9337
G01 X14.9984 Y-0.1860
G01 X14.9941 Y-0.1750
G01 X15.0590 Y-0.1750
G01 X15.3738 Y-0.9094
G01 X15.4497 Y-1.0750
G01 X15.5157 Y-1.0750
G01 X15.4287 Y-0.8851
G01 X15.1243 Y-0.1750
G01 X15.1896 Y-0.1750
G01 X15.4835 Y-0.8608
G01 X15.5817 Y-1.0750
G01 X15.6477 Y-1.0750
G01 X15.5384 Y-0.8365
G01 X15.2549 Y-0.1750
G01 X15.3201 Y-0.1750
G01 X15.5932 Y-0.8122
G01 X15.7136 Y-1.0750
G01 X15.7796 Y-1.0750
G01 X15.6481 Y-0.7879
G01 X15.3854 Y-0.1750
G01 X15.4507 Y-0.1750
G01 X15.7030 Y-0.7635
G01 X15.8456 Y-1.0750
G01 X15.9116 Y-1.0750
G01 X15.7578 Y-0.7392
G01 X15.5160 Y-0.1750
G01 X15.5812 Y-0.1750
G01 X15.8127 Y-0.7149
G01 X15.9776 Y-1.0750
G01 X16.0436 Y-1.0750
G01 X15.8675 Y-0.6906
G01 X15.6465 Y-0.1750
G01 X15.7118 Y-0.1750
G01 X15.9224 Y-0.6663
G01 X16.1096 Y-1.0750
G01 X16.1756 Y-1.0750
G01 X15.9772 Y-0.6420
G01 X15.7771 Y-0.1750
G01 X15.8423 Y-0.1750
G01 X16.0321 Y-0.6177
G01 X16.2416 Y-1.0750
G01 X16.3076 Y-1.0750
G01 X16.0869 Y-0.5933
G01 X15.9076 Y-0.1750
G01 X15.9729 Y-0.1750
G01 X16.1418 Y-0.5690
G01 X16.3735 Y-1.0750
G01 X16.4395 Y-1.0750
G01 X16.1966 Y-0.5447
G01 X16.0382 Y-0.1750
G01 X16.1034 Y-0.1750
G01 X16.2515 Y-0.5204
G01 X16.5055 Y-1.0750
G01 X16.5715 Y-1.0750
G01 X16.3063 Y-0.4961
G01 X16.1687 Y-0.1750
G01 X16.2340 Y-0.1750
G01 X16.3612 Y-0.4718
G01 X16.6375 Y-1.0750
G01 X16.7035 Y-1.0750
G01 X16.4160 Y-0.4475
G01 X16.2993 Y-0.1750
G01 X16.3645 Y-0.1750
G01 X16.4709 Y-0.4231
G01 X16.7695 Y-1.0750
G01 X16.8355 Y-1.0750
G01 X16.5257 Y-0.3988
G01 X16.4298 Y-0.1750
G01 X16.4951 Y-0.1750
G01 X16.5806 Y-0.3745
G01 X16.9015 Y-1.0750
G01 X16.9680 Y-1.0750
G01 X16.9595 Y-1.0578
G01 X16.6354 Y-0.3502
G01 X16.5604 Y-0.1750
G01 X16.6256 Y-0.1750
G01 X16.6903 Y-0.3259
G01 X17.0138 Y-1.0321
G01 X17.0347 Y-1.0750
G01 X17.1015 Y-1.0750
G01 X17.0680 Y-1.0065
G01 X16.7452 Y-0.3016
G01 X16.6909 Y-0.1750
G01 X16.7562 Y-0.1750
G01 X16.8000 Y-0.2773
G01 X17.1223 Y-0.9808
G01 X17.1682 Y-1.0750
G01 X17.2350 Y-1.0750
G01 X17.1765 Y-0.9552
G01 X16.8549 Y-0.2529
G01 X16.8215 Y-0.1750
G01 X16.8867 Y-0.1750
G01 X16.9097 Y-0.2286
G01 X17.2307 Y-0.9295
G01 X17.3018 Y-1.0750
G01 X17.3685 Y-1.0750
G01 X17.2850 Y-0.9039
G01 X16.9646 Y-0.2043
G01 X16.9520 Y-0.1750
G01 X17.0173 Y-0.1750
G01 X17.3392 Y-0.8782
G01 X17.4353 Y-1.0750
G01 X17.5020 Y-1.0750
G01 X17.3935 Y-0.8525
G01 X17.0831 Y-0.1750
G01 X17.1491 Y-0.1750
G01 X17.4477 Y-0.8269
G01 X17.5688 Y-1.0750
G01 X17.6356 Y-1.0750
G01 X17.5019 Y-0.8012
G01 X17.2151 Y-0.1750
G01 X17.2811 Y-0.1750
G01 X17.5562 Y-0.7756
G01 X17.7023 Y-1.0750
G01 X17.7691 Y-1.0750
G01 X17.6104 Y-0.7499
G01 X17.3471 Y-0.1750
G01 X17.4131 Y-0.1750
G01 X17.6646 Y-0.7243
G01 X17.8358 Y-1.0750
G01 X17.9026 Y-1.0750
G01 X17.7189 Y-0.6986
G01 X17.4791 Y-0.1750
G01 X17.5451 Y-0.1750
G01 X17.7731 Y-0.6730
G01 X17.9694 Y-1.0750
G01 X18.0361 Y-1.0750
G01 X17.8274 Y-0.6473
G01 X17.6110 Y-0.1750
G01 X17.6770 Y-0.1750
G01 X17.8816 Y-0.6217
G01 X18.1029 Y-1.0750
G01 X18.1696 Y-1.0750
G01 X17.9358 Y-0.5960
G01 X17.7430 Y-0.1750
G01 X17.8090 Y-0.1750
G01 X17.9901 Y-0.5704
G01 X18.2364 Y-1.0750
G01 X18.3032 Y-1.0750
G01 X18.0443 Y-0.5447
G01 X17.8750 Y-0.1750
G01 X17.9410 Y-0.1750
G01 X18.0986 Y-0.5191
G01 X18.3699 Y-1.0750
G01 X18.4367 Y-1.0750
G01 X18.1528 Y-0.4934
G01 X18.0070 Y-0.1750
G01 X18.0730 Y-0.1750
G01 X18.2070 Y-0.4677
G01 X18.5034 Y-1.0750
G01 X18.5702 Y-1.0750
G01 X18.2613 Y-0.4421
G01 X18.1390 Y-0.1750
G01 X18.2050 Y-0.1750
G01 X18.3155 Y-0.4164
G01 X18.6370 Y-1.0750
G01 X18.7043 Y-1.0750
G01 X18.6943 Y-1.0558
G01 X18.3698 Y-0.3908
G01 X18.2709 Y-0.1750
G01 X18.3369 Y-0.1750
G01 X18.4240 Y-0.3651
G01 X18.7479 Y-1.0288
G01 X18.7719 Y-1.0750
G01 X18.8395 Y-1.0750
G01 X18.8015 Y-1.0018
G01 X18.4782 Y-0.3395
G01 X18.4029 Y-0.1750
G01 X18.4689 Y-0.1750
G01 X18.5325 Y-0.3138
G01 X18.8551 Y-0.9749
G01 X18.9071 Y-1.0750
G01 X18.9747 Y-1.0750
G01 X18.9087 Y-0.9479
G01 X18.5867 Y-0.2882
G01 X18.5349 Y-0.1750
G01 X18.6009 Y-0.1750
G01 X18.6410 Y-0.2625
G01 X18.9623 Y-0.9209
G01 X19.0423 Y-1.0750
G01 X19.1099 Y-1.0750
G01 X19.0159 Y-0.8939
G01 X18.6952 Y-0.2369
G01 X18.6669 Y-0.1750
G01 X18.7329 Y-0.1750
G01 X18.7494 Y-0.2112
G01 X19.0695 Y-0.8669
G01 X19.1774 Y-1.0750
G01 X19.2450 Y-1.0750
G01 X19.1231 Y-0.8400
G01 X18.8037 Y-0.1856
G01 X18.7989 Y-0.1750
G01 X18.8653 Y-0.1750
G01 X19.1767 Y-0.8130
G01 X19.3126 Y-1.0750
G01 X19.3802 Y-1.0750
G01 X19.2303 Y-0.7860
G01 X18.9321 Y-0.1750
G01 X18.9988 Y-0.1750
G01 X19.2839 Y-0.7590
G01 X19.4478 Y-1.0750
G01 X19.5154 Y-1.0750
G01 X19.3374 Y-0.7321
G01 X19.0656 Y-0.1750
G01 X19.1323 Y-0.1750
G01 X19.3910 Y-0.7051
G01 X19.5830 Y-1.0750
G01 X19.6506 Y-1.0750
G01 X19.4446 Y-0.6781
G01 X19.1991 Y-0.1750
G01 X19.2659 Y-0.1750
G01 X19.4982 Y-0.6511
G01 X19.7182 Y-1.0750
G01 X19.7858 Y-1.0750
G01 X19.5518 Y-0.6242
G01 X19.3326 Y-0.1750
G01 X19.3994 Y-0.1750
G01 X19.6054 Y-0.5972
G01 X19.8533 Y-1.0750
G01 X19.9209 Y-1.0750
G01 X19.6590 Y-0.5702
G01 X19.4661 Y-0.1750
G01 X19.5329 Y-0.1750
G01 X19.7126 Y-0.5432
G01 X19.9885 Y-1.0750
G01 X20.0561 Y-1.0750
G01 X19.7662 Y-0.5162
G01 X19.5997 Y-0.1750
G01 X19.6664 Y-0.1750
G01 X19.8198 Y-0.4893
G01 X20.1237 Y-1.0750
G01 X20.1913 Y-1.0750
G01 X19.8734 Y-0.4623
G01 X19.7332 Y-0.1750
G01 X19.7999 Y-0.1750
G01 X19.9270 Y-0.4353
G01 X20.2522 Y-1.0621
G01 X20.2593 Y-1.0750
G01 X20.3278 Y-1.0750
G01 X20.3051 Y-1.0338
G01 X19.9806 Y-0.4083
G01 X19.8667 Y-0.1750
G01 X19.9335 Y-0.1750
G01 X20.0342 Y-0.3814
G01 X20.3580 Y-1.0055
G01 X20.3963 Y-1.0750
G01 X20.4647 Y-1.0750
G01 X20.4109 Y-0.9772
G01 X20.0878 Y-0.3544
G01 X20.0002 Y-0.1750
G01 X20.0670 Y-0.1750
G01 X20.1413 Y-0.3274
G01 X20.4638 Y-0.9489
G01 X20.5332 Y-1.0750
G01 X20.6017 Y-1.0750
G01 X20.5167 Y-0.9207
G01 X20.1949 Y-0.3004
G01 X20.1337 Y-0.1750
G01 X20.2005 Y-0.1750
G01 X20.2485 Y-0.2735
G01 X20.5697 Y-0.8924
G01 X20.6702 Y-1.0750
G01 X20.7387 Y-1.0750
G01 X20.6226 Y-0.8641
G01 X20.3021 Y-0.2465
G01 X20.2673 Y-0.1750
G01 X20.3340 Y-0.1750
G01 X20.3557 Y-0.2195
G01 X20.6755 Y-0.8358
G01 X20.8072 Y-1.0750
G01 X20.8756 Y-1.0750
G01 X20.7284 Y-0.8075
G01 X20.4093 Y-0.1925
G01 X20.4008 Y-0.1750
G01 X20.4678 Y-0.1750
G01 X20.7813 Y-0.7792
G01 X20.9441 Y-1.0750
G01 X21.0126 Y-1.0750
G01 X20.8342 Y-0.7510
G01 X20.5354 Y-0.1750
G01 X20.6030 Y-0.1750
G01 X20.8871 Y-0.7227
G01 X21.0811 Y-1.0750
G01 X21.1496 Y-1.0750
G01 X20.9401 Y-0.6944
G01 X20.6706 Y-0.1750
G01 X20.7382 Y-0.1750
G01 X20.9930 Y-0.6661
G01 X21.2180 Y-1.0750
G01 X21.2865 Y-1.0750
G01 X21.0459 Y-0.6378
G01 X20.8058 Y-0.1750
G01 X20.8734 Y-0.1750
G01 X21.0988 Y-0.6095
G01 X21.3550 Y-1.0750
G01 X21.4235 Y-1.0750
G01 X21.1517 Y-0.5813
G01 X20.9410 Y-0.1750
G01 X21.0085 Y-0.1750
G01 X21.2046 Y-0.5530
G01 X21.4920 Y-1.0750
G01 X21.5605 Y-1.0750
G01 X21.2576 Y-0.5247
G01 X21.0761 Y-0.1750
G01 X21.1437 Y-0.1750
G01 X21.3105 Y-0.4964
G01 X21.6289 Y-1.0750
G01 X21.6979 Y-1.0750
G01 X21.6889 Y-1.0596
G01 X21.3634 Y-0.4681
G01 X21.2113 Y-0.1750
G01 X21.2789 Y-0.1750
G01 X21.4163 Y-0.4398
G01 X21.7411 Y-1.0301
G01 X21.7674 Y-1.0750
G01 X21.8368 Y-1.0750
G01 X21.7934 Y-1.0005
G01 X21.4692 Y-0.4116
G01 X21.3465 Y-0.1750
G01 X21.4141 Y-0.1750
G01 X21.5221 Y-0.3833
G01 X21.8456 Y-0.9709
G01 X21.9062 Y-1.0750
G01 X21.9757 Y-1.0750
G01 X21.8978 Y-0.9413
G01 X21.5750 Y-0.3550
G01 X21.4817 Y-0.1750
G01 X21.5493 Y-0.1750
G01 X21.6280 Y-0.3267
G01 X21.9500 Y-0.9118
G01 X22.0451 Y-1.0750
G01 X22.1146 Y-1.0750
G01 X22.0022 Y-0.8822
G01 X21.6809 Y-0.2984
G01 X21.6169 Y-0.1750
G01 X21.6844 Y-0.1750
G01 X21.7338 Y-0.2701
G01 X22.0544 Y-0.8526
G01 X22.1840 Y-1.0750
G01 X22.2535 Y-1.0750
G01 X22.1066 Y-0.8230
G01 X21.7867 Y-0.2419
G01 X21.7520 Y-0.1750
G01 X21.8196 Y-0.1750
G01 X21.8396 Y-0.2136
G01 X22.1588 Y-0.7935
G01 X22.3229 Y-1.0750
G01 X22.3923 Y-1.0750
G01 X22.2110 Y-0.7639
G01 X21.8925 Y-0.1853
G01 X21.8872 Y-0.1750
G01 X21.9554 Y-0.1750
G01 X22.2632 Y-0.7343
G01 X22.4618 Y-1.0750
G01 X22.5312 Y-1.0750
G01 X22.3154 Y-0.7047
G01 X22.0239 Y-0.1750
G01 X22.0923 Y-0.1750
G01 X22.3676 Y-0.6752
G01 X22.6007 Y-1.0750
G01 X22.6701 Y-1.0750
G01 X22.4198 Y-0.6456
G01 X22.1608 Y-0.1750
G01 X22.2293 Y-0.1750
G01 X22.4720 Y-0.6160
G01 X22.7395 Y-1.0750
G01 X22.8090 Y-1.0750
G01 X22.5242 Y-0.5864
G01 X22.2978 Y-0.1750
G01 X22.3663 Y-0.1750
G01 X22.5764 Y-0.5569
G01 X22.8784 Y-1.0750
G01 X22.9479 Y-1.0750
G01 X22.6286 Y-0.5273
G01 X22.4348 Y-0.1750
G01 X22.5032 Y-0.1750
G01 X22.6808 Y-0.4977
G01 X23.0067 Y-1.0569
G01 X23.0179 Y-1.0750
G01 X23.0884 Y-1.0750
G01 X23.0582 Y-1.0260
G01 X22.7330 Y-0.4682
G01 X22.5717 Y-0.1750
G01 X22.6402 Y-0.1750
G01 X22.7853 Y-0.4386
G01 X23.1097 Y-0.9952
G01 X23.1589 Y-1.0750
G01 X23.2293 Y-1.0750
G01 X23.1611 Y-0.9644
G01 X22.8375 Y-0.4090
G01 X22.7087 Y-0.1750
G01 X22.7772 Y-0.1750
G01 X22.8897 Y-0.3794
G01 X23.2126 Y-0.9335
G01 X23.2998 Y-1.0750
G01 X23.3703 Y-1.0750
G01 X23.2641 Y-0.9027
G01 X22.9419 Y-0.3499
G01 X22.8457 Y-0.1750
G01 X22.9141 Y-0.1750
G01 X22.9941 Y-0.3203
G01 X23.3155 Y-0.8718
G01 X23.4407 Y-1.0750
G01 X23.5112 Y-1.0750
G01 X23.3670 Y-0.8410
G01 X23.0463 Y-0.2907
G01 X22.9826 Y-0.1750
G01 X23.0511 Y-0.1750
G01 X23.0985 Y-0.2611
G01 X23.4184 Y-0.8101
G01 X23.5817 Y-1.0750
G01 X23.6522 Y-1.0750
G01 X23.4699 Y-0.7793
G01 X23.1507 Y-0.2316
G01 X23.1196 Y-0.1750
G01 X23.1881 Y-0.1750
G01 X23.2029 Y-0.2020
G01 X23.5214 Y-0.7484
G01 X23.7226 Y-1.0750
G01 X23.7931 Y-1.0750
G01 X23.5728 Y-0.7176
G01 X23.2566 Y-0.1750
G01 X23.3261 Y-0.1750
G01 X23.6243 Y-0.6867
G01 X23.8636 Y-1.0750
G01 X23.9340 Y-1.0750
G01 X23.6758 Y-0.6559
G01 X23.3955 Y-0.1750
G01 X23.4650 Y-0.1750
G01 X23.7272 Y-0.6250
G01 X24.0045 Y-1.0750
G01 X24.0750 Y-1.0750
G01 X23.7787 Y-0.5942
G01 X23.5344 Y-0.1750
G01 X23.6038 Y-0.1750
G01 X23.8302 Y-0.5634
G01 X24.1454 Y-1.0750
G01 X24.2164 Y-1.0750
G01 X24.2080 Y-1.0622
G01 X23.8816 Y-0.5325
G01 X23.6733 Y-0.1750
G01 X23.7427 Y-0.1750
G01 X23.9331 Y-0.5017
G01 X24.2587 Y-1.0301
G01 X24.2879 Y-1.0750
G01 X24.3595 Y-1.0750
G01 X24.3094 Y-0.9980
G01 X23.9845 Y-0.4708
G01 X23.8122 Y-0.1750
G01 X23.8816 Y-0.1750
G01 X24.0360 Y-0.4400
G01 X24.3601 Y-0.9659
G01 X24.4311 Y-1.0750
G01 X24.5027 Y-1.0750
G01 X24.4108 Y-0.9338
G01 X24.0875 Y-0.4091
G01 X23.9510 Y-0.1750
G01 X24.0205 Y-0.1750
G01 X24.1389 Y-0.3783
G01 X24.4615 Y-0.9017
G01 X24.5742 Y-1.0750
G01 X24.6458 Y-1.0750
G01 X24.5121 Y-0.8696
G01 X24.1904 Y-0.3474
G01 X24.0899 Y-0.1750
G01 X24.1594 Y-0.1750
G01 X24.2419 Y-0.3166
G01 X24.5628 Y-0.8375
G01 X24.7174 Y-1.0750
G01 X24.7890 Y-1.0750
G01 X24.6135 Y-0.8054
G01 X24.2933 Y-0.2857
G01 X24.2288 Y-0.1750
G01 X24.2983 Y-0.1750
G01 X24.3448 Y-0.2549
G01 X24.6642 Y-0.7733
G01 X24.8605 Y-1.0750
G01 X24.9321 Y-1.0750
G01 X24.7149 Y-0.7412
G01 X24.3963 Y-0.2240
G01 X24.3677 Y-0.1750
G01 X24.4371 Y-0.1750
G01 X24.4477 Y-0.1932
G01 X24.7656 Y-0.7091
G01 X25.0037 Y-1.0750
G01 X25.0753 Y-1.0750
G01 X24.8163 Y-0.6770
G01 X24.5070 Y-0.1750
G01 X24.5775 Y-0.1750
G01 X24.8670 Y-0.6449
G01 X25.1468 Y-1.0750
G01 X25.2184 Y-1.0750
G01 X24.9177 Y-0.6128
G01 X24.6479 Y-0.1750
G01 X24.7184 Y-0.1750
G01 X24.9684 Y-0.5807
G01 X25.2900 Y-1.0750
G01 X25.3624 Y-1.0750
G01 X25.3455 Y-1.0504
G01 X25.0191 Y-0.5486
G01 X24.7889 Y-0.1750
G01 X24.8594 Y-0.1750
G01 X25.0698 Y-0.5165
G01 X25.3954 Y-1.0170
G01 X25.4352 Y-1.0750
G01 X25.5079 Y-1.0750
G01 X25.4453 Y-0.9837
G01 X25.1204 Y-0.4844
G01 X24.9298 Y-0.1750
G01 X25.0003 Y-0.1750
G01 X25.1711 Y-0.4523
G01 X25.4952 Y-0.9504
G01 X25.5807 Y-1.0750
G01 X25.6535 Y-1.0750
G01 X25.5450 Y-0.9170
G01 X25.2218 Y-0.4202
G01 X25.0708 Y-0.1750
G01 X25.1412 Y-0.1750
G01 X25.2725 Y-0.3881
G01 X25.5949 Y-0.8837
G01 X25.7262 Y-1.0750
G01 X25.7990 Y-1.0750
G01 X25.6448 Y-0.8504
G01 X25.3232 Y-0.3560
G01 X25.2117 Y-0.1750
G01 X25.2822 Y-0.1750
G01 X25.3739 Y-0.3239
G01 X25.6947 Y-0.8170
G01 X25.8717 Y-1.0750
G01 X25.9445 Y-1.0750
G01 X25.7446 Y-0.7837
G01 X25.4246 Y-0.2918
G01 X25.3526 Y-0.1750
G01 X25.4231 Y-0.1750
G01 X25.4753 Y-0.2597
G01 X25.7945 Y-0.7504
G01 X26.0172 Y-1.0750
G01 X26.0900 Y-1.0750
G01 X25.8444 Y-0.7170
G01 X25.5260 Y-0.2276
G01 X25.4936 Y-0.1750
G01 X25.5641 Y-0.1750
G01 X25.5767 Y-0.1955
G01 X25.8943 Y-0.6837
G01 X26.1628 Y-1.0750
G01 X26.2355 Y-1.0750
G01 X25.9442 Y-0.6503
G01 X25.6349 Y-0.1750
G01 X25.7065 Y-0.1750
G01 X25.9940 Y-0.6170
G01 X26.3083 Y-1.0750
G01 X26.3816 Y-1.0750
G01 X26.3709 Y-1.0603
G01 X26.0439 Y-0.5837
G01 X25.7781 Y-0.1750
G01 X25.8497 Y-0.1750
G01 X26.0938 Y-0.5503
G01 X26.4200 Y-1.0257
G01 X26.4556 Y-1.0750
G01 X26.5296 Y-1.0750
G01 X26.4690 Y-0.9912
G01 X26.1437 Y-0.5170
G01 X25.9212 Y-0.1750
G01 X25.9928 Y-0.1750
G01 X26.1936 Y-0.4837
G01 X26.5181 Y-0.9566
G01 X26.6037 Y-1.0750
G01 X26.6777 Y-1.0750
G01 X26.5671 Y-0.9221
G01 X26.2435 Y-0.4503
G01 X26.0644 Y-0.1750
G01 X26.1359 Y-0.1750
G01 X26.2934 Y-0.4170
G01 X26.6162 Y-0.8875
G01 X26.7517 Y-1.0750
G01 X26.8257 Y-1.0750
G01 X26.6652 Y-0.8530
G01 X26.3433 Y-0.3837
G01 X26.2075 Y-0.1750
G01 X26.2791 Y-0.1750
G01 X26.3931 Y-0.3503
G01 X26.7143 Y-0.8184
G01 X26.8998 Y-1.0750
G01 X26.9738 Y-1.0750
G01 X26.7634 Y-0.7839
G01 X26.4430 Y-0.3170
G01 X26.3507 Y-0.1750
G01 X26.4222 Y-0.1750
G01 X26.4929 Y-0.2837
G01 X26.8124 Y-0.7493
G01 X27.0478 Y-1.0750
G01 X27.1218 Y-1.0750
G01 X26.8615 Y-0.7148
G01 X26.5428 Y-0.2503
G01 X26.4938 Y-0.1750
G01 X26.5654 Y-0.1750
G01 X26.5927 Y-0.2170
G01 X26.9105 Y-0.6802
G01 X27.1959 Y-1.0750
G01 X27.2699 Y-1.0750
G01 X26.9596 Y-0.6457
G01 X26.6370 Y-0.1750
G01 X26.7094 Y-0.1750
G01 X27.0086 Y-0.6112
G01 X27.3360 Y-1.0641
G01 X27.3443 Y-1.0750
G01 X27.4197 Y-1.0750
G01 X27.3842 Y-1.0283
G01 X27.0577 Y-0.5766
G01 X26.7822 Y-0.1750
G01 X26.8549 Y-0.1750
G01 X27.1067 Y-0.5421
G01 X27.4324 Y-0.9926
G01 X27.4951 Y-1.0750
G01 X27.5705 Y-1.0750
G01 X27.4806 Y-0.9568
G01 X27.1558 Y-0.5075
G01 X26.9277 Y-0.1750
G01 X27.0005 Y-0.1750
G01 X27.2049 Y-0.4730
G01 X27.5288 Y-0.9211
G01 X27.6459 Y-1.0750
G01 X27.7213 Y-1.0750
G01 X27.5770 Y-0.8854
G01 X27.2539 Y-0.4384
G01 X27.0732 Y-0.1750
G01 X27.1460 Y-0.1750
G01 X27.3030 Y-0.4039
G01 X27.6252 Y-0.8496
G01 X27.7967 Y-1.0750
G01 X27.8721 Y-1.0750
G01 X27.6733 Y-0.8139
G01 X27.3520 Y-0.3693
G01 X27.2187 Y-0.1750
G01 X27.2915 Y-0.1750
G01 X27.4011 Y-0.3348
G01 X27.7215 Y-0.7781
G01 X27.9474 Y-1.0750
G01 X28.0228 Y-1.0750
G01 X27.7697 Y-0.7424
G01 X27.4501 Y-0.3002
G01 X27.3642 Y-0.1750
G01 X27.4370 Y-0.1750
G01 X27.4992 Y-0.2657
G01 X27.8179 Y-0.7067
G01 X28.0982 Y-1.0750
G01 X28.1736 Y-1.0750
G01 X27.8661 Y-0.6709
G01 X27.5482 Y-0.2311
G01 X27.5098 Y-0.1750
G01 X27.5825 Y-0.1750
G01 X27.5973 Y-0.1966
G01 X27.9143 Y-0.6352
G01 X28.2420 Y-1.0659
G01 X28.2493 Y-1.0750
G01 X28.3262 Y-1.0750
G01 X28.2893 Y-1.0289
G01 X27.9625 Y-0.5994
G01 X27.6558 Y-0.1750
G01 X27.7298 Y-0.1750
G01 X28.0107 Y-0.5637
G01 X28.3366 Y-0.9920
G01 X28.4030 Y-1.0750
G01 X28.4799 Y-1.0750
G01 X28.3839 Y-0.9551
G01 X28.0589 Y-0.5279
G01 X27.8038 Y-0.1750
G01 X27.8778 Y-0.1750
G01 X28.1071 Y-0.4922
G01 X28.4312 Y-0.9182
G01 X28.5567 Y-1.0750
G01 X28.6336 Y-1.0750
G01 X28.4785 Y-0.8813
G01 X28.1553 Y-0.4565
G01 X27.9519 Y-0.1750
G01 X28.0259 Y-0.1750
G01 X28.2035 Y-0.4207
G01 X28.5258 Y-0.8444
G01 X28.7104 Y-1.0750
G01 X28.7873 Y-1.0750
G01 X28.5731 Y-0.8075
G01 X28.2517 Y-0.3850
G01 X28.0999 Y-0.1750
G01 X28.1739 Y-0.1750
G01 X28.2999 Y-0.3492
G01 X28.6204 Y-0.7705
G01 X28.8641 Y-1.0750
G01 X28.9409 Y-1.0750
G01 X28.6677 Y-0.7336
G01 X28.3480 Y-0.3135
G01 X28.2480 Y-0.1750
G01 X28.3220 Y-0.1750
G01 X28.3962 Y-0.2778
G01 X28.7150 Y-0.6967
G01 X29.0178 Y-1.0750
G01 X29.0949 Y-1.0750
G01 X28.7623 Y-0.6598
G01 X28.4444 Y-0.2420
G01 X28.3960 Y-0.1750
G01 X28.4700 Y-0.1750
G01 X28.4926 Y-0.2063
G01 X28.8096 Y-0.6229
G01 X29.1367 Y-1.0316
G01 X29.1733 Y-1.0750
G01 X29.2517 Y-1.0750
G01 X29.1831 Y-0.9935
G01 X28.8569 Y-0.5860
G01 X28.5442 Y-0.1750
G01 X28.6196 Y-0.1750
G01 X28.9042 Y-0.5491
G01 X29.2295 Y-0.9555
G01 X29.3301 Y-1.0750
G01 X29.4085 Y-1.0750
G01 X29.2759 Y-0.9174
G01 X28.9515 Y-0.5121
G01 X28.6950 Y-0.1750
G01 X28.7704 Y-0.1750
G01 X28.9988 Y-0.4752
G01 X29.3222 Y-0.8794
G01 X29.4869 Y-1.0750
G01 X29.5653 Y-1.0750
G01 X29.3686 Y-0.8413
G01 X29.0461 Y-0.4383
G01 X28.8458 Y-0.1750
G01 X28.9212 Y-0.1750
G01 X29.0934 Y-0.4014
G01 X29.4150 Y-0.8032
G01 X29.6437 Y-1.0750
G01 X29.7221 Y-1.0750
G01 X29.4614 Y-0.7652
G01 X29.1407 Y-0.3645
G01 X28.9966 Y-0.1750
G01 X29.0720 Y-0.1750
G01 X29.1880 Y-0.3276
G01 X29.5078 Y-0.7271
G01 X29.8005 Y-1.0750
G01 X29.8789 Y-1.0750
G01 X29.5542 Y-0.6890
G01 X29.2353 Y-0.2907
G01 X29.1473 Y-0.1750
G01 X29.2227 Y-0.1750
G01 X29.2826 Y-0.2538
G01 X29.6005 Y-0.6510
G01 X29.9281 Y-1.0403
G01 X29.9588 Y-1.0750
G01 X30.0389 Y-1.0750
G01 X29.9735 Y-1.0011
G01 X29.6469 Y-0.6129
G01 X29.3299 Y-0.2168
G01 X29.2981 Y-0.1750
G01 X29.3735 Y-0.1750
G01 X29.6933 Y-0.5748
G01 X30.0190 Y-0.9619
G01 X30.1190 Y-1.0750
G01 X30.1991 Y-1.0750
G01 X30.0644 Y-0.9227
G01 X29.7397 Y-0.5368
G01 X29.4502 Y-0.1750
G01 X29.5270 Y-0.1750
G01 X29.7861 Y-0.4987
G01 X30.1098 Y-0.8835
G01 X30.2792 Y-1.0750
G01 X30.3593 Y-1.0750
G01 X30.1553 Y-0.8443
G01 X29.8324 Y-0.4607
G01 X29.6038 Y-0.1750
G01 X29.6807 Y-0.1750
G01 X29.8788 Y-0.4226
G01 X30.2007 Y-0.8051
G01 X30.4394 Y-1.0750
G01 X30.5194 Y-1.0750
G01 X30.2461 Y-0.7659
G01 X29.9252 Y-0.3845
G01 X29.7575 Y-0.1750
G01 X29.8344 Y-0.1750
G01 X29.9716 Y-0.3465
G01 X30.2916 Y-0.7268
G01 X30.5995 Y-1.0750
G01 X30.6803 Y-1.0750
G01 X30.6652 Y-1.0588
G01 X30.3370 Y-0.6876
G01 X30.0180 Y-0.3084
G01 X29.9112 Y-0.1750
G01 X29.9881 Y-0.1750
G01 X30.0643 Y-0.2703
G01 X30.3824 Y-0.6484
G01 X30.7097 Y-1.0185
G01 X30.7622 Y-1.0750
G01 X30.8441 Y-1.0750
G01 X30.7541 Y-0.9782
G01 X30.4279 Y-0.6092
G01 X30.1107 Y-0.2323
G01 X30.0649 Y-0.1750
G01 X30.1418 Y-0.1750
G01 X30.1571 Y-0.1942
G01 X30.4733 Y-0.5700
G01 X30.7986 Y-0.9379
G01 X30.9260 Y-1.0750
G01 X31.0079 Y-1.0750
G01 X30.8431 Y-0.8976
G01 X30.5187 Y-0.5308
G01 X30.2194 Y-0.1750
G01 X30.2978 Y-0.1750
G01 X30.5642 Y-0.4916
G01 X30.8875 Y-0.8573
G01 X31.0898 Y-1.0750
G01 X31.1717 Y-1.0750
G01 X30.9320 Y-0.8170
G01 X30.6096 Y-0.4524
G01 X30.3762 Y-0.1750
G01 X30.4546 Y-0.1750
G01 X30.6550 Y-0.4132
G01 X30.9764 Y-0.7767
G01 X31.2536 Y-1.0750
G01 X31.3354 Y-1.0750
G01 X31.0209 Y-0.7364
G01 X30.7005 Y-0.3740
G01 X30.5330 Y-0.1750
G01 X30.6114 Y-0.1750
G01 X30.7459 Y-0.3348
G01 X31.0653 Y-0.6961
G01 X31.3936 Y-1.0495
G01 X31.4185 Y-1.0750
G01 X31.5024 Y-1.0750
G01 X31.4370 Y-1.0081
G01 X31.1098 Y-0.6558
G01 X30.7913 Y-0.2957
G01 X30.6898 Y-0.1750
G01 X30.7682 Y-0.1750
G01 X30.8367 Y-0.2565
G01 X31.1543 Y-0.6155
G01 X31.4805 Y-0.9667
G01 X31.5862 Y-1.0750
G01 X31.6700 Y-1.0750
G01 X31.5239 Y-0.9254
G01 X31.1987 Y-0.5753
G01 X30.8822 Y-0.2173
G01 X30.8466 Y-0.1750
G01 X30.9250 Y-0.1750
G01 X31.2432 Y-0.5350
G01 X31.5674 Y-0.8840
G01 X31.7538 Y-1.0750
G01 X31.8376 Y-1.0750
G01 X31.6109 Y-0.8426
G01 X31.2876 Y-0.4947
G01 X31.0050 Y-0.1750
G01 X31.0851 Y-0.1750
G01 X31.3321 Y-0.4544
G01 X31.6543 Y-0.8012
G01 X31.9215 Y-1.0750
G01 X32.0053 Y-1.0750
G01 X31.6978 Y-0.7599
G01 X31.3765 Y-0.4141
G01 X31.1652 Y-0.1750
G01 X31.2453 Y-0.1750
G01 X31.4210 Y-0.3738
G01 X31.7412 Y-0.7185
G01 X32.0698 Y-1.0552
G01 X32.0901 Y-1.0750
G01 X32.1760 Y-1.0750
G01 X32.1122 Y-1.0128
G01 X31.7847 Y-0.6771
G01 X31.4655 Y-0.3335
G01 X31.3253 Y-0.1750
G00 Z1.0000
G00 X31.4054 Y-0.1750
G01 F50.00
G01 Z-0.0500
G01 F80.00
G01 X31.5099 Y-0.2932
G01 X31.8281 Y-0.6357
G01 X32.1547 Y-0.9704
G01 X32.2619 Y-1.0750
G01 X32.3478 Y-1.0750
G01 X32.1971 Y-0.9280
G01 X31.8716 Y-0.5944
G01 X31.5544 Y-0.2529
G01 X31.4855 Y-0.1750
G01 X31.5656 Y-0.1750
G01 X31.5988 Y-0.2126
G01 X31.9150 Y-0.5530
G01 X32.2395 Y-0.8855
G01 X32.4337 Y-1.0750
G01 X32.5196 Y-1.0750
G01 X32.2819 Y-0.8431
G01 X31.9585 Y-0.5116
G01 X31.6458 Y-0.1750
G01 X31.7277 Y-0.1750
G01 X32.0019 Y-0.4703
G01 X32.3244 Y-0.8007
G01 X32.6055 Y-1.0750
G01 X32.6914 Y-1.0750
G01 X32.3668 Y-0.7583
G01 X32.0454 Y-0.4289
G01 X31.8096 Y-0.1750
G01 X31.8915 Y-0.1750
G01 X32.0889 Y-0.3875
G01 X32.4092 Y-0.7158
G01 X32.7375 Y-1.0362
G01 X32.7794 Y-1.0750
G01 X32.8675 Y-1.0750
G01 X32.7789 Y-0.9927
G01 X32.4516 Y-0.6734
G01 X32.1323 Y-0.3461
G01 X31.9734 Y-0.1750
G00 Z1.0000
G00 X32.0553 Y-0.1750
G01 F50.00
G01 Z-0.0500
G01 F80.00
G01 X32.1758 Y-0.3048
G01 X32.4941 Y-0.6310
G01 X32.8203 Y-0.9493
G01 X32.9557 Y-1.0750
G01 X33.0438 Y-1.0750
G01 X32.8616 Y-0.9058
G01 X32.5365 Y-0.5885
G01 X32.2192 Y-0.2634
G01 X32.1371 Y-0.1750
G01 X32.2190 Y-0.1750
G01 X32.2627 Y-0.2220
G01 X32.5789 Y-0.5461
G01 X32.9030 Y-0.8624
G01 X33.1320 Y-1.0750
G01 X33.2201 Y-1.0750
G01 X32.9444 Y-0.8189
G01 X32.6213 Y-0.5037
G01 X32.3009 Y-0.1750
G01 X32.3845 Y-0.1750
G01 X32.6638 Y-0.4613
G01 X32.9858 Y-0.7754
G01 X33.3083 Y-1.0750
G01 X33.3985 Y-1.0750
G01 X33.3557 Y-1.0372
G01 X33.0271 Y-0.7320
G01 X32.7062 Y-0.4188
G01 X32.4683 Y-0.1750
G01 X32.5521 Y-0.1750
G01 X32.7486 Y-0.3764
G01 X33.0685 Y-0.6885
G01 X33.3959 Y-0.9927
G01 X33.4890 Y-1.0750
G01 X33.5796 Y-1.0750
G01 X33.4362 Y-0.9483
G01 X33.1099 Y-0.6451
G01 X32.7910 Y-0.3340
G01 X32.6360 Y-0.1750
G01 X32.7198 Y-0.1750
G01 X32.8335 Y-0.2916
G01 X33.1512 Y-0.6016
G01 X33.4765 Y-0.9038
G01 X33.6702 Y-1.0750
G01 X33.7608 Y-1.0750
G01 X33.5168 Y-0.8593
G01 X33.1926 Y-0.5582
G01 X32.8759 Y-0.2491
G01 X32.8036 Y-0.1750
G01 X32.8874 Y-0.1750
G01 X32.9183 Y-0.2067
G01 X33.2340 Y-0.5147
G01 X33.5571 Y-0.8149
G01 X33.8513 Y-1.0750
G01 X33.9427 Y-1.0750
G01 X33.9267 Y-1.0616
G01 X33.5974 Y-0.7704
G01 X33.2754 Y-0.4713
G01 X32.9718 Y-0.1750
G01 X33.0577 Y-0.1750
G01 X33.3167 Y-0.4278
G01 X33.6377 Y-0.7260
G01 X33.9659 Y-1.0162
G01 X34.0359 Y-1.0750
G01 X34.1290 Y-1.0750
G01 X34.0051 Y-0.9707
G01 X33.6780 Y-0.6815
G01 X33.3581 Y-0.3844
G01 X33.1436 Y-0.1750
G01 X33.2295 Y-0.1750
G01 X33.3995 Y-0.3409
G01 X33.7183 Y-0.6371
G01 X34.0443 Y-0.9253
G01 X34.2222 Y-1.0750
G01 X34.3154 Y-1.0750
G01 X34.0835 Y-0.8799
G01 X33.7586 Y-0.5926
G01 X33.4409 Y-0.2974
G01 X33.3154 Y-0.1750
G01 X33.4013 Y-0.1750
G01 X33.4822 Y-0.2540
G01 X33.7989 Y-0.5481
G01 X34.1227 Y-0.8344
G01 X34.4086 Y-1.0750
G01 X34.5023 Y-1.0750
G01 X34.4914 Y-1.0663
G01 X34.1619 Y-0.7890
G01 X33.8392 Y-0.5037
G01 X33.5236 Y-0.2105
G01 X33.4872 Y-0.1750
G01 X33.5735 Y-0.1750
G01 X33.8795 Y-0.4592
G01 X34.2010 Y-0.7436
G01 X34.5295 Y-1.0200
G01 X34.5983 Y-1.0750
G01 X34.6943 Y-1.0750
G01 X34.5676 Y-0.9736
G01 X34.2402 Y-0.6982
G01 X33.9198 Y-0.4148
G01 X33.6617 Y-0.1750
G01 X33.7498 Y-0.1750
G01 X33.9601 Y-0.3703
G01 X34.2794 Y-0.6527
G01 X34.6056 Y-0.9272
G01 X34.7904 Y-1.0750
G01 X34.8864 Y-1.0750
G01 X34.6437 Y-0.8808
G01 X34.3186 Y-0.6073
G01 X34.0004 Y-0.3259
G01 X33.8380 Y-0.1750
G01 X33.9261 Y-0.1750
G01 X34.0406 Y-0.2814
G01 X34.3578 Y-0.5619
G01 X34.6818 Y-0.8344
G01 X34.9824 Y-1.0750
G01 X35.0799 Y-1.0750
G01 X35.0492 Y-1.0517
G01 X34.7198 Y-0.7880
G01 X34.3970 Y-0.5164
G01 X34.0809 Y-0.2369
G01 X34.0143 Y-0.1750
G01 X34.1024 Y-0.1750
G01 X34.1212 Y-0.1925
G01 X34.4362 Y-0.4710
G01 X34.7579 Y-0.7417
G01 X35.0861 Y-1.0044
G01 X35.1790 Y-1.0750
G01 X35.2781 Y-1.0750
G01 X35.1230 Y-0.9571
G01 X34.7959 Y-0.6953
G01 X34.4754 Y-0.4256
G01 X34.1921 Y-0.1750
G01 X34.2826 Y-0.1750
G01 X34.5146 Y-0.3801
G01 X34.8340 Y-0.6489
G01 X35.1599 Y-0.9098
G01 X35.3772 Y-1.0750
G01 X35.4762 Y-1.0750
G01 X35.1969 Y-0.8625
G01 X34.8721 Y-0.6025
G01 X34.5538 Y-0.3347
G01 X34.3732 Y-0.1750
G01 X34.4638 Y-0.1750
G01 X34.5929 Y-0.2893
G01 X34.9101 Y-0.5561
G01 X35.2338 Y-0.8152
G01 X35.5637 Y-1.0662
G01 X35.5759 Y-1.0750
G01 X35.6784 Y-1.0750
G01 X35.5994 Y-1.0180
G01 X35.2707 Y-0.7679
G01 X34.9482 Y-0.5098
G01 X34.6321 Y-0.2438
G01 X34.5543 Y-0.1750
G01 X34.6449 Y-0.1750
G01 X34.6713 Y-0.1984
G01 X34.9863 Y-0.4634
G01 X35.3076 Y-0.7206
G01 X35.6352 Y-0.9698
G01 X35.7808 Y-1.0750
G01 X35.8832 Y-1.0750
G01 X35.6709 Y-0.9216
G01 X35.3445 Y-0.6733
G01 X35.0243 Y-0.4170
G01 X34.7368 Y-0.1750
G01 X34.8299 Y-0.1750
G01 X35.0624 Y-0.3706
G01 X35.3814 Y-0.6260
G01 X35.7066 Y-0.8734
G01 X35.9856 Y-1.0750
G01 X36.0889 Y-1.0750
G01 X36.0724 Y-1.0637
G01 X35.7424 Y-0.8252
G01 X35.4183 Y-0.5787
G01 X35.1005 Y-0.3242
G01 X34.9231 Y-0.1750
G01 X35.0163 Y-0.1750
G01 X35.1385 Y-0.2779
G01 X35.4553 Y-0.5314
G01 X35.7781 Y-0.7770
G01 X36.1069 Y-1.0147
G01 X36.1949 Y-1.0750
G01 X36.3010 Y-1.0750
G01 X36.1415 Y-0.9656
G01 X35.8139 Y-0.7288
G01 X35.4922 Y-0.4841
G01 X35.1766 Y-0.2315
G01 X35.1095 Y-0.1750
G01 X35.2027 Y-0.1750
G01 X35.2146 Y-0.1851
G01 X35.5291 Y-0.4368
G01 X35.8496 Y-0.6806
G01 X36.1760 Y-0.9166
G01 X36.4070 Y-1.0750
G01 X36.5131 Y-1.0750
G01 X36.2106 Y-0.8675
G01 X35.8854 Y-0.6324
G01 X35.5660 Y-0.3895
G01 X35.2981 Y-0.1750
G01 X35.3941 Y-0.1750
G01 X35.6029 Y-0.3422
G01 X35.9211 Y-0.5843
G01 X36.2451 Y-0.8185
G01 X36.5748 Y-1.0446
G01 X36.6215 Y-1.0750
G01 X36.7315 Y-1.0750
G01 X36.6081 Y-0.9948
G01 X36.2797 Y-0.7694
G01 X35.9568 Y-0.5361
G01 X35.6398 Y-0.2949
G01 X35.4901 Y-0.1750
G01 X35.5861 Y-0.1750
G01 X35.6767 Y-0.2476
G01 X35.9926 Y-0.4879
G01 X36.3142 Y-0.7203
G01 X36.6415 Y-0.9449
G01 X36.8416 Y-1.0750
G01 X36.9516 Y-1.0750
G01 X36.6748 Y-0.8950
G01 X36.3488 Y-0.6713
G01 X36.0283 Y-0.4397
G01 X35.7137 Y-0.2003
G01 X35.6821 Y-0.1750
G01 X35.7796 Y-0.1750
G01 X36.0641 Y-0.3915
G01 X36.3833 Y-0.6222
G01 X36.7081 Y-0.8451
G01 X37.0383 Y-1.0599
G01 X37.0629 Y-1.0750
G01 X37.1773 Y-1.0750
G01 X37.0704 Y-1.0092
G01 X36.7415 Y-0.7952
G01 X36.4179 Y-0.5732
G01 X36.0998 Y-0.3433
G01 X35.8787 Y-0.1750
G00 Z1.0000
G00 X35.9778 Y-0.1750
G01 F50.00
G01 Z-0.0500
G01 F80.00
G01 X36.1355 Y-0.2951
G01 X36.4524 Y-0.5241
G01 X36.7748 Y-0.7453
G01 X37.1025 Y-0.9585
G01 X37.2916 Y-1.0750
G01 X37.4060 Y-1.0750
G01 X37.1346 Y-0.9078
G01 X36.8081 Y-0.6954
G01 X36.4870 Y-0.4751
G01 X36.1713 Y-0.2469
G01 X36.0768 Y-0.1750
G01 X36.1759 Y-0.1750
G01 X36.2070 Y-0.1987
G01 X36.5215 Y-0.4260
G01 X36.8415 Y-0.6455
G01 X37.1667 Y-0.8571
G01 X37.4971 Y-1.0607
G01 X37.5217 Y-1.0750
G01 X37.6408 Y-1.0750
G01 X37.5279 Y-1.0092
G01 X37.1988 Y-0.8064
G01 X36.8748 Y-0.5956
G01 X36.5561 Y-0.3770
G01 X36.2767 Y-0.1750
G01 X36.3791 Y-0.1750
G01 X36.5906 Y-0.3279
G01 X36.9081 Y-0.5458
G01 X37.2309 Y-0.7558
G01 X37.5588 Y-0.9578
G01 X37.7600 Y-1.0750
G01 X37.8791 Y-1.0750
G01 X37.5896 Y-0.9063
G01 X37.2630 Y-0.7051
G01 X36.9415 Y-0.4959
G01 X36.6252 Y-0.2789
G01 X36.4815 Y-0.1750
G01 X36.5839 Y-0.1750
G01 X36.6597 Y-0.2298
G01 X36.9748 Y-0.4460
G01 X37.2951 Y-0.6544
G01 X37.6205 Y-0.8548
G01 X37.9506 Y-1.0473
G01 X38.0011 Y-1.0750
G01 X38.1255 Y-1.0750
G01 X37.9802 Y-0.9950
G01 X37.6513 Y-0.8034
G01 X37.3272 Y-0.6037
G01 X37.0081 Y-0.3961
G01 X36.6864 Y-0.1750
G01 X36.7920 Y-0.1750
G01 X37.0415 Y-0.3462
G01 X37.3593 Y-0.5530
G01 X37.6822 Y-0.7519
G01 X38.0098 Y-0.9428
G01 X38.2499 Y-1.0750
G01 X38.3746 Y-1.0750
G01 X38.0393 Y-0.8906
G01 X37.7130 Y-0.7004
G01 X37.3914 Y-0.5023
G01 X37.0748 Y-0.2963
G01 X36.8980 Y-0.1750
G00 Z1.0000
G00 X37.0041 Y-0.1750
G01 F50.00
G01 Z-0.0500
G01 F80.00
G01 X37.1081 Y-0.2464
G01 X37.4235 Y-0.4516
G01 X37.7438 Y-0.6490
G01 X38.0689 Y-0.8384
G01 X38.3985 Y-1.0199
G01 X38.5049 Y-1.0750
G01 X38.6352 Y-1.0750
G01 X38.4268 Y-0.9669
G01 X38.0985 Y-0.7862
G01 X37.7747 Y-0.5975
G01 X37.4556 Y-0.4009
G01 X37.1415 Y-0.1965
G01 X37.1101 Y-0.1750
G01 X37.2184 Y-0.1750
G01 X37.4877 Y-0.3502
G01 X37.8055 Y-0.5461
G01 X38.1281 Y-0.7340
G01 X38.4551 Y-0.9140
G01 X38.7654 Y-1.0750
G01 X38.9009 Y-1.0750
G01 X38.8134 Y-1.0323
G01 X38.4834 Y-0.8611
G01 X38.1576 Y-0.6818
G01 X37.8364 Y-0.4946
G01 X37.5198 Y-0.2995
G01 X37.3285 Y-0.1750
G01 X37.4385 Y-0.1750
G01 X37.5519 Y-0.2488
G01 X37.8672 Y-0.4431
G01 X38.1872 Y-0.6296
G01 X38.5117 Y-0.8082
G01 X38.8404 Y-0.9788
G01 X39.0377 Y-1.0750
G01 X39.1745 Y-1.0750
G01 X38.8674 Y-0.9252
G01 X38.5399 Y-0.7553
G01 X38.2168 Y-0.5774
G01 X37.8981 Y-0.3917
G01 X37.5840 Y-0.1981
G01 X37.5485 Y-0.1750
G01 X37.6609 Y-0.1750
G01 X37.9289 Y-0.3402
G01 X38.2464 Y-0.5252
G01 X38.5682 Y-0.7024
G01 X38.8944 Y-0.8716
G01 X39.2245 Y-1.0327
G01 X39.3169 Y-1.0750
G01 X39.4610 Y-1.0750
G01 X39.2502 Y-0.9785
G01 X38.9213 Y-0.8180
G01 X38.5965 Y-0.6494
G01 X38.2759 Y-0.4730
G01 X37.9598 Y-0.2887
G01 X37.7752 Y-0.1750
G01 X37.8896 Y-0.1750
G01 X37.9906 Y-0.2373
G01 X38.3055 Y-0.4208
G01 X38.6248 Y-0.5965
G01 X38.9483 Y-0.7644
G01 X39.2758 Y-0.9242
G01 X39.6051 Y-1.0750
G01 X39.7572 Y-1.0750
G01 X39.6315 Y-1.0212
G01 X39.3015 Y-0.8700
G01 X38.9753 Y-0.7108
G01 X38.6531 Y-0.5436
G01 X38.3351 Y-0.3686
G01 X38.0215 Y-0.1858
G01 X38.0040 Y-0.1750
G01 X38.1221 Y-0.1750
G01 X38.3646 Y-0.3164
G01 X38.6814 Y-0.4907
G01 X39.0023 Y-0.6572
G01 X39.3272 Y-0.8158
G01 X39.6558 Y-0.9663
G01 X39.9095 Y-1.0750
G01 X40.0654 Y-1.0750
G01 X40.0111 Y-1.0533
G01 X39.6801 Y-0.9115
G01 X39.3528 Y-0.7615
G01 X39.0292 Y-0.6036
G01 X38.7096 Y-0.4378
G01 X38.3942 Y-0.2642
G01 X38.2413 Y-0.1750
G01 X38.3604 Y-0.1750
G01 X38.4238 Y-0.2120
G01 X38.7379 Y-0.3849
G01 X39.0562 Y-0.5500
G01 X39.3785 Y-0.7073
G01 X39.7045 Y-0.8566
G01 X40.0340 Y-0.9979
G01 X40.2270 Y-1.0750
G01 X40.3885 Y-1.0750
G01 X40.0570 Y-0.9424
G01 X39.7288 Y-0.8018
G01 X39.4041 Y-0.6530
G01 X39.0832 Y-0.4964
G01 X38.7662 Y-0.3320
G01 X38.4811 Y-0.1750
G01 X38.6055 Y-0.1750
G01 X38.7945 Y-0.2790
G01 X39.1102 Y-0.4428
G01 X39.4298 Y-0.5988
G01 X39.7531 Y-0.7469
G01 X40.0800 Y-0.8870
G01 X40.4102 Y-1.0191
G01 X40.5607 Y-1.0750
G01 X40.7329 Y-1.0750
G01 X40.4318 Y-0.9631
G01 X40.1029 Y-0.8316
G01 X39.7774 Y-0.6920
G01 X39.4554 Y-0.5446
G01 X39.1371 Y-0.3892
G01 X38.8228 Y-0.2261
G01 X38.7300 Y-0.1750
G01 X38.8546 Y-0.1750
G01 X39.1641 Y-0.3356
G01 X39.4811 Y-0.4903
G01 X39.8017 Y-0.6372
G01 X40.1259 Y-0.7761
G01 X40.4533 Y-0.9071
G01 X40.7839 Y-1.0300
G01 X40.9149 Y-1.0750
G01 X41.0993 Y-1.0750
G01 X40.8041 Y-0.9735
G01 X40.4749 Y-0.8511
G01 X40.1488 Y-0.7207
G01 X39.8260 Y-0.5823
G01 X39.5067 Y-0.4361
G01 X39.1911 Y-0.2820
G01 X38.9849 Y-0.1750
G01 X39.1151 Y-0.1750
G01 X39.2181 Y-0.2284
G01 X39.5324 Y-0.3818
G01 X39.8503 Y-0.5275
G01 X40.1718 Y-0.6653
G01 X40.4965 Y-0.7951
G01 X40.8244 Y-0.9170
G01 X41.1551 Y-1.0308
G01 X41.2948 Y-1.0750
G01 X41.4934 Y-1.0750
G01 X41.1739 Y-0.9738
G01 X40.8446 Y-0.8605
G01 X40.5181 Y-0.7392
G01 X40.1948 Y-0.6099
G01 X39.8747 Y-0.4726
G01 X39.5580 Y-0.3276
G01 X39.2454 Y-0.1750
G01 X39.3822 Y-0.1750
G01 X39.5837 Y-0.2734
G01 X39.8990 Y-0.4178
G01 X40.2177 Y-0.5544
G01 X40.5397 Y-0.6832
G01 X40.8648 Y-0.8040
G01 X41.1927 Y-0.9168
G01 X41.5233 Y-1.0216
G01 X41.7077 Y-1.0750
G01 X41.9282 Y-1.0750
G01 X41.8724 Y-1.0603
G01 X41.5407 Y-0.9642
G01 X41.2115 Y-0.8599
G01 X40.8850 Y-0.7475
G01 X40.5613 Y-0.6272
G01 X40.2407 Y-0.4990
G01 X39.9233 Y-0.3629
G01 X39.6093 Y-0.2191
G01 X39.5190 Y-0.1750
G01 X39.6571 Y-0.1750
G01 X39.9476 Y-0.3081
G01 X40.2636 Y-0.4436
G01 X40.5829 Y-0.5712
G01 X40.9052 Y-0.6910
G01 X41.2304 Y-0.8029
G01 X41.5581 Y-0.9067
G01 X41.8884 Y-1.0025
G01 X42.1636 Y-1.0750
G01 X42.4170 Y-1.0750
G01 X42.2355 Y-1.0319
G01 X41.9044 Y-0.9447
G01 X41.5756 Y-0.8493
G01 X41.2492 Y-0.7459
G01 X40.9254 Y-0.6345
G01 X40.6045 Y-0.5152
G01 X40.2866 Y-0.3881
G01 X39.9719 Y-0.2532
G01 X39.8012 Y-0.1750
G01 X39.9453 Y-0.1750
G01 X39.9962 Y-0.1984
G01 X40.3096 Y-0.3327
G01 X40.6261 Y-0.4593
G01 X40.9456 Y-0.5780
G01 X41.2680 Y-0.6889
G01 X41.5930 Y-0.7919
G01 X41.9204 Y-0.8868
G01 X42.2500 Y-0.9737
G01 X42.5817 Y-1.0525
G01 X42.6882 Y-1.0750
G01 X42.9848 Y-1.0750
G01 X42.9269 Y-1.0643
G01 X42.5949 Y-0.9940
G01 X42.2646 Y-0.9155
G01 X41.9364 Y-0.8290
G01 X41.6104 Y-0.7345
G01 X41.2868 Y-0.6320
G01 X40.9659 Y-0.5216
G01 X40.6477 Y-0.4033
G01 X40.3325 Y-0.2773
G01 X40.0941 Y-0.1750
G01 X40.2463 Y-0.1750
G01 X40.3555 Y-0.2218
G01 X40.6693 Y-0.3473
G01 X40.9861 Y-0.4651
G01 X41.3056 Y-0.5750
G01 X41.6278 Y-0.6771
G01 X41.9524 Y-0.7712
G01 X42.2792 Y-0.8573
G01 X42.6080 Y-0.9354
G01 X42.9386 Y-1.0054
G01 X43.2709 Y-1.0673
G01 X43.3191 Y-1.0750
G01 X43.7122 Y-1.0750
G01 X43.6134 Y-1.0616
G01 X43.2811 Y-1.0082
G01 X42.9503 Y-0.9466
G01 X42.6212 Y-0.8769
G01 X42.2938 Y-0.7991
G01 X41.9684 Y-0.7134
G01 X41.6452 Y-0.6197
G01 X41.3245 Y-0.5180
G01 X41.0063 Y-0.4086
G01 X40.6909 Y-0.2913
G01 X40.4001 Y-0.1750
G01 X40.5616 Y-0.1750
G01 X40.7125 Y-0.2354
G01 X41.0265 Y-0.3521
G01 X41.3433 Y-0.4611
G01 X41.6627 Y-0.5622
G01 X41.9844 Y-0.6555
G01 X42.3084 Y-0.7409
G01 X42.6343 Y-0.8183
G01 X42.9621 Y-0.8877
G01 X43.2914 Y-0.9490
G01 X43.6222 Y-1.0023
G01 X43.9541 Y-1.0473
G01 X44.2038 Y-1.0750
G01 X44.9964 Y-1.0750
G01 X44.9582 Y-1.0736
G01 X44.6253 Y-1.0532
G01 X44.2930 Y-1.0246
G01 X43.9615 Y-0.9878
G01 X43.6310 Y-0.9429
G01 X43.3017 Y-0.8899
G01 X42.9738 Y-0.8289
G01 X42.6475 Y-0.7598
G01 X42.3229 Y-0.6827
G01 X42.0004 Y-0.5977
G01 X41.6801 Y-0.5048
G01 X41.3621 Y-0.4041
G01 X41.0467 Y-0.2956
G01 X40.7341 Y-0.1794
G01 X40.7232 Y-0.1750
G01 X40.8946 Y-0.1750
G01 X41.0669 Y-0.2391
G01 X41.3809 Y-0.3471
G01 X41.6975 Y-0.4474
G01 X42.0164 Y-0.5399
G01 X42.3375 Y-0.6245
G01 X42.6606 Y-0.7012
G01 X42.9855 Y-0.7700
G01 X43.3119 Y-0.8308
G01 X43.6398 Y-0.8836
G01 X43.9688 Y-0.9282
G01 X44.2989 Y-0.9648
G01 X44.6297 Y-0.9933
G01 X44.9612 Y-1.0137
G01 X45.2930 Y-1.0259
G01 X45.3202 Y-1.0263
G01 X45.4674 Y-0.9681
G01 X45.2945 Y-0.9659
G01 X44.9641 Y-0.9538
G01 X44.6341 Y-0.9335
G01 X44.3047 Y-0.9051
G01 X43.9762 Y-0.8687
G01 X43.6486 Y-0.8242
G01 X43.3222 Y-0.7717
G01 X42.9972 Y-0.7112
G01 X42.6737 Y-0.6427
G01 X42.3521 Y-0.5663
G01 X42.0324 Y-0.4821
G01 X41.7149 Y-0.3900
G01 X41.3997 Y-0.2901
G01 X41.0871 Y-0.1826
G01 X41.0668 Y-0.1750
G01 X41.2496 Y-0.1750
G01 X41.4186 Y-0.2332
G01 X41.7323 Y-0.3326
G01 X42.0484 Y-0.4242
G01 X42.3667 Y-0.5081
G01 X42.6869 Y-0.5842
G01 X43.0089 Y-0.6523
G01 X43.3324 Y-0.7126
G01 X43.6574 Y-0.7649
G01 X43.9835 Y-0.8092
G01 X44.3106 Y-0.8454
G01 X44.6385 Y-0.8737
G01 X44.9670 Y-0.8938
G01 X45.2959 Y-0.9060
G01 X45.5734 Y-0.9094
G01 X45.6587 Y-0.8496
G01 X45.6250 Y-0.8500
G01 X45.2974 Y-0.8460
G01 X44.9700 Y-0.8339
G01 X44.6430 Y-0.8138
G01 X44.3165 Y-0.7857
G01 X43.9909 Y-0.7496
G01 X43.6662 Y-0.7055
G01 X43.3427 Y-0.6535
G01 X43.0206 Y-0.5935
G01 X42.7000 Y-0.5256
G01 X42.3813 Y-0.4499
G01 X42.0644 Y-0.3664
G01 X41.7497 Y-0.2752
G01 X41.4340 Y-0.1750
G01 X41.6324 Y-0.1750
G01 X41.7672 Y-0.2177
G01 X42.0804 Y-0.3086
G01 X42.3958 Y-0.3917
G01 X42.7132 Y-0.4671
G01 X43.0323 Y-0.5346
G01 X43.3530 Y-0.5943
G01 X43.6750 Y-0.6462
G01 X43.9982 Y-0.6901
G01 X44.3224 Y-0.7260
G01 X44.6474 Y-0.7540
G01 X44.9729 Y-0.7740
G01 X45.2989 Y-0.7860
G01 X45.6250 Y-0.7900
G01 X45.7304 Y-0.7887
G01 X45.7910 Y-0.7280
G01 X45.6250 Y-0.7300
G01 X45.3004 Y-0.7260
G01 X44.9759 Y-0.7141
G01 X44.6518 Y-0.6942
G01 X44.3283 Y-0.6663
G01 X44.0055 Y-0.6305
G01 X43.6838 Y-0.5868
G01 X43.3632 Y-0.5352
G01 X43.0440 Y-0.4758
G01 X42.7263 Y-0.4085
G01 X42.4104 Y-0.3335
G01 X42.0964 Y-0.2508
G01 X41.8353 Y-0.1750
G00 Z1.0000
G00 X42.0507 Y-0.1750
G01 F50.00
G01 Z-0.0500
G01 F80.00
G01 X42.1124 Y-0.1929
G01 X42.4250 Y-0.2753
G01 X42.7395 Y-0.3500
G01 X43.0557 Y-0.4169
G01 X43.3735 Y-0.4761
G01 X43.6926 Y-0.5275
G01 X44.0129 Y-0.5710
G01 X44.3342 Y-0.6066
G01 X44.6562 Y-0.6343
G01 X44.9788 Y-0.6541
G01 X45.3018 Y-0.6660
G01 X45.6250 Y-0.6700
G01 X45.8428 Y-0.6673
G01 X45.8874 Y-0.6068
G01 X45.6250 Y-0.6100
G01 X45.3033 Y-0.6061
G01 X44.9818 Y-0.5942
G01 X44.6606 Y-0.5745
G01 X44.3400 Y-0.5469
G01 X44.0202 Y-0.5114
G01 X43.7014 Y-0.4681
G01 X43.3837 Y-0.4170
G01 X43.0674 Y-0.3581
G01 X42.7526 Y-0.2915
G01 X42.4396 Y-0.2171
G01 X42.2799 Y-0.1750
G01 X42.5221 Y-0.1750
G01 X42.7658 Y-0.2329
G01 X43.0791 Y-0.2992
G01 X43.3940 Y-0.3579
G01 X43.7102 Y-0.4088
G01 X44.0276 Y-0.4519
G01 X44.3459 Y-0.4872
G01 X44.6650 Y-0.5146
G01 X44.9847 Y-0.5343
G01 X45.3048 Y-0.5461
G01 X45.6250 Y-0.5500
G01 X45.9258 Y-0.5463
G01 X45.9592 Y-0.4855
G01 X45.9438 Y-0.4861
G01 X45.6250 Y-0.4900
G01 X45.3062 Y-0.4861
G01 X44.9876 Y-0.4744
G01 X44.6694 Y-0.4548
G01 X44.3518 Y-0.4274
G01 X44.0349 Y-0.3923
G01 X43.7190 Y-0.3494
G01 X43.4042 Y-0.2988
G01 X43.0908 Y-0.2404
G01 X42.7821 Y-0.1750
G01 X43.0717 Y-0.1750
G01 X43.1025 Y-0.1816
G01 X43.4145 Y-0.2396
G01 X43.7278 Y-0.2901
G01 X44.0423 Y-0.3328
G01 X44.3577 Y-0.3677
G01 X44.6738 Y-0.3950
G01 X44.9906 Y-0.4144
G01 X45.3077 Y-0.4261
G01 X45.6250 Y-0.4300
G01 X45.9424 Y-0.4261
G01 X45.9877 Y-0.4244
G01 X46.0116 Y-0.3635
G01 X45.9409 Y-0.3661
G01 X45.6250 Y-0.3700
G01 X45.3092 Y-0.3661
G01 X44.9935 Y-0.3545
G01 X44.6783 Y-0.3351
G01 X44.3636 Y-0.3080
G01 X44.0496 Y-0.2732
G01 X43.7366 Y-0.2307
G01 X43.4248 Y-0.1805
G01 X43.3953 Y-0.1750
G00 Z1.0000
G00 X43.7726 Y-0.1750
G01 F50.00
G01 Z-0.0500
G01 F80.00
G01 X44.0570 Y-0.2137
G01 X44.3694 Y-0.2483
G01 X44.6827 Y-0.2753
G01 X44.9965 Y-0.2946
G01 X45.3107 Y-0.3061
G01 X45.6250 Y-0.3100
G01 X45.9394 Y-0.3061
G01 X46.0315 Y-0.3027
G01 X46.0474 Y-0.2421
G01 X45.9379 Y-0.2462
G01 X45.6250 Y-0.2500
G01 X45.3121 Y-0.2462
G01 X44.9994 Y-0.2346
G01 X44.6871 Y-0.2155
G01 X44.3753 Y-0.1886
G01 X44.2530 Y-0.1750
G00 Z1.0000
G00 X45.0062 Y-0.1749
G01 F50.00
G01 Z-0.0500
G01 F80.00
G01 X45.3136 Y-0.1862
G01 X45.6250 Y-0.1900
G01 X45.9365 Y-0.1862
G01 X46.0596 Y-0.1816
G01 X46.0682 Y-0.1213
G01 X45.9350 Y-0.1262
G01 X45.6250 Y-0.1300
G01 X45.3151 Y-0.1262
G01 X45.1280 Y-0.1193
G00 Z1.0000
G00 X45.1641 Y-0.0606
G01 F50.00
G01 Z-0.0500
G01 F80.00
G01 X45.3166 Y-0.0662
G01 X45.6250 Y-0.0700
G01 X45.9335 Y-0.0662
G01 X46.0732 Y-0.0611
G01 X46.0750 Y-0.0010
G01 X45.9320 Y-0.0062
G01 X45.6250 Y-0.0100
G01 X45.3180 Y-0.0062
G01 X45.1750 Y-0.0010
G00 Z1.0000
G00 X45.1750 Y0.0591
G01 F50.00
G01 Z-0.0500
G01 F80.00
G01 X45.3195 Y0.0537
G01 X45.6250 Y0.0500
G01 X45.9306 Y0.0537
G01 X46.0750 Y0.0591
G01 X46.0750 Y0.1191
G01 X45.9291 Y0.1137
G01 X45.6250 Y0.1100
G01 X45.3210 Y0.1137
G01 X45.1750 Y0.1191
G01 X45.1750 Y0.1791
G01 X45.3224 Y0.1737
G01 X45.6250 Y0.1700
G01 X45.9276 Y0.1737
G01 X46.0750 Y0.1791
G01 X46.0750 Y0.2392
G01 X45.9262 Y0.2337
G01 X45.6250 Y0.2300
G01 X45.3239 Y0.2337
G01 X45.1750 Y0.2392
G01 X45.1750 Y0.2992
G01 X45.3254 Y0.2937
G01 X45.6250 Y0.2900
G01 X45.9247 Y0.2937
G01 X46.0750 Y0.2992
G01 X46.0750 Y0.3593
G01 X45.9232 Y0.3537
G01 X45.6250 Y0.3500
G01 X45.3269 Y0.3537
G01 X45.1750 Y0.3593
G01 X45.1750 Y0.4193
G01 X45.3283 Y0.4136
G01 X45.6250 Y0.4100
G01 X45.9217 Y0.4136
G01 X46.0750 Y0.4193
G01 X46.0750 Y0.4793
G01 X45.9203 Y0.4736
G01 X45.6250 Y0.4700
G01 X45.3298 Y0.4736
G01 X45.1750 Y0.4793
G01 X45.1750 Y0.5394
G01 X45.3313 Y0.5336
G01 X45.6250 Y0.5300
G01 X45.9188 Y0.5336
G01 X46.0750 Y0.5394
G01 X46.0750 Y0.5994
G01 X45.9173 Y0.5936
G01 X45.6250 Y0.5900
G01 X45.3328 Y0.5936
G01 X45.1750 Y0.5994
G01 X45.1750 Y0.6594
G01 X45.3342 Y0.6536
G01 X45.6250 Y0.6500
G01 X45.9159 Y0.6536
G01 X46.0750 Y0.6594
G01 X46.0750 Y0.7195
G01 X45.9144 Y0.7136
G01 X45.6250 Y0.7100
G01 X45.3357 Y0.7136
G01 X45.1750 Y0.7195
G01 X45.1750 Y0.7795
G01 X45.3372 Y0.7735
G01 X45.6250 Y0.7700
G01 X45.9129 Y0.7735
G01 X46.0750 Y0.7795
G01 X46.0750 Y0.8395
G01 X45.9114 Y0.8335
G01 X45.6250 Y0.8300
G01 X45.3386 Y0.8335
G01 X45.1750 Y0.8395
G01 X45.1750 Y0.8996
G01 X45.3401 Y0.8935
G01 X45.6250 Y0.8900
G01 X45.9100 Y0.8935
G01 X46.0750 Y0.8996
G01 X46.0750 Y0.9596
G01 X45.9085 Y0.9535
G01 X45.6250 Y0.9500
G01 X45.3416 Y0.9535
G01 X45.1750 Y0.9596
G01 X45.1750 Y1.0196
G01 X45.3431 Y1.0135
G01 X45.6250 Y1.0100
G01 X45.9070 Y1.0135
G01 X46.0750 Y1.0196
G01 X46.0750 Y1.0797
G01 X45.9055 Y1.0734
G01 X45.6250 Y1.0700
G01 X45.3445 Y1.0734
G01 X45.1750 Y1.0797
G01 X45.1750 Y1.1397
G01 X45.3460 Y1.1334
G01 X45.6250 Y1.1300
G01 X45.9041 Y1.1334
G01 X46.0750 Y1.1397
G01 X46.0750 Y1.1998
G01 X45.9026 Y1.1934
G01 X45.6250 Y1.1900
G01 X45.3475 Y1.1934
G01 X45.1750 Y1.1998
G01 X45.1750 Y1.2598
G01 X45.3489 Y1.2534
G01 X45.6250 Y1.2500
G01 X45.9011 Y1.2534
G01 X46.0750 Y1.2598
G01 X46.0750 Y1.3198
G01 X45.8997 Y1.3134
G01 X45.6250 Y1.3100
G01 X45.3504 Y1.3134
G01 X45.1750 Y1.3198
G01 X45.1750 Y1.3799
G01 X45.3519 Y1.3734
G01 X45.6250 Y1.3700
G01 X45.8982 Y1.3734
G01 X46.0750 Y1.3799
G01 X46.0750 Y1.4399
G01 X45.8967 Y1.4333
G01 X45.6250 Y1.4300
G01 X45.3534 Y1.4333
G01 X45.1750 Y1.4399
G01 X45.1750 Y1.4999
G01 X45.3548 Y1.4933
G01 X45.6250 Y1.4900
G01 X45.8952 Y1.4933
G01 X46.0750 Y1.4999
G01 X46.0750 Y1.5600
G01 X45.8938 Y1.5533
G01 X45.6250 Y1.5500
G01 X45.3563 Y1.5533
G01 X45.1750 Y1.5600
G01 X45.1750 Y1.6200
G01 X45.3578 Y1.6133
G01 X45.6250 Y1.6100
G01 X45.8923 Y1.6133
G01 X46.0750 Y1.6200
G01 X46.0750 Y1.6800
G01 X45.8908 Y1.6733
G01 X45.6250 Y1.6700
G01 X45.3593 Y1.6733
G01 X45.1750 Y1.6800
G01 X45.1750 Y1.7401
G01 X45.3607 Y1.7332
G01 X45.6250 Y1.7300
G01 X45.8893 Y1.7332
G01 X46.0750 Y1.7401
G01 X46.0750 Y1.8001
G01 X45.8879 Y1.7932
G01 X45.6250 Y1.7900
G01 X45.3622 Y1.7932
G01 X45.1750 Y1.8001
G01 X45.1750 Y1.8602
G01 X45.3637 Y1.8532
G01 X45.6250 Y1.8500
G01 X45.8864 Y1.8532
G01 X46.0750 Y1.8602
G01 X46.0750 Y1.9202
G01 X45.8849 Y1.9132
G01 X45.6250 Y1.9100
G01 X45.3651 Y1.9132
G01 X45.1750 Y1.9202
G01 X45.1750 Y1.9802
G01 X45.3666 Y1.9732
G01 X45.6250 Y1.9700
G01 X45.8835 Y1.9732
G01 X46.0750 Y1.9802
G01 X46.0750 Y2.0403
G01 X45.8820 Y2.0332
G01 X45.6250 Y2.0300
G01 X45.3681 Y2.0332
G01 X45.1750 Y2.0403
G01 X45.1750 Y2.1003
G01 X45.3696 Y2.0931
G01 X45.6250 Y2.0900
G01 X45.8805 Y2.0931
G01 X46.0750 Y2.1003
G01 X46.0750 Y2.1603
G01 X45.8790 Y2.1531
G01 X45.6250 Y2.1500
G01 X45.3710 Y2.1531
G01 X45.1750 Y2.1603
G01 X45.1750 Y2.2204
G01 X45.3725 Y2.2131
G01 X45.6250 Y2.2100
G01 X45.8776 Y2.2131
G01 X46.0750 Y2.2204
G01 X46.0750 Y2.2804
G01 X45.8761 Y2.2731
G01 X45.6250 Y2.2700
G01 X45.3740 Y2.2731
G01 X45.1750 Y2.2804
G01 X45.1750 Y2.3404
G01 X45.3755 Y2.3331
G01 X45.6250 Y2.3300
G01 X45.8746 Y2.3331
G01 X46.0750 Y2.3404
G01 X46.0750 Y2.4005
G01 X45.8731 Y2.3930
G01 X45.6250 Y2.3900
G01 X45.3769 Y2.3930
G01 X45.1750 Y2.4005
G01 X45.1750 Y2.4605
G01 X45.3784 Y2.4530
G01 X45.6250 Y2.4500
G01 X45.8717 Y2.4530
G01 X46.0750 Y2.4605
G01 X46.0750 Y2.5206
G01 X45.8702 Y2.5130
G01 X45.6250 Y2.5100
G01 X45.3799 Y2.5130
G01 X45.1750 Y2.5206
G01 X45.1750 Y2.5806
G01 X45.3813 Y2.5730
G01 X45.6250 Y2.5700
G01 X45.8687 Y2.5730
G01 X46.0750 Y2.5806
G01 X46.0750 Y2.6406
G01 X45.8673 Y2.6330
G01 X45.6250 Y2.6300
G01 X45.3828 Y2.6330
G01 X45.1750 Y2.6406
G01 X45.1750 Y2.7007
G01 X45.3843 Y2.6930
G01 X45.6250 Y2.6900
G01 X45.8658 Y2.6930
G01 X46.0750 Y2.7007
G01 X46.0750 Y2.7607
G01 X45.8643 Y2.7529
G01 X45.6250 Y2.7500
G01 X45.3858 Y2.7529
G01 X45.1750 Y2.7607
G01 X45.1750 Y2.8207
G01 X45.3872 Y2.8129
G01 X45.6250 Y2.8100
G01 X45.8628 Y2.8129
G01 X46.0750 Y2.8207
G01 X46.0750 Y2.8808
G01 X45.8614 Y2.8729
G01 X45.6250 Y2.8700
G01 X45.3887 Y2.8729
G01 X45.1750 Y2.8808
G01 X45.1750 Y2.9408
G01 X45.3902 Y2.9329
G01 X45.6250 Y2.9300
G01 X45.8599 Y2.9329
G01 X46.0750 Y2.9408
G01 X46.0750 Y3.0008
G01 X45.8584 Y2.9929
G01 X45.6250 Y2.9900
G01 X45.3917 Y2.9929
G01 X45.1750 Y3.0008
G01 X45.1750 Y3.0609
G01 X45.3931 Y3.0528
G01 X45.6250 Y3.0500
G01 X45.8570 Y3.0528
G01 X46.0750 Y3.0609
G01 X46.0750 Y3.1209
G01 X45.8555 Y3.1128
G01 X45.6250 Y3.1100
G01 X45.3946 Y3.1128
G01 X45.1750 Y3.1209
G01 X45.1750 Y3.1810
G01 X45.3961 Y3.1728
G01 X45.6250 Y3.1700
G01 X45.8540 Y3.1728
G01 X46.0750 Y3.1810
G01 X46.0750 Y3.2410
G01 X45.8525 Y3.2328
G01 X45.6250 Y3.2300
G01 X45.3975 Y3.2328
G01 X45.1750 Y3.2410
G01 X45.1750 Y3.3010
G01 X45.3990 Y3.2928
G01 X45.6250 Y3.2900
G01 X45.8511 Y3.2928
G01 X46.0750 Y3.3010
G01 X46.0750 Y3.3611
G01 X45.8496 Y3.3528
G01 X45.6250 Y3.3500
G01 X45.4005 Y3.3528
G01 X45.1750 Y3.3611
G01 X45.1750 Y3.4212
G01 X45.4020 Y3.4127
G01 X45.6250 Y3.4100
G01 X45.8481 Y3.4127
G01 X46.0750 Y3.4212
G01 X46.0750 Y3.4813
G01 X45.8466 Y3.4727
G01 X45.6250 Y3.4700
G01 X45.4034 Y3.4727
G01 X45.1750 Y3.4813
G01 X45.1750 Y3.5414
G01 X45.4049 Y3.5327
G01 X45.6250 Y3.5300
G01 X45.8452 Y3.5327
G01 X46.0750 Y3.5414
G01 X46.0750 Y3.6015
G01 X46.0622 Y3.6007
G01 X45.8437 Y3.5927
G01 X45.6250 Y3.5900
G01 X45.4064 Y3.5927
G01 X45.1878 Y3.6007
G01 X45.1750 Y3.6015
G01 X45.1750 Y3.6616
G01 X45.1908 Y3.6607
G01 X45.4078 Y3.6527
G01 X45.6250 Y3.6500
G01 X45.8422 Y3.6527
G01 X46.0593 Y3.6607
G01 X46.0750 Y3.6616
G01 X46.0750 Y3.7217
G01 X46.0563 Y3.7206
G01 X45.8408 Y3.7126
G01 X45.6250 Y3.7100
G01 X45.4093 Y3.7126
G01 X45.1937 Y3.7206
G01 X45.1750 Y3.7217
G01 X45.1750 Y3.7818
G01 X45.1967 Y3.7805
G01 X45.4108 Y3.7726
G01 X45.6250 Y3.7700
G01 X45.8393 Y3.7726
G01 X46.0534 Y3.7805
G01 X46.0750 Y3.7818
G01 X46.0750 Y3.8420
G01 X46.0505 Y3.8404
G01 X45.8378 Y3.8326
G01 X45.6250 Y3.8300
G01 X45.4123 Y3.8326
G01 X45.1996 Y3.8404
G01 X45.1750 Y3.8420
G01 X45.1750 Y3.9021
G01 X45.2026 Y3.9004
G01 X45.4137 Y3.8926
G01 X45.6250 Y3.8900
G01 X45.8363 Y3.8926
G01 X46.0475 Y3.9004
G01 X46.0750 Y3.9021
G01 X46.0750 Y3.9622
G01 X46.0446 Y3.9603
G01 X45.8349 Y3.9526
G01 X45.6250 Y3.9500
G01 X45.4152 Y3.9526
G01 X45.2055 Y3.9603
G01 X45.1750 Y3.9622
G01 X45.1750 Y4.0223
G01 X45.2085 Y4.0202
G01 X45.4167 Y4.0126
G01 X45.6250 Y4.0100
G01 X45.8334 Y4.0126
G01 X46.0416 Y4.0202
G01 X46.0750 Y4.0223
G01 X46.0750 Y4.0824
G01 X46.0387 Y4.0802
G01 X45.8319 Y4.0725
G01 X45.6250 Y4.0700
G01 X45.4182 Y4.0725
G01 X45.2114 Y4.0802
G01 X45.1750 Y4.0824
G01 X45.1750 Y4.1425
G01 X45.2143 Y4.1401
G01 X45.4196 Y4.1325
G01 X45.6250 Y4.1300
G01 X45.8304 Y4.1325
G01 X46.0357 Y4.1401
G01 X46.0750 Y4.1425
G01 X46.0750 Y4.2026
G01 X46.0328 Y4.2000
G01 X45.8290 Y4.1925
G01 X45.6250 Y4.1900
G01 X45.4211 Y4.1925
G01 X45.2173 Y4.2000
G01 X45.1750 Y4.2026
G01 X45.1750 Y4.2627
G01 X45.2202 Y4.2599
G01 X45.4226 Y4.2525
G01 X45.6250 Y4.2500
G01 X45.8275 Y4.2525
G01 X46.0298 Y4.2599
G01 X46.0750 Y4.2627
G01 X46.0750 Y4.3228
G01 X46.0269 Y4.3199
G01 X45.8260 Y4.3125
G01 X45.6250 Y4.3100
G01 X45.4240 Y4.3125
G01 X45.2232 Y4.3199
G01 X45.1750 Y4.3228
G01 X45.1750 Y4.3829
G01 X45.2261 Y4.3798
G01 X45.4255 Y4.3724
G01 X45.6250 Y4.3700
G01 X45.8246 Y4.3724
G01 X46.0240 Y4.3798
G01 X46.0750 Y4.3829
G01 X46.0750 Y4.4430
G01 X46.0210 Y4.4397
G01 X45.8231 Y4.4324
G01 X45.6250 Y4.4300
G01 X45.4270 Y4.4324
G01 X45.2291 Y4.4397
G01 X45.1750 Y4.4430
G01 X45.1750 Y4.5031
G01 X45.2320 Y4.4996
G01 X45.4285 Y4.4924
G01 X45.6250 Y4.4900
G01 X45.8216 Y4.4924
G01 X46.0181 Y4.4996
G01 X46.0750 Y4.5031
G01 X46.0750 Y4.5633
G01 X46.0151 Y4.5596
G01 X45.8201 Y4.5524
G01 X45.6250 Y4.5500
G01 X45.4299 Y4.5524
G01 X45.2349 Y4.5596
G01 X45.1750 Y4.5633
G01 X45.1750 Y4.6234
G01 X45.2379 Y4.6195
G01 X45.4314 Y4.6124
G01 X45.6250 Y4.6100
G01 X45.8187 Y4.6124
G01 X46.0122 Y4.6195
G01 X46.0750 Y4.6234
G01 X46.0750 Y4.6835
G01 X46.0092 Y4.6794
G01 X45.8172 Y4.6724
G01 X45.6250 Y4.6700
G01 X45.4329 Y4.6724
G01 X45.2408 Y4.6794
G01 X45.1750 Y4.6835
G01 X45.1750 Y4.7436
G01 X45.2438 Y4.7394
G01 X45.4344 Y4.7323
G01 X45.6250 Y4.7300
G01 X45.8157 Y4.7323
G01 X46.0063 Y4.7394
G01 X46.0750 Y4.7436
G01 X46.0750 Y4.8037
G01 X46.0033 Y4.7993
G01 X45.8143 Y4.7923
G01 X45.6250 Y4.7900
G01 X45.4358 Y4.7923
G01 X45.2467 Y4.7993
G01 X45.1750 Y4.8037
G01 X45.1750 Y4.8638
G01 X45.2497 Y4.8592
G01 X45.4373 Y4.8523
G01 X45.6250 Y4.8500
G01 X45.8128 Y4.8523
G01 X46.0004 Y4.8592
G01 X46.0750 Y4.8638
G01 X46.0750 Y4.9239
G01 X45.9975 Y4.9191
G01 X45.8113 Y4.9123
G01 X45.6250 Y4.9100
G01 X45.4388 Y4.9123
G01 X45.2526 Y4.9191
G01 X45.1750 Y4.9239
G01 X45.1750 Y4.9840
G01 X45.2556 Y4.9791
G01 X45.4402 Y4.9723
G01 X45.6250 Y4.9700
G01 X45.8098 Y4.9723
G01 X45.9945 Y4.9791
G01 X46.0750 Y4.9840
G01 X46.0750 Y5.0441
G01 X45.9916 Y5.0390
G01 X45.8084 Y5.0322
G01 X45.6250 Y5.0300
G01 X45.4417 Y5.0322
G01 X45.2585 Y5.0390
G01 X45.1750 Y5.0441
G01 X45.1750 Y5.1042
G01 X45.2614 Y5.0989
G01 X45.4432 Y5.0922
G01 X45.6250 Y5.0900
G01 X45.8069 Y5.0922
G01 X45.9886 Y5.0989
G01 X46.0750 Y5.1042
G01 X46.0750 Y5.1643
G01 X45.9857 Y5.1589
G01 X45.8054 Y5.1522
G01 X45.6250 Y5.1500
G01 X45.4447 Y5.1522
G01 X45.2644 Y5.1589
G01 X45.1750 Y5.1643
G01 X45.1750 Y5.2245
G01 X45.2673 Y5.2188
G01 X45.4461 Y5.2122
G01 X45.6250 Y5.2100
G01 X45.8039 Y5.2122
G01 X45.9827 Y5.2188
G01 X46.0750 Y5.2245
G01 X46.0750 Y5.2846
G01 X45.9798 Y5.2787
G01 X45.8025 Y5.2722
G01 X45.6250 Y5.2700
G01 X45.4476 Y5.2722
G01 X45.2703 Y5.2787
G01 X45.1750 Y5.2846
G01 X45.1750 Y5.3447
G01 X45.2732 Y5.3386
G01 X45.4491 Y5.3322
G01 X45.6250 Y5.3300
G01 X45.8010 Y5.3322
G01 X45.9769 Y5.3386
G01 X46.0750 Y5.3447
G01 X46.0750 Y5.4048
G01 X45.9739 Y5.3986
G01 X45.7995 Y5.3921
G01 X45.6250 Y5.3900
G01 X45.4505 Y5.3921
G01 X45.2762 Y5.3986
G01 X45.1750 Y5.4048
G01 X45.1750 Y5.4649
G01 X45.2791 Y5.4585
G01 X45.4520 Y5.4521
G01 X45.6250 Y5.4500
G01 X45.7981 Y5.4521
G01 X45.9710 Y5.4585
G01 X46.0750 Y5.4649
G01 X46.0750 Y5.5250
G01 X45.9680 Y5.5184
G01 X45.7966 Y5.5121
G01 X45.6250 Y5.5100
G01 X45.4535 Y5.5121
G01 X45.2821 Y5.5184
G01 X45.1750 Y5.5250
G01 X45.1750 Y5.5851
G01 X45.2850 Y5.5783
G01 X45.4550 Y5.5721
G01 X45.6250 Y5.5700
G01 X45.7951 Y5.5721
G01 X45.9651 Y5.5783
G01 X46.0750 Y5.5851
G01 X46.0750 Y5.6452
G01 X45.9621 Y5.6383
G01 X45.7936 Y5.6321
G01 X45.6250 Y5.6300
G01 X45.4564 Y5.6321
G01 X45.2879 Y5.6383
G01 X45.1750 Y5.6452
G01 X45.1750 Y5.7053
G01 X45.2909 Y5.6982
G01 X45.4579 Y5.6921
G01 X45.6250 Y5.6900
G01 X45.7922 Y5.6921
G01 X45.9592 Y5.6982
G01 X46.0750 Y5.7053
G01 X46.0750 Y5.7654
G01 X45.9562 Y5.7581
G01 X45.7907 Y5.7520
G01 X45.6250 Y5.7500
G01 X45.4594 Y5.7520
G01 X45.2938 Y5.7581
G01 X45.1750 Y5.7654
G01 X45.1750 Y5.8255
G01 X45.2968 Y5.8181
G01 X45.4609 Y5.8120
G01 X45.6250 Y5.8100
G01 X45.7892 Y5.8120
G01 X45.9533 Y5.8181
G01 X46.0750 Y5.8255
G01 X46.0750 Y5.8856
G01 X45.9504 Y5.8780
G01 X45.7877 Y5.8720
G01 X45.6250 Y5.8700
G01 X45.4623 Y5.8720
G01 X45.2997 Y5.8780
G01 X45.1750 Y5.8856
G01 X45.1750 Y5.9458
G01 X45.3027 Y5.9379
G01 X45.4638 Y5.9320
G01 X45.6250 Y5.9300
G01 X45.7863 Y5.9320
G01 X45.9474 Y5.9379
G01 X46.0750 Y5.9458
G01 X46.0750 Y6.0059
G01 X45.9445 Y5.9978
G01 X45.7848 Y5.9920
G01 X45.6250 Y5.9900
G01 X45.4653 Y5.9920
G01 X45.3056 Y5.9978
G01 X45.1750 Y6.0059
G01 X45.1750 Y6.0660
G01 X45.3086 Y6.0578
G01 X45.4667 Y6.0519
G01 X45.6250 Y6.0500
G01 X45.7833 Y6.0519
G01 X45.9415 Y6.0578
G01 X46.0750 Y6.0660
G01 X46.0750 Y6.1261
G01 X45.9386 Y6.1177
G01 X45.7819 Y6.1119
G01 X45.6250 Y6.1100
G01 X45.4682 Y6.1119
G01 X45.3115 Y6.1177
G01 X45.1750 Y6.1261
G01 X45.1750 Y6.1862
G01 X45.3144 Y6.1776
G01 X45.4697 Y6.1719
G01 X45.6250 Y6.1700
G01 X45.7804 Y6.1719
G01 X45.9356 Y6.1776
G01 X46.0750 Y6.1862
G01 X46.0750 Y6.2463
G01 X45.9327 Y6.2376
G01 X45.7789 Y6.2319
G01 X45.6250 Y6.2300
G01 X45.4712 Y6.2319
G01 X45.3174 Y6.2376
G01 X45.1750 Y6.2463
G01 X45.1750 Y6.3064
G01 X45.3203 Y6.2975
G01 X45.4726 Y6.2919
G01 X45.6250 Y6.2900
G01 X45.7774 Y6.2919
G01 X45.9297 Y6.2975
G01 X46.0750 Y6.3064
G01 X46.0750 Y6.3665
G01 X45.9268 Y6.3574
G01 X45.7760 Y6.3519
G01 X45.6250 Y6.3500
G01 X45.4741 Y6.3519
G01 X45.3233 Y6.3574
G01 X45.1750 Y6.3665
G01 X45.1750 Y6.4267
G01 X45.3262 Y6.4173
G01 X45.4756 Y6.4118
G01 X45.6250 Y6.4100
G01 X45.7745 Y6.4118
G01 X45.9239 Y6.4173
G01 X46.0750 Y6.4267
G01 X46.0750 Y6.4869
G01 X45.9209 Y6.4773
G01 X45.7730 Y6.4718
G01 X45.6250 Y6.4700
G01 X45.4771 Y6.4718
G01 X45.3292 Y6.4773
G01 X45.1750 Y6.4869
G01 X45.1750 Y6.5471
G01 X45.3321 Y6.5372
G01 X45.4785 Y6.5318
G01 X45.6250 Y6.5300
G01 X45.7715 Y6.5318
G01 X45.9180 Y6.5372
G01 X46.0750 Y6.5471
G01 X46.0750 Y6.6073
G01 X46.0598 Y6.6060
G01 X45.9150 Y6.5971
G01 X45.7701 Y6.5918
G01 X45.6250 Y6.5900
G01 X45.4800 Y6.5918
G01 X45.3350 Y6.5971
G01 X45.1903 Y6.6060
G01 X45.1750 Y6.6073
G01 X45.1750 Y6.6675
G01 X45.1947 Y6.6659
G01 X45.3380 Y6.6570
G01 X45.4815 Y6.6518
G01 X45.6250 Y6.6500
G01 X45.7686 Y6.6518
G01 X45.9121 Y6.6570
G01 X46.0554 Y6.6659
G01 X46.0750 Y6.6675
G01 X46.0750 Y6.7278
G01 X46.0510 Y6.7257
G01 X45.9091 Y6.7170
G01 X45.7671 Y6.7117
G01 X45.6250 Y6.7100
G01 X45.4829 Y6.7117
G01 X45.3409 Y6.7170
G01 X45.1991 Y6.7257
G01 X45.1750 Y6.7278
G01 X45.1750 Y6.7880
G01 X45.2035 Y6.7855
G01 X45.3439 Y6.7769
G01 X45.4844 Y6.7717
G01 X45.6250 Y6.7700
G01 X45.7657 Y6.7717
G01 X45.9062 Y6.7769
G01 X46.0466 Y6.7855
G01 X46.0750 Y6.7880
G01 X46.0750 Y6.8482
G01 X46.0421 Y6.8454
G01 X45.9033 Y6.8368
G01 X45.7642 Y6.8317
G01 X45.6250 Y6.8300
G01 X45.4859 Y6.8317
G01 X45.3468 Y6.8368
G01 X45.2079 Y6.8454
G01 X45.1750 Y6.8482
G01 X45.1750 Y6.9084
G01 X45.2123 Y6.9052
G01 X45.3498 Y6.8968
G01 X45.4874 Y6.8917
G01 X45.6250 Y6.8900
G01 X45.7627 Y6.8917
G01 X45.9003 Y6.8968
G01 X46.0377 Y6.9052
G01 X46.0750 Y6.9084
G01 X46.0750 Y6.9686
G01 X46.0333 Y6.9650
G01 X45.8974 Y6.9567
G01 X45.7612 Y6.9517
G01 X45.6250 Y6.9500
G01 X45.4888 Y6.9517
G01 X45.3527 Y6.9567
G01 X45.2168 Y6.9650
G01 X45.1750 Y6.9686
G01 X45.1750 Y7.0288
G01 X45.2212 Y7.0249
G01 X45.3557 Y7.0166
G01 X45.4903 Y7.0117
G01 X45.6250 Y7.0100
G01 X45.7598 Y7.0117
G01 X45.8944 Y7.0166
G01 X46.0289 Y7.0249
G01 X46.0750 Y7.0288
G01 X46.0750 Y7.0891
G01 X46.0245 Y7.0847
G01 X45.8915 Y7.0765
G01 X45.7583 Y7.0716
G01 X45.6250 Y7.0700
G01 X45.4918 Y7.0716
G01 X45.3586 Y7.0765
G01 X45.2256 Y7.0847
G01 X45.1750 Y7.0891
G01 X45.1750 Y7.1493
G01 X45.2300 Y7.1446
G01 X45.3615 Y7.1365
G01 X45.4933 Y7.1316
G01 X45.6250 Y7.1300
G01 X45.7568 Y7.1316
G01 X45.8885 Y7.1365
G01 X46.0201 Y7.1446
G01 X46.0750 Y7.1493
G01 X46.0750 Y7.2095
G01 X46.0157 Y7.2044
G01 X45.8856 Y7.1964
G01 X45.7554 Y7.1916
G01 X45.6250 Y7.1900
G01 X45.4947 Y7.1916
G01 X45.3645 Y7.1964
G01 X45.2344 Y7.2044
G01 X45.1750 Y7.2095
G01 X45.1750 Y7.2697
G01 X45.2388 Y7.2642
G01 X45.3674 Y7.2563
G01 X45.4962 Y7.2516
G01 X45.6250 Y7.2500
G01 X45.7539 Y7.2516
G01 X45.8826 Y7.2563
G01 X46.0113 Y7.2642
G01 X46.0750 Y7.2697
G01 X46.0750 Y7.3299
G01 X46.0068 Y7.3241
G01 X45.8797 Y7.3163
G01 X45.7524 Y7.3116
G01 X45.6250 Y7.3100
G01 X45.4977 Y7.3116
G01 X45.3704 Y7.3163
G01 X45.2432 Y7.3241
G01 X45.1750 Y7.3299
G01 X45.1750 Y7.3902
G01 X45.2477 Y7.3839
G01 X45.3733 Y7.3762
G01 X45.4991 Y7.3715
G01 X45.6250 Y7.3700
G01 X45.7509 Y7.3715
G01 X45.8768 Y7.3762
G01 X46.0024 Y7.3839
G01 X46.0750 Y7.3902
G01 X46.0750 Y7.4504
G01 X45.9980 Y7.4437
G01 X45.8738 Y7.4361
G01 X45.7495 Y7.4315
G01 X45.6250 Y7.4300
G01 X45.5006 Y7.4315
G01 X45.3763 Y7.4361
G01 X45.2521 Y7.4437
G01 X45.1750 Y7.4504
G01 X45.1750 Y7.5106
G01 X45.2565 Y7.5036
G01 X45.3792 Y7.4960
G01 X45.5021 Y7.4915
G01 X45.6250 Y7.4900
G01 X45.7480 Y7.4915
G01 X45.8709 Y7.4960
G01 X45.9936 Y7.5036
G01 X46.0750 Y7.5106
G01 X46.0750 Y7.5708
G01 X45.9892 Y7.5634
G01 X45.8679 Y7.5560
G01 X45.7465 Y7.5515
G01 X45.6250 Y7.5500
G01 X45.5036 Y7.5515
G01 X45.3822 Y7.5560
G01 X45.2609 Y7.5634
G01 X45.1750 Y7.5708
G01 X45.1750 Y7.6310
G01 X45.2653 Y7.6232
G01 X45.3851 Y7.6159
G01 X45.5050 Y7.6115
G01 X45.6250 Y7.6100
G01 X45.7450 Y7.6115
G01 X45.8650 Y7.6159
G01 X45.9848 Y7.6232
G01 X46.0750 Y7.6310
G01 X46.0750 Y7.6912
G01 X45.9804 Y7.6831
G01 X45.8620 Y7.6758
G01 X45.7436 Y7.6715
G01 X45.6250 Y7.6700
G01 X45.5065 Y7.6715
G01 X45.3880 Y7.6758
G01 X45.2697 Y7.6831
G01 X45.1750 Y7.6912
G01 X45.1750 Y7.7515
G01 X45.2741 Y7.7429
G01 X45.3910 Y7.7357
G01 X45.5080 Y7.7314
G01 X45.6250 Y7.7300
G01 X45.7421 Y7.7314
G01 X45.8591 Y7.7357
G01 X45.9759 Y7.7429
G01 X46.0750 Y7.7515
G01 X46.0750 Y7.8117
G01 X45.9715 Y7.8028
G01 X45.8561 Y7.7957
G01 X45.7406 Y7.7914
G01 X45.6250 Y7.7900
G01 X45.5094 Y7.7914
G01 X45.3939 Y7.7957
G01 X45.2785 Y7.8028
G01 X45.1750 Y7.8117
G01 X45.1750 Y7.8719
G01 X45.2830 Y7.8626
G01 X45.3969 Y7.8556
G01 X45.5109 Y7.8514
G01 X45.6250 Y7.8500
G01 X45.7392 Y7.8514
G01 X45.8532 Y7.8556
G01 X45.9671 Y7.8626
G01 X46.0750 Y7.8719
G01 X46.0750 Y7.9321
G01 X45.9627 Y7.9224
G01 X45.8503 Y7.9155
G01 X45.7377 Y7.9114
G01 X45.6250 Y7.9100
G01 X45.5124 Y7.9114
G01 X45.3998 Y7.9155
G01 X45.2874 Y7.9224
G01 X45.1750 Y7.9321
G01 X45.1750 Y7.9925
G01 X45.2918 Y7.9823
G01 X45.4028 Y7.9755
G01 X45.5139 Y7.9714
G01 X45.6250 Y7.9700
G01 X45.7362 Y7.9714
G01 X45.8473 Y7.9755
G01 X45.9583 Y7.9823
G01 X46.0750 Y7.9925
G01 X46.0750 Y8.0528
G01 X46.0632 Y8.0515
G01 X45.9539 Y8.0421
G01 X45.8444 Y8.0354
G01 X45.7347 Y8.0313
G01 X45.6250 Y8.0300
G01 X45.5153 Y8.0313
G01 X45.4057 Y8.0354
G01 X45.2962 Y8.0421
G01 X45.1869 Y8.0515
G01 X45.1750 Y8.0528
G01 X45.1750 Y8.1132
G01 X45.1928 Y8.1112
G01 X45.3006 Y8.1019
G01 X45.4086 Y8.0953
G01 X45.5168 Y8.0913
G01 X45.6250 Y8.0900
G01 X45.7333 Y8.0913
G01 X45.8414 Y8.0953
G01 X45.9495 Y8.1019
G01 X46.0573 Y8.1112
G01 X46.0750 Y8.1132
G01 X46.0750 Y8.1736
G01 X46.0514 Y8.1709
G01 X45.9450 Y8.1618
G01 X45.8385 Y8.1552
G01 X45.7318 Y8.1513
G01 X45.6250 Y8.1500
G01 X45.5183 Y8.1513
G01 X45.4116 Y8.1552
G01 X45.3050 Y8.1618
G01 X45.1987 Y8.1709
G01 X45.1750 Y8.1736
G01 X45.1750 Y8.2339
G01 X45.2045 Y8.2307
G01 X45.3094 Y8.2216
G01 X45.4145 Y8.2152
G01 X45.5198 Y8.2113
G01 X45.6250 Y8.2100
G01 X45.7303 Y8.2113
G01 X45.8355 Y8.2152
G01 X45.9406 Y8.2216
G01 X46.0455 Y8.2307
G01 X46.0750 Y8.2339
G01 X46.0750 Y8.2943
G01 X46.0396 Y8.2904
G01 X45.9362 Y8.2815
G01 X45.8326 Y8.2751
G01 X45.7288 Y8.2713
G01 X45.6250 Y8.2700
G01 X45.5212 Y8.2713
G01 X45.4175 Y8.2751
G01 X45.3139 Y8.2815
G01 X45.2104 Y8.2904
G01 X45.1750 Y8.2943
G01 X45.1750 Y8.3547
G01 X45.2163 Y8.3501
G01 X45.3183 Y8.3413
G01 X45.4204 Y8.3350
G01 X45.5227 Y8.3313
G01 X45.6250 Y8.3300
G01 X45.7274 Y8.3313
G01 X45.8296 Y8.3350
G01 X45.9318 Y8.3413
G01 X46.0338 Y8.3501
G01 X46.0750 Y8.3547
G01 X46.0750 Y8.4150
G01 X46.0279 Y8.4098
G01 X45.9274 Y8.4011
G01 X45.8267 Y8.3950
G01 X45.7259 Y8.3912
G01 X45.6250 Y8.3900
G01 X45.5242 Y8.3912
G01 X45.4234 Y8.3950
G01 X45.3227 Y8.4011
G01 X45.2222 Y8.4098
G01 X45.1750 Y8.4150
G01 X45.1750 Y8.4754
G01 X45.2281 Y8.4695
G01 X45.3271 Y8.4610
G01 X45.4263 Y8.4549
G01 X45.5256 Y8.4512
G01 X45.6250 Y8.4500
G01 X45.7244 Y8.4512
G01 X45.8238 Y8.4549
G01 X45.9230 Y8.4610
G01 X46.0220 Y8.4695
G01 X46.0750 Y8.4754
G01 X46.0750 Y8.5357
G01 X46.0161 Y8.5292
G01 X45.9186 Y8.5208
G01 X45.8208 Y8.5148
G01 X45.7230 Y8.5112
G01 X45.6250 Y8.5100
G01 X45.5271 Y8.5112
G01 X45.4293 Y8.5148
G01 X45.3315 Y8.5208
G01 X45.2339 Y8.5292
G01 X45.1750 Y8.5357
G01 X45.1750 Y8.5961
G01 X45.2398 Y8.5889
G01 X45.3359 Y8.5806
G01 X45.4322 Y8.5747
G01 X45.5286 Y8.5712
G01 X45.6250 Y8.5700
G01 X45.7215 Y8.5712
G01 X45.8179 Y8.5747
G01 X45.9141 Y8.5806
G01 X46.0102 Y8.5889
G01 X46.0750 Y8.5961
G01 X46.0750 Y8.6565
G01 X46.0044 Y8.6486
G01 X45.9097 Y8.6405
G01 X45.8149 Y8.6347
G01 X45.7200 Y8.6312
G01 X45.6250 Y8.6300
G01 X45.5301 Y8.6312
G01 X45.4351 Y8.6347
G01 X45.3403 Y8.6405
G01 X45.2457 Y8.6486
G01 X45.1750 Y8.6565
G01 X45.1750 Y8.7168
G01 X45.2516 Y8.7083
G01 X45.3448 Y8.7003
G01 X45.4381 Y8.6946
G01 X45.5315 Y8.6911
G01 X45.6250 Y8.6900
G01 X45.7185 Y8.6911
G01 X45.8120 Y8.6946
G01 X45.9053 Y8.7003
G01 X45.9985 Y8.7083
G01 X46.0750 Y8.7168
G01 X46.0750 Y8.7772
G01 X45.9926 Y8.7681
G01 X45.9009 Y8.7602
G01 X45.8090 Y8.7545
G01 X45.7171 Y8.7511
G01 X45.6250 Y8.7500
G01 X45.5330 Y8.7511
G01 X45.4410 Y8.7545
G01 X45.3492 Y8.7602
G01 X45.2575 Y8.7681
G01 X45.1750 Y8.7772
G01 X45.1750 Y8.8376
G01 X45.2634 Y8.8278
G01 X45.3536 Y8.8200
G01 X45.4440 Y8.8144
G01 X45.5345 Y8.8111
G01 X45.6250 Y8.8100
G01 X45.7156 Y8.8111
G01 X45.8061 Y8.8144
G01 X45.8965 Y8.8200
G01 X45.9867 Y8.8278
G01 X46.0750 Y8.8376
G01 X46.0750 Y8.8981
G01 X45.9808 Y8.8875
G01 X45.8921 Y8.8798
G01 X45.8032 Y8.8744
G01 X45.7141 Y8.8711
G01 X45.6250 Y8.8700
G01 X45.5360 Y8.8711
G01 X45.4469 Y8.8744
G01 X45.3580 Y8.8798
G01 X45.2692 Y8.8875
G01 X45.1750 Y8.8981
G01 X45.1750 Y8.9586
G01 X45.1880 Y8.9568
G01 X45.2751 Y8.9472
G01 X45.3624 Y8.9397
G01 X45.4499 Y8.9343
G01 X45.5374 Y8.9311
G01 X45.6250 Y8.9300
G01 X45.7126 Y8.9311
G01 X45.8002 Y8.9343
G01 X45.8877 Y8.9397
G01 X45.9750 Y8.9472
G01 X46.0620 Y8.9568
G01 X46.0750 Y8.9586
G01 X46.0750 Y9.0192
G01 X46.0547 Y9.0164
G01 X45.9691 Y9.0069
G01 X45.8832 Y8.9995
G01 X45.7973 Y8.9942
G01 X45.7112 Y8.9911
G01 X45.6250 Y8.9900
G01 X45.5389 Y8.9911
G01 X45.4528 Y8.9942
G01 X45.3668 Y8.9995
G01 X45.2810 Y9.0069
G01 X45.1954 Y9.0164
G01 X45.1750 Y9.0192
G01 X45.1750 Y9.0797
G01 X45.2027 Y9.0759
G01 X45.2869 Y9.0666
G01 X45.3712 Y9.0593
G01 X45.4558 Y9.0542
G01 X45.5404 Y9.0510
G01 X45.6250 Y9.0500
G01 X45.7097 Y9.0510
G01 X45.7943 Y9.0542
G01 X45.8788 Y9.0593
G01 X45.9632 Y9.0666
G01 X46.0474 Y9.0759
G01 X46.0750 Y9.0797
G01 X46.0750 Y9.1403
G01 X46.0400 Y9.1355
G01 X45.9573 Y9.1263
G01 X45.8744 Y9.1192
G01 X45.7914 Y9.1141
G01 X45.7082 Y9.1110
G01 X45.6250 Y9.1100
G01 X45.5418 Y9.1110
G01 X45.4587 Y9.1141
G01 X45.3757 Y9.1192
G01 X45.2928 Y9.1263
G01 X45.2101 Y9.1355
G01 X45.1750 Y9.1403
G01 X45.1750 Y9.2008
G01 X45.2174 Y9.1950
G01 X45.2986 Y9.1860
G01 X45.3801 Y9.1790
G01 X45.4616 Y9.1740
G01 X45.5433 Y9.1710
G01 X45.6250 Y9.1700
G01 X45.7068 Y9.1710
G01 X45.7884 Y9.1740
G01 X45.8700 Y9.1790
G01 X45.9514 Y9.1860
G01 X46.0327 Y9.1950
G01 X46.0750 Y9.2008
G01 X46.0750 Y9.2613
G01 X46.0253 Y9.2546
G01 X45.9456 Y9.2457
G01 X45.8656 Y9.2389
G01 X45.7855 Y9.2339
G01 X45.7053 Y9.2310
G01 X45.6250 Y9.2300
G01 X45.5448 Y9.2310
G01 X45.4646 Y9.2339
G01 X45.3845 Y9.2389
G01 X45.3045 Y9.2457
G01 X45.2248 Y9.2546
G01 X45.1750 Y9.2613
G01 X45.1750 Y9.3219
G01 X45.2321 Y9.3141
G01 X45.3104 Y9.3055
G01 X45.3889 Y9.2987
G01 X45.4675 Y9.2939
G01 X45.5463 Y9.2910
G01 X45.6250 Y9.2900
G01 X45.7038 Y9.2910
G01 X45.7825 Y9.2939
G01 X45.8612 Y9.2987
G01 X45.9397 Y9.3055
G01 X46.0180 Y9.3141
G01 X46.0750 Y9.3219
G01 X46.0750 Y9.3824
G01 X46.0106 Y9.3737
G01 X45.9338 Y9.3652
G01 X45.8568 Y9.3585
G01 X45.7796 Y9.3538
G01 X45.7023 Y9.3509
G01 X45.6250 Y9.3500
G01 X45.5477 Y9.3509
G01 X45.4705 Y9.3538
G01 X45.3933 Y9.3585
G01 X45.3163 Y9.3652
G01 X45.2394 Y9.3737
G01 X45.1750 Y9.3824
G01 X45.1750 Y9.4430
G01 X45.2468 Y9.4332
G01 X45.3222 Y9.4249
G01 X45.3977 Y9.4184
G01 X45.4734 Y9.4137
G01 X45.5492 Y9.4109
G01 X45.6250 Y9.4100
G01 X45.7009 Y9.4109
G01 X45.7767 Y9.4137
G01 X45.8524 Y9.4184
G01 X45.9279 Y9.4249
G01 X46.0033 Y9.4332
G01 X46.0750 Y9.4430
G01 X46.0750 Y9.5037
G01 X45.9959 Y9.4928
G01 X45.9220 Y9.4846
G01 X45.8479 Y9.4782
G01 X45.7737 Y9.4736
G01 X45.6994 Y9.4709
G01 X45.6250 Y9.4700
G01 X45.5507 Y9.4709
G01 X45.4764 Y9.4736
G01 X45.4021 Y9.4782
G01 X45.3280 Y9.4846
G01 X45.2541 Y9.4928
G01 X45.1750 Y9.5037
G01 X45.1750 Y9.5644
G01 X45.1892 Y9.5621
G01 X45.2615 Y9.5523
G01 X45.3339 Y9.5443
G01 X45.4066 Y9.5380
G01 X45.4793 Y9.5336
G01 X45.5521 Y9.5309
G01 X45.6250 Y9.5300
G01 X45.6979 Y9.5309
G01 X45.7708 Y9.5336
G01 X45.8435 Y9.5380
G01 X45.9161 Y9.5443
G01 X45.9886 Y9.5523
G01 X46.0608 Y9.5621
G01 X46.0750 Y9.5644
G01 X46.0750 Y9.6252
G01 X46.0520 Y9.6215
G01 X45.9813 Y9.6119
G01 X45.9103 Y9.6040
G01 X45.8391 Y9.5979
G01 X45.7678 Y9.5935
G01 X45.6965 Y9.5909
G01 X45.6250 Y9.5900
G01 X45.5536 Y9.5909
G01 X45.4823 Y9.5935
G01 X45.4110 Y9.5979
G01 X45.3398 Y9.6040
G01 X45.2688 Y9.6119
G01 X45.1981 Y9.6215
G01 X45.1750 Y9.6252
G01 X45.1750 Y9.6860
G01 X45.2069 Y9.6808
G01 X45.2762 Y9.6714
G01 X45.3457 Y9.6637
G01 X45.4154 Y9.6577
G01 X45.4852 Y9.6534
G01 X45.5551 Y9.6509
G01 X45.6250 Y9.6500
G01 X45.6950 Y9.6509
G01 X45.7649 Y9.6534
G01 X45.8347 Y9.6577
G01 X45.9044 Y9.6637
G01 X45.9739 Y9.6714
G01 X46.0432 Y9.6808
G01 X46.0750 Y9.6860
G01 X46.0750 Y9.7467
G01 X46.0344 Y9.7402
G01 X45.9666 Y9.7310
G01 X45.8985 Y9.7234
G01 X45.8303 Y9.7176
G01 X45.7619 Y9.7134
G01 X45.6935 Y9.7108
G01 X45.6250 Y9.7100
G01 X45.5566 Y9.7108
G01 X45.4881 Y9.7134
G01 X45.4198 Y9.7176
G01 X45.3516 Y9.7234
G01 X45.2835 Y9.7310
G01 X45.2157 Y9.7402
G01 X45.1750 Y9.7467
G01 X45.1750 Y9.8075
G01 X45.2245 Y9.7995
G01 X45.2909 Y9.7905
G01 X45.3575 Y9.7831
G01 X45.4242 Y9.7774
G01 X45.4911 Y9.7733
G01 X45.5580 Y9.7708
G01 X45.6250 Y9.7700
G01 X45.6920 Y9.7708
G01 X45.7590 Y9.7733
G01 X45.8259 Y9.7774
G01 X45.8926 Y9.7831
G01 X45.9592 Y9.7905
G01 X46.0256 Y9.7995
G01 X46.0750 Y9.8075
G01 X46.0750 Y9.8683
G01 X46.0168 Y9.8589
G01 X45.9519 Y9.8501
G01 X45.8867 Y9.8429
G01 X45.8215 Y9.8372
G01 X45.7560 Y9.8332
G01 X45.6906 Y9.8308
G01 X45.6250 Y9.8300
G01 X45.5595 Y9.8308
G01 X45.4940 Y9.8332
G01 X45.4286 Y9.8372
G01 X45.3633 Y9.8429
G01 X45.2982 Y9.8501
G01 X45.2333 Y9.8589
G01 X45.1750 Y9.8683
G01 X45.1750 Y9.9291
G01 X45.2421 Y9.9182
G01 X45.3055 Y9.9096
G01 X45.3692 Y9.9026
G01 X45.4330 Y9.8971
G01 X45.4970 Y9.8931
G01 X45.5610 Y9.8908
G01 X45.6250 Y9.8900
G01 X45.6891 Y9.8908
G01 X45.7531 Y9.8931
G01 X45.8170 Y9.8971
G01 X45.8809 Y9.9026
G01 X45.9445 Y9.9096
G01 X46.0080 Y9.9182
G01 X46.0750 Y9.9291
G01 X46.0750 Y9.9902
G01 X46.0610 Y9.9875
G01 X45.9992 Y9.9776
G01 X45.9372 Y9.9692
G01 X45.8750 Y9.9623
G01 X45.8126 Y9.9569
G01 X45.7502 Y9.9531
G01 X45.6876 Y9.9508
G01 X45.6250 Y9.9500
G01 X45.5625 Y9.9508
G01 X45.4999 Y9.9531
G01 X45.4374 Y9.9569
G01 X45.3751 Y9.9623
G01 X45.3129 Y9.9692
G01 X45.2509 Y9.9776
G01 X45.1891 Y9.9875
G01 X45.1750 Y9.9902
G01 X45.1750 Y10.0512
G01 X45.1993 Y10.0467
G01 X45.2597 Y10.0370
G01 X45.3202 Y10.0287
G01 X45.3810 Y10.0220
G01 X45.4419 Y10.0167
G01 X45.5029 Y10.0130
G01 X45.5639 Y10.0107
G01 X45.6250 Y10.0100
G01 X45.6861 Y10.0107
G01 X45.7472 Y10.0130
G01 X45.8082 Y10.0167
G01 X45.8691 Y10.0220
G01 X45.9298 Y10.0287
G01 X45.9904 Y10.0370
G01 X46.0507 Y10.0467
G01 X46.0750 Y10.0512
G01 X46.0750 Y10.1122
G01 X46.0405 Y10.1058
G01 X45.9816 Y10.0963
G01 X45.9225 Y10.0883
G01 X45.8632 Y10.0817
G01 X45.8038 Y10.0766
G01 X45.7443 Y10.0729
G01 X45.6847 Y10.0707
G01 X45.6250 Y10.0700
G01 X45.5654 Y10.0707
G01 X45.5058 Y10.0729
G01 X45.4463 Y10.0766
G01 X45.3869 Y10.0817
G01 X45.3276 Y10.0883
G01 X45.2685 Y10.0963
G01 X45.2096 Y10.1058
G01 X45.1750 Y10.1122
G01 X45.1750 Y10.1732
G01 X45.2199 Y10.1649
G01 X45.2773 Y10.1557
G01 X45.3349 Y10.1478
G01 X45.3927 Y10.1414
G01 X45.4507 Y10.1364
G01 X45.5087 Y10.1329
G01 X45.5669 Y10.1307
G01 X45.6250 Y10.1300
G01 X45.6832 Y10.1307
G01 X45.7413 Y10.1329
G01 X45.7994 Y10.1364
G01 X45.8573 Y10.1414
G01 X45.9152 Y10.1478
G01 X45.9728 Y10.1557
G01 X46.0302 Y10.1649
G01 X46.0750 Y10.1732
G01 X46.0750 Y10.2343
G01 X46.0200 Y10.2240
G01 X45.9640 Y10.2150
G01 X45.9078 Y10.2074
G01 X45.8515 Y10.2011
G01 X45.7950 Y10.1963
G01 X45.7384 Y10.1928
G01 X45.6817 Y10.1907
G01 X45.6250 Y10.1900
G01 X45.5683 Y10.1907
G01 X45.5117 Y10.1928
G01 X45.4551 Y10.1963
G01 X45.3986 Y10.2011
G01 X45.3423 Y10.2074
G01 X45.2861 Y10.2150
G01 X45.2301 Y10.2240
G01 X45.1750 Y10.2343
G01 X45.1750 Y10.2956
G01 X45.2404 Y10.2831
G01 X45.2949 Y10.2744
G01 X45.3496 Y10.2669
G01 X45.4045 Y10.2608
G01 X45.4595 Y10.2561
G01 X45.5146 Y10.2527
G01 X45.5698 Y10.2507
G01 X45.6250 Y10.2500
G01 X45.6803 Y10.2507
G01 X45.7354 Y10.2527
G01 X45.7906 Y10.2561
G01 X45.8456 Y10.2608
G01 X45.9005 Y10.2669
G01 X45.9552 Y10.2744
G01 X46.0097 Y10.2831
G01 X46.0750 Y10.2956
G01 X46.0750 Y10.3569
G01 X46.0523 Y10.3521
G01 X45.9994 Y10.3422
G01 X45.9464 Y10.3337
G01 X45.8931 Y10.3265
G01 X45.8397 Y10.3205
G01 X45.7861 Y10.3159
G01 X45.7325 Y10.3126
G01 X45.6788 Y10.3107
G01 X45.6250 Y10.3100
G01 X45.5713 Y10.3107
G01 X45.5176 Y10.3126
G01 X45.4639 Y10.3159
G01 X45.4104 Y10.3205
G01 X45.3570 Y10.3265
G01 X45.3037 Y10.3337
G01 X45.2506 Y10.3422
G01 X45.1978 Y10.3521
G01 X45.1750 Y10.3569
G01 X45.1750 Y10.4182
G01 X45.2095 Y10.4109
G01 X45.2609 Y10.4014
G01 X45.3125 Y10.3931
G01 X45.3643 Y10.3860
G01 X45.4163 Y10.3803
G01 X45.4683 Y10.3758
G01 X45.5205 Y10.3726
G01 X45.5728 Y10.3706
G01 X45.6250 Y10.3700
G01 X45.6773 Y10.3706
G01 X45.7296 Y10.3726
G01 X45.7817 Y10.3758
G01 X45.8338 Y10.3803
G01 X45.8858 Y10.3860
G01 X45.9376 Y10.3931
G01 X45.9892 Y10.4014
G01 X46.0406 Y10.4109
G01 X46.0750 Y10.4182
G01 X46.0750 Y10.4795
G01 X46.0289 Y10.4698
G01 X45.9789 Y10.4605
G01 X45.9288 Y10.4524
G01 X45.8784 Y10.4456
G01 X45.8279 Y10.4400
G01 X45.7773 Y10.4356
G01 X45.7266 Y10.4325
G01 X45.6758 Y10.4306
G01 X45.6250 Y10.4300
G01 X45.5742 Y10.4306
G01 X45.5235 Y10.4325
G01 X45.4728 Y10.4356
G01 X45.4221 Y10.4400
G01 X45.3716 Y10.4456
G01 X45.3213 Y10.4524
G01 X45.2711 Y10.4605
G01 X45.2212 Y10.4698
G01 X45.1750 Y10.4795
G01 X45.1750 Y10.5411
G01 X45.2329 Y10.5286
G01 X45.2814 Y10.5196
G01 X45.3301 Y10.5118
G01 X45.3790 Y10.5051
G01 X45.4280 Y10.4997
G01 X45.4772 Y10.4954
G01 X45.5264 Y10.4924
G01 X45.5757 Y10.4906
G01 X45.6250 Y10.4900
G01 X45.6744 Y10.4906
G01 X45.7237 Y10.4924
G01 X45.7729 Y10.4954
G01 X45.8221 Y10.4997
G01 X45.8711 Y10.5051
G01 X45.9200 Y10.5118
G01 X45.9687 Y10.5196
G01 X46.0172 Y10.5286
G01 X46.0750 Y10.5411
G01 X46.0750 Y10.6028
G01 X46.0523 Y10.5974
G01 X46.0055 Y10.5875
G01 X45.9584 Y10.5787
G01 X45.9112 Y10.5711
G01 X45.8637 Y10.5647
G01 X45.8162 Y10.5594
G01 X45.7685 Y10.5553
G01 X45.7207 Y10.5523
G01 X45.6729 Y10.5506
G01 X45.6250 Y10.5500
G01 X45.5772 Y10.5506
G01 X45.5294 Y10.5523
G01 X45.4816 Y10.5553
G01 X45.4339 Y10.5594
G01 X45.3863 Y10.5647
G01 X45.3389 Y10.5711
G01 X45.2917 Y10.5787
G01 X45.2446 Y10.5875
G01 X45.1978 Y10.5974
G01 X45.1750 Y10.6028
G01 X45.1750 Y10.6644
G01 X45.2109 Y10.6559
G01 X45.2563 Y10.6463
G01 X45.3019 Y10.6378
G01 X45.3477 Y10.6305
G01 X45.3937 Y10.6242
G01 X45.4398 Y10.6191
G01 X45.4860 Y10.6151
G01 X45.5323 Y10.6123
G01 X45.5787 Y10.6106
G01 X45.6250 Y10.6100
G01 X45.6714 Y10.6106
G01 X45.7178 Y10.6123
G01 X45.7641 Y10.6151
G01 X45.8103 Y10.6191
G01 X45.8564 Y10.6242
G01 X45.9024 Y10.6305
G01 X45.9482 Y10.6378
G01 X45.9938 Y10.6463
G01 X46.0391 Y10.6559
G01 X46.0750 Y10.6644
G01 X46.0750 Y10.7263
G01 X46.0260 Y10.7145
G01 X45.9821 Y10.7052
G01 X45.9379 Y10.6969
G01 X45.8936 Y10.6898
G01 X45.8490 Y10.6838
G01 X45.8044 Y10.6788
G01 X45.7597 Y10.6750
G01 X45.7148 Y10.6722
G01 X45.6699 Y10.6706
G01 X45.6250 Y10.6700
G01 X45.5801 Y10.6706
G01 X45.5352 Y10.6722
G01 X45.4904 Y10.6750
G01 X45.4457 Y10.6788
G01 X45.4010 Y10.6838
G01 X45.3565 Y10.6898
G01 X45.3122 Y10.6969
G01 X45.2680 Y10.7052
G01 X45.2241 Y10.7145
G01 X45.1750 Y10.7263
G01 X45.1750 Y10.7883
G01 X45.1950 Y10.7830
G01 X45.2372 Y10.7730
G01 X45.2797 Y10.7640
G01 X45.3224 Y10.7561
G01 X45.3653 Y10.7492
G01 X45.4084 Y10.7433
G01 X45.4515 Y10.7385
G01 X45.4948 Y10.7348
G01 X45.5382 Y10.7321
G01 X45.5816 Y10.7305
G01 X45.6250 Y10.7300
G01 X45.6685 Y10.7305
G01 X45.7119 Y10.7321
G01 X45.7552 Y10.7348
G01 X45.7985 Y10.7385
G01 X45.8417 Y10.7433
G01 X45.8848 Y10.7492
G01 X45.9276 Y10.7561
G01 X45.9703 Y10.7640
G01 X46.0128 Y10.7730
G01 X46.0551 Y10.7830
G01 X46.0750 Y10.7883
G01 X46.0750 Y10.8503
G01 X46.0405 Y10.8412
G01 X45.9997 Y10.8315
G01 X45.9586 Y10.8229
G01 X45.9174 Y10.8152
G01 X45.8759 Y10.8085
G01 X45.8344 Y10.8029
G01 X45.7926 Y10.7982
G01 X45.7508 Y10.7946
G01 X45.7089 Y10.7921
G01 X45.6670 Y10.7905
G01 X45.6250 Y10.7900
G01 X45.5831 Y10.7905
G01 X45.5411 Y10.7921
G01 X45.4992 Y10.7946
G01 X45.4574 Y10.7982
G01 X45.4157 Y10.8029
G01 X45.3741 Y10.8085
G01 X45.3327 Y10.8152
G01 X45.2914 Y10.8229
G01 X45.2504 Y10.8315
G01 X45.2095 Y10.8412
G01 X45.1750 Y10.8503
G01 X45.1750 Y10.9126
G01 X45.2241 Y10.8994
G01 X45.2635 Y10.8901
G01 X45.3031 Y10.8817
G01 X45.3430 Y10.8743
G01 X45.3829 Y10.8679
G01 X45.4231 Y10.8624
G01 X45.4633 Y10.8579
G01 X45.5037 Y10.8545
G01 X45.5441 Y10.8520
G01 X45.5845 Y10.8505
G01 X45.6250 Y10.8500
G01 X45.6655 Y10.8505
G01 X45.7060 Y10.8520
G01 X45.7464 Y10.8545
G01 X45.7868 Y10.8579
G01 X45.8270 Y10.8624
G01 X45.8671 Y10.8679
G01 X45.9071 Y10.8743
G01 X45.9469 Y10.8817
G01 X45.9866 Y10.8901
G01 X46.0260 Y10.8994
G01 X46.0750 Y10.9126
G01 X46.0750 Y10.9751
G01 X46.0491 Y10.9676
G01 X46.0114 Y10.9577
G01 X45.9734 Y10.9486
G01 X45.9352 Y10.9406
G01 X45.8969 Y10.9334
G01 X45.8583 Y10.9272
G01 X45.8197 Y10.9220
G01 X45.7809 Y10.9177
G01 X45.7420 Y10.9143
G01 X45.7031 Y10.9119
G01 X45.6641 Y10.9105
G01 X45.6250 Y10.9100
G01 X45.5860 Y10.9105
G01 X45.5470 Y10.9119
G01 X45.5081 Y10.9143
G01 X45.4692 Y10.9177
G01 X45.4304 Y10.9220
G01 X45.3917 Y10.9272
G01 X45.3532 Y10.9334
G01 X45.3148 Y10.9406
G01 X45.2767 Y10.9486
G01 X45.2387 Y10.9577
G01 X45.2010 Y10.9676
G01 X45.1750 Y10.9751
G01 X45.1750 Y11.0377
G01 X45.2170 Y11.0254
G01 X45.2533 Y11.0159
G01 X45.2898 Y11.0072
G01 X45.3265 Y10.9994
G01 X45.3635 Y10.9925
G01 X45.4005 Y10.9866
G01 X45.4377 Y10.9815
G01 X45.4751 Y10.9774
G01 X45.5125 Y10.9741
G01 X45.5500 Y10.9718
G01 X45.5875 Y10.9705
G01 X45.6250 Y10.9700
G01 X45.6626 Y10.9705
G01 X45.7001 Y10.9718
G01 X45.7376 Y10.9741
G01 X45.7750 Y10.9774
G01 X45.8123 Y10.9815
G01 X45.8495 Y10.9866
G01 X45.8866 Y10.9925
G01 X45.9235 Y10.9994
G01 X45.9603 Y11.0072
G01 X45.9968 Y11.0159
G01 X46.0331 Y11.0254
G01 X46.0750 Y11.0377
G01 X46.0750 Y11.1007
G01 X46.0518 Y11.0933
G01 X46.0171 Y11.0832
G01 X45.9822 Y11.0741
G01 X45.9471 Y11.0657
G01 X45.9118 Y11.0582
G01 X45.8764 Y11.0516
G01 X45.8407 Y11.0459
G01 X45.8050 Y11.0411
G01 X45.7691 Y11.0371
G01 X45.7332 Y11.0340
G01 X45.6972 Y11.0318
G01 X45.6611 Y11.0304
G01 X45.6250 Y11.0300
G01 X45.5890 Y11.0304
G01 X45.5529 Y11.0318
G01 X45.5169 Y11.0340
G01 X45.4810 Y11.0371
G01 X45.4451 Y11.0411
G01 X45.4093 Y11.0459
G01 X45.3737 Y11.0516
G01 X45.3383 Y11.0582
G01 X45.3030 Y11.0657
G01 X45.2679 Y11.0741
G01 X45.2330 Y11.0832
G01 X45.1983 Y11.0933
G01 X45.1750 Y11.1007
G01 X45.1750 Y11.1638
G01 X45.2157 Y11.1507
G01 X45.2490 Y11.1411
G01 X45.2824 Y11.1323
G01 X45.3161 Y11.1243
G01 X45.3500 Y11.1171
G01 X45.3840 Y11.1108
G01 X45.4181 Y11.1053
G01 X45.4524 Y11.1006
G01 X45.4868 Y11.0968
G01 X45.5213 Y11.0938
G01 X45.5559 Y11.0917
G01 X45.5904 Y11.0904
G01 X45.6250 Y11.0900
G01 X45.6596 Y11.0904
G01 X45.6942 Y11.0917
G01 X45.7288 Y11.0938
G01 X45.7632 Y11.0968
G01 X45.7976 Y11.1006
G01 X45.8319 Y11.1053
G01 X45.8661 Y11.1108
G01 X45.9001 Y11.1171
G01 X45.9340 Y11.1243
G01 X45.9676 Y11.1323
G01 X46.0011 Y11.1411
G01 X46.0343 Y11.1507
G01 X46.0750 Y11.1638
G01 X46.0750 Y11.2273
G01 X46.0485 Y11.2181
G01 X46.0169 Y11.2081
G01 X45.9851 Y11.1989
G01 X45.9531 Y11.1905
G01 X45.9208 Y11.1828
G01 X45.8884 Y11.1759
G01 X45.8558 Y11.1699
G01 X45.8231 Y11.1646
G01 X45.7903 Y11.1602
G01 X45.7574 Y11.1565
G01 X45.7243 Y11.1537
G01 X45.6913 Y11.1516
G01 X45.6582 Y11.1504
G01 X45.6250 Y11.1500
G01 X45.5919 Y11.1504
G01 X45.5588 Y11.1516
G01 X45.5257 Y11.1537
G01 X45.4927 Y11.1565
G01 X45.4598 Y11.1602
G01 X45.4270 Y11.1646
G01 X45.3942 Y11.1699
G01 X45.3617 Y11.1759
G01 X45.3293 Y11.1828
G01 X45.2970 Y11.1905
G01 X45.2650 Y11.1989
G01 X45.2332 Y11.2081
G01 X45.2016 Y11.2181
G01 X45.1750 Y11.2273
G01 X45.1750 Y11.2911
G01 X45.1904 Y11.2854
G01 X45.2204 Y11.2751
G01 X45.2506 Y11.2655
G01 X45.2810 Y11.2567
G01 X45.3116 Y11.2487
G01 X45.3424 Y11.2413
G01 X45.3734 Y11.2348
G01 X45.4045 Y11.2290
G01 X45.4358 Y11.2240
G01 X45.4671 Y11.2197
G01 X45.4986 Y11.2162
G01 X45.5301 Y11.2135
G01 X45.5617 Y11.2116
G01 X45.5934 Y11.2104
G01 X45.6250 Y11.2100
G01 X45.6567 Y11.2104
G01 X45.6883 Y11.2116
G01 X45.7199 Y11.2135
G01 X45.7515 Y11.2162
G01 X45.7829 Y11.2197
G01 X45.8143 Y11.2240
G01 X45.8456 Y11.2290
G01 X45.8767 Y11.2348
G01 X45.9077 Y11.2413
G01 X45.9385 Y11.2487
G01 X45.9691 Y11.2567
G01 X45.9995 Y11.2655
G01 X46.0297 Y11.2751
G01 X46.0596 Y11.2854
G01 X46.0750 Y11.2911
G01 X46.0750 Y11.3553
G01 X46.0394 Y11.3419
G01 X46.0109 Y11.3321
G01 X45.9821 Y11.3230
G01 X45.9531 Y11.3146
G01 X45.9239 Y11.3069
G01 X45.8945 Y11.2999
G01 X45.8650 Y11.2936
G01 X45.8353 Y11.2881
G01 X45.8055 Y11.2833
G01 X45.7756 Y11.2793
G01 X45.7456 Y11.2759
G01 X45.7155 Y11.2733
G01 X45.6854 Y11.2715
G01 X45.6552 Y11.2704
G01 X45.6250 Y11.2700
G01 X45.5949 Y11.2704
G01 X45.5647 Y11.2715
G01 X45.5346 Y11.2733
G01 X45.5045 Y11.2759
G01 X45.4745 Y11.2793
G01 X45.4446 Y11.2833
G01 X45.4148 Y11.2881
G01 X45.3851 Y11.2936
G01 X45.3555 Y11.2999
G01 X45.3262 Y11.3069
G01 X45.2970 Y11.3146
G01 X45.2680 Y11.3230
G01 X45.2392 Y11.3321
G01 X45.2107 Y11.3419
G01 X45.1750 Y11.3553
G01 X45.1750 Y11.4200
G01 X45.2040 Y11.4084
G01 X45.2309 Y11.3984
G01 X45.2580 Y11.3891
G01 X45.2854 Y11.3804
G01 X45.3130 Y11.3724
G01 X45.3408 Y11.3651
G01 X45.3687 Y11.3584
G01 X45.3968 Y11.3525
G01 X45.4250 Y11.3472
G01 X45.4534 Y11.3427
G01 X45.4818 Y11.3388
G01 X45.5104 Y11.3356
G01 X45.5390 Y11.3332
G01 X45.5676 Y11.3314
G01 X45.5963 Y11.3304
G01 X45.6250 Y11.3300
G01 X45.6538 Y11.3304
G01 X45.6824 Y11.3314
G01 X45.7111 Y11.3332
G01 X45.7397 Y11.3356
G01 X45.7683 Y11.3388
G01 X45.7967 Y11.3427
G01 X45.8251 Y11.3472
G01 X45.8533 Y11.3525
G01 X45.8814 Y11.3584
G01 X45.9093 Y11.3651
G01 X45.9371 Y11.3724
G01 X45.9647 Y11.3804
G01 X45.9920 Y11.3891
G01 X46.0192 Y11.3984
G01 X46.0461 Y11.4084
G01 X46.0750 Y11.4200
G01 X46.0750 Y11.4853
G01 X46.0498 Y11.4745
G01 X46.0245 Y11.4644
G01 X45.9990 Y11.4549
G01 X45.9732 Y11.4460
G01 X45.9473 Y11.4378
G01 X45.9211 Y11.4302
G01 X45.8947 Y11.4233
G01 X45.8682 Y11.4170
G01 X45.8416 Y11.4113
G01 X45.8148 Y11.4063
G01 X45.7879 Y11.4020
G01 X45.7609 Y11.3983
G01 X45.7338 Y11.3953
G01 X45.7067 Y11.3930
G01 X45.6795 Y11.3913
G01 X45.6523 Y11.3903
G01 X45.6250 Y11.3900
G01 X45.5978 Y11.3903
G01 X45.5706 Y11.3913
G01 X45.5434 Y11.3930
G01 X45.5162 Y11.3953
G01 X45.4892 Y11.3983
G01 X45.4622 Y11.4020
G01 X45.4353 Y11.4063
G01 X45.4085 Y11.4113
G01 X45.3818 Y11.4170
G01 X45.3553 Y11.4233
G01 X45.3290 Y11.4302
G01 X45.3028 Y11.4378
G01 X45.2769 Y11.4460
G01 X45.2511 Y11.4549
G01 X45.2256 Y11.4644
G01 X45.2003 Y11.4745
G01 X45.1750 Y11.4853
G01 X45.1750 Y11.5513
G01 X45.1995 Y11.5401
G01 X45.2232 Y11.5299
G01 X45.2471 Y11.5204
G01 X45.2713 Y11.5114
G01 X45.2957 Y11.5030
G01 X45.3202 Y11.4952
G01 X45.3450 Y11.4880
G01 X45.3699 Y11.4815
G01 X45.3950 Y11.4755
G01 X45.4202 Y11.4702
G01 X45.4455 Y11.4655
G01 X45.4710 Y11.4614
G01 X45.4965 Y11.4579
G01 X45.5221 Y11.4551
G01 X45.5478 Y11.4528
G01 X45.5735 Y11.4513
G01 X45.5993 Y11.4503
G01 X45.6250 Y11.4500
G01 X45.6508 Y11.4503
G01 X45.6766 Y11.4513
G01 X45.7023 Y11.4528
G01 X45.7280 Y11.4551
G01 X45.7536 Y11.4579
G01 X45.7791 Y11.4614
G01 X45.8045 Y11.4655
G01 X45.8299 Y11.4702
G01 X45.8551 Y11.4755
G01 X45.8802 Y11.4815
G01 X45.9051 Y11.4880
G01 X45.9298 Y11.4952
G01 X45.9544 Y11.5030
G01 X45.9788 Y11.5114
G01 X46.0029 Y11.5204
G01 X46.0269 Y11.5299
G01 X46.0505 Y11.5401
G01 X46.0750 Y11.5513
G01 X46.0750 Y11.6182
G01 X46.0483 Y11.6051
G01 X46.0262 Y11.5949
G01 X46.0039 Y11.5854
G01 X45.9813 Y11.5763
G01 X45.9586 Y11.5679
G01 X45.9356 Y11.5600
G01 X45.9124 Y11.5526
G01 X45.8891 Y11.5459
G01 X45.8656 Y11.5397
G01 X45.8419 Y11.5341
G01 X45.8182 Y11.5290
G01 X45.7943 Y11.5246
G01 X45.7703 Y11.5207
G01 X45.7462 Y11.5174
G01 X45.7221 Y11.5148
G01 X45.6979 Y11.5127
G01 X45.6736 Y11.5112
G01 X45.6493 Y11.5103
G01 X45.6250 Y11.5100
G01 X45.6007 Y11.5103
G01 X45.5765 Y11.5112
G01 X45.5522 Y11.5127
G01 X45.5280 Y11.5148
G01 X45.5039 Y11.5174
G01 X45.4798 Y11.5207
G01 X45.4558 Y11.5246
G01 X45.4319 Y11.5290
G01 X45.4081 Y11.5341
G01 X45.3845 Y11.5397
G01 X45.3610 Y11.5459
G01 X45.3377 Y11.5526
G01 X45.3145 Y11.5600
G01 X45.2915 Y11.5679
G01 X45.2687 Y11.5763
G01 X45.2462 Y11.5854
G01 X45.2238 Y11.5949
G01 X45.2018 Y11.6051
G01 X45.1750 Y11.6182
G01 X45.1750 Y11.6862
G01 X45.2069 Y11.6693
G01 X45.2274 Y11.6593
G01 X45.2482 Y11.6498
G01 X45.2691 Y11.6408
G01 X45.2903 Y11.6323
G01 X45.3117 Y11.6244
G01 X45.3333 Y11.6169
G01 X45.3551 Y11.6100
G01 X45.3770 Y11.6037
G01 X45.3991 Y11.5979
G01 X45.4213 Y11.5926
G01 X45.4436 Y11.5879
G01 X45.4660 Y11.5837
G01 X45.4886 Y11.5801
G01 X45.5112 Y11.5770
G01 X45.5339 Y11.5745
G01 X45.5566 Y11.5725
G01 X45.5794 Y11.5711
G01 X45.6022 Y11.5703
G01 X45.6250 Y11.5700
G01 X45.6479 Y11.5703
G01 X45.6707 Y11.5711
G01 X45.6935 Y11.5725
G01 X45.7162 Y11.5745
G01 X45.7389 Y11.5770
G01 X45.7615 Y11.5801
G01 X45.7840 Y11.5837
G01 X45.8065 Y11.5879
G01 X45.8288 Y11.5926
G01 X45.8510 Y11.5979
G01 X45.8731 Y11.6037
G01 X45.8950 Y11.6100
G01 X45.9168 Y11.6169
G01 X45.9383 Y11.6244
G01 X45.9597 Y11.6323
G01 X45.9809 Y11.6408
G01 X46.0019 Y11.6498
G01 X46.0227 Y11.6593
G01 X46.0432 Y11.6693
G01 X46.0750 Y11.6862
G01 X46.0750 Y11.7555
G01 X46.0539 Y11.7430
G01 X46.0352 Y11.7327
G01 X46.0162 Y11.7229
G01 X45.9970 Y11.7135
G01 X45.9776 Y11.7046
G01 X45.9580 Y11.6962
G01 X45.9381 Y11.6883
G01 X45.9181 Y11.6809
G01 X45.8979 Y11.6739
G01 X45.8776 Y11.6675
G01 X45.8571 Y11.6615
G01 X45.8364 Y11.6561
G01 X45.8157 Y11.6511
G01 X45.7948 Y11.6467
G01 X45.7738 Y11.6428
G01 X45.7527 Y11.6394
G01 X45.7315 Y11.6365
G01 X45.7103 Y11.6342
G01 X45.6890 Y11.6324
G01 X45.6677 Y11.6310
G01 X45.6464 Y11.6303
G01 X45.6250 Y11.6300
G01 X45.6037 Y11.6303
G01 X45.5823 Y11.6310
G01 X45.5610 Y11.6324
G01 X45.5398 Y11.6342
G01 X45.5185 Y11.6365
G01 X45.4974 Y11.6394
G01 X45.4763 Y11.6428
G01 X45.4553 Y11.6467
G01 X45.4344 Y11.6511
G01 X45.4136 Y11.6561
G01 X45.3930 Y11.6615
G01 X45.3725 Y11.6675
G01 X45.3521 Y11.6739
G01 X45.3319 Y11.6809
G01 X45.3119 Y11.6883
G01 X45.2921 Y11.6962
G01 X45.2725 Y11.7046
G01 X45.2531 Y11.7135
G01 X45.2339 Y11.7229
G01 X45.2149 Y11.7327
G01 X45.1962 Y11.7430
G01 X45.1750 Y11.7555
G01 X45.1750 Y11.8265
G01 X45.2086 Y11.8052
G01 X45.2432 Y11.7856
G01 X45.2609 Y11.7765
G01 X45.2968 Y11.7595
G01 X45.3335 Y11.7443
G01 X45.3710 Y11.7309
G01 X45.3899 Y11.7249
G01 X45.4282 Y11.7143
G01 X45.4476 Y11.7097
G01 X45.4866 Y11.7019
G01 X45.5062 Y11.6988
G01 X45.5456 Y11.6939
G01 X45.5853 Y11.6910
G01 X45.6250 Y11.6900
G01 X45.6449 Y11.6902
G01 X45.6846 Y11.6922
G01 X45.7044 Y11.6939
G01 X45.7439 Y11.6988
G01 X45.7831 Y11.7056
G01 X45.8025 Y11.7097
G01 X45.8411 Y11.7193
G01 X45.8791 Y11.7309
G01 X45.9166 Y11.7443
G01 X45.9350 Y11.7517
G01 X45.9714 Y11.7678
G01 X46.0069 Y11.7856
G01 X46.0243 Y11.7952
G01 X46.0415 Y11.8052
G01 X46.0750 Y11.8265
G01 X46.0750 Y11.9000
G01 X46.0569 Y11.8868
G01 X46.0263 Y11.8664
G01 X45.9947 Y11.8474
G01 X45.9622 Y11.8301
G01 X45.9290 Y11.8143
G01 X45.8950 Y11.8003
G01 X45.8777 Y11.7938
G01 X45.8428 Y11.7823
G01 X45.8073 Y11.7725
G01 X45.7714 Y11.7644
G01 X45.7351 Y11.7581
G01 X45.6986 Y11.7536
G01 X45.6802 Y11.7520
G01 X45.6434 Y11.7502
G01 X45.6066 Y11.7502
G01 X45.5699 Y11.7520
G01 X45.5332 Y11.7556
G01 X45.5150 Y11.7581
G01 X45.4787 Y11.7644
G01 X45.4607 Y11.7682
G01 X45.4428 Y11.7725
G01 X45.4073 Y11.7823
G01 X45.3898 Y11.7879
G01 X45.3551 Y11.8003
G01 X45.3380 Y11.8071
G01 X45.3044 Y11.8220
G01 X45.2715 Y11.8386
G01 X45.2554 Y11.8474
G01 X45.2238 Y11.8664
G01 X45.2084 Y11.8764
G01 X45.1932 Y11.8868
G01 X45.1750 Y11.9000
G01 X45.1750 Y11.9769
G01 X45.2005 Y11.9560
G01 X45.2277 Y11.9359
G01 X45.2559 Y11.9171
G01 X45.2849 Y11.8996
G01 X45.3148 Y11.8837
G01 X45.3454 Y11.8692
G01 X45.3767 Y11.8562
G01 X45.4086 Y11.8448
G01 X45.4410 Y11.8350
G01 X45.4739 Y11.8268
G01 X45.5071 Y11.8202
G01 X45.5406 Y11.8152
G01 X45.5743 Y11.8119
G01 X45.6081 Y11.8102
G01 X45.6420 Y11.8102
G01 X45.6758 Y11.8119
G01 X45.7095 Y11.8152
G01 X45.7430 Y11.8202
G01 X45.7596 Y11.8233
G01 X45.7927 Y11.8307
G01 X45.8253 Y11.8397
G01 X45.8415 Y11.8448
G01 X45.8734 Y11.8562
G01 X45.8891 Y11.8625
G01 X45.9201 Y11.8762
G01 X45.9353 Y11.8837
G01 X45.9651 Y11.8996
G01 X45.9798 Y11.9082
G01 X46.0084 Y11.9263
G01 X46.0223 Y11.9359
G01 X46.0495 Y11.9560
G01 X46.0750 Y11.9769
G01 X46.0750 Y12.0592
G01 X46.0594 Y12.0437
G01 X46.0481 Y12.0332
G01 X46.0247 Y12.0130
G01 X46.0003 Y11.9940
G01 X45.9750 Y11.9762
G01 X45.9621 Y11.9677
G01 X45.9356 Y11.9518
G01 X45.9083 Y11.9373
G01 X45.8944 Y11.9305
G01 X45.8661 Y11.9180
G01 X45.8373 Y11.9068
G01 X45.8079 Y11.8971
G01 X45.7781 Y11.8889
G01 X45.7631 Y11.8853
G01 X45.7327 Y11.8793
G01 X45.7022 Y11.8747
G01 X45.6868 Y11.8730
G01 X45.6560 Y11.8708
G01 X45.6250 Y11.8700
G01 X45.5941 Y11.8708
G01 X45.5633 Y11.8730
G01 X45.5326 Y11.8768
G01 X45.5021 Y11.8821
G01 X45.4720 Y11.8889
G01 X45.4570 Y11.8928
G01 X45.4422 Y11.8971
G01 X45.4128 Y11.9068
G01 X45.3839 Y11.9180
G01 X45.3557 Y11.9305
G01 X45.3418 Y11.9373
G01 X45.3145 Y11.9518
G01 X45.2880 Y11.9677
G01 X45.2623 Y11.9849
G01 X45.2374 Y12.0033
G01 X45.2135 Y12.0230
G01 X45.1906 Y12.0437
G01 X45.1750 Y12.0592
G01 X45.1750 Y12.1502
G01 X45.1934 Y12.1277
G01 X45.2027 Y12.1172
G01 X45.2220 Y12.0969
G01 X45.2422 Y12.0777
G01 X45.2634 Y12.0594
G01 X45.2744 Y12.0506
G01 X45.2855 Y12.0422
G01 X45.3084 Y12.0261
G01 X45.3320 Y12.0111
G01 X45.3563 Y11.9973
G01 X45.3813 Y11.9847
G01 X45.3940 Y11.9789
G01 X45.4199 Y11.9682
G01 X45.4330 Y11.9633
G01 X45.4596 Y11.9545
G01 X45.4730 Y11.9506
G01 X45.5001 Y11.9438
G01 X45.5276 Y11.9384
G01 X45.5414 Y11.9362
G01 X45.5692 Y11.9327
G01 X45.5831 Y11.9315
G01 X45.6110 Y11.9302
G01 X45.6390 Y11.9302
G01 X45.6670 Y11.9315
G01 X45.6809 Y11.9327
G01 X45.7087 Y11.9362
G01 X45.7362 Y11.9410
G01 X45.7499 Y11.9438
G01 X45.7771 Y11.9506
G01 X45.8038 Y11.9588
G01 X45.8302 Y11.9682
G01 X45.8560 Y11.9789
G01 X45.8813 Y11.9909
G01 X45.9060 Y12.0041
G01 X45.9300 Y12.0184
G01 X45.9532 Y12.0340
G01 X45.9757 Y12.0506
G01 X45.9973 Y12.0684
G01 X46.0181 Y12.0872
G01 X46.0379 Y12.1070
G01 X46.0566 Y12.1277
G01 X46.0750 Y12.1502
G01 X46.0750 Y12.2600
G01 X46.0688 Y12.2486
G01 X46.0559 Y12.2272
G01 X46.0491 Y12.2167
G01 X46.0347 Y12.1962
G01 X46.0271 Y12.1862
G01 X46.0112 Y12.1669
G01 X45.9944 Y12.1483
G01 X45.9857 Y12.1394
G01 X45.9675 Y12.1221
G01 X45.9582 Y12.1138
G01 X45.9388 Y12.0979
G01 X45.9288 Y12.0904
G01 X45.9084 Y12.0760
G01 X45.8979 Y12.0691
G01 X45.8764 Y12.0563
G01 X45.8654 Y12.0502
G01 X45.8431 Y12.0390
G01 X45.8317 Y12.0338
G01 X45.8086 Y12.0242
G01 X45.7850 Y12.0157
G01 X45.7611 Y12.0085
G01 X45.7490 Y12.0053
G01 X45.7368 Y12.0024
G01 X45.7122 Y11.9975
