(G-CODE GENERATED BY FLATCAM v8.994 - www.flatcam.org - Version Date: 2020/11/7)

(Name: doorbell-F_Cu.gbr_iso_combined_cnc)
(Type: G-code from Geometry)
(Units: MM)

(Created on Samedi, 31 juillet 2021 at 11:59)

(This preprocessor is the default preprocessor used by FlatCAM.)
(It is made to work with MACH3 compatible motion controllers.)

(TOOL DIAMETER: 0.1 mm)
(Feedrate_XY: 300.0 mm/min)
(Feedrate_Z: 50.0 mm/min)
(Feedrate rapids 1500.0 mm/min)

(Z_Cut: -0.1 mm)
(Z_Move: 1.0 mm)
(Z Start: None mm)
(Z End: 5.0 mm)
(X,Y End: None mm)
(Steps per circle: 64)
(Preprocessor Geometry: default)

(X range:    0.2500 ...   42.4751  mm)
(Y range:    0.5249 ...   24.6500  mm)

(Spindle Speed: 8000.0 RPM)
G21
G90
G94

G01 F300.00

M5
G00 Z15.0000
G00 X0.0000 Y0.0000
T1
M6    
(MSG, Change to Tool Dia = 0.1000)
M0
G00 Z15.0000

M03 S8000.0
G01 F300.00
G00 X2.1157 Y5.3999
G01 F50.00
G01 Z-0.1000
G01 F300.00
G01 X2.0914 Y5.3854
G01 X2.0648 Y5.3728
G01 X2.0371 Y5.3629
G01 X2.0085 Y5.3558
G01 X1.9794 Y5.3514
G01 X1.9512 Y5.3500
G01 X1.8501 Y5.3500
G01 X1.8501 Y4.9281
G01 X1.9288 Y4.8493
G01 X2.1922 Y4.8466
G01 X2.3078 Y4.8580
G01 X2.3228 Y4.8625
G01 X2.3373 Y4.8662
G01 X2.3569 Y4.8691
G01 X2.3730 Y4.8698
G01 X2.3904 Y4.8690
G01 X2.4075 Y4.8664
G01 X2.4232 Y4.8625
G01 X2.4408 Y4.8564
G01 X2.4586 Y4.8477
G01 X2.4714 Y4.8400
G01 X2.4834 Y4.8311
G01 X2.4982 Y4.8180
G01 X2.5114 Y4.8032
G01 X2.5202 Y4.7911
G01 X2.5279 Y4.7784
G01 X2.5366 Y4.7605
G01 X2.5428 Y4.7430
G01 X2.5467 Y4.7273
G01 X2.5489 Y4.7126
G01 X2.5501 Y4.6928
G01 X2.5501 Y3.5107
G01 X2.5493 Y3.4946
G01 X2.5468 Y3.4689
G01 X2.5501 Y3.3547
G01 X2.5501 Y2.6453
G01 X2.5468 Y2.5311
G01 X2.5580 Y2.4172
G01 X2.5895 Y2.3135
G01 X2.6405 Y2.2180
G01 X2.7093 Y2.1343
G01 X2.7930 Y2.0655
G01 X2.8885 Y2.0145
G01 X2.9922 Y1.9830
G01 X3.1069 Y1.9717
G01 X3.1954 Y1.9736
G01 X3.2749 Y2.0531
G01 X3.2749 Y2.4730
G01 X3.2753 Y2.4820
G01 X3.2540 Y2.4874
G01 X3.2275 Y2.4969
G01 X3.2020 Y2.5089
G01 X3.1798 Y2.5221
G01 X3.1533 Y2.5419
G01 X3.1342 Y2.5592
G01 X3.1153 Y2.5801
G01 X3.0985 Y2.6028
G01 X3.0839 Y2.6270
G01 X3.0719 Y2.6525
G01 X3.0631 Y2.6767
G01 X3.0551 Y2.7088
G01 X3.0514 Y2.7343
G01 X3.0500 Y2.7625
G01 X3.0500 Y3.2387
G01 X3.0512 Y3.2640
G01 X3.0545 Y3.2880
G01 X3.0617 Y3.3184
G01 X3.0694 Y3.3414
G01 X3.0792 Y3.3636
G01 X3.0931 Y3.3888
G01 X3.1081 Y3.4108
G01 X3.1235 Y3.4294
G01 X3.1447 Y3.4507
G01 X3.1642 Y3.4669
G01 X3.1842 Y3.4807
G01 X3.2104 Y3.4954
G01 X3.2336 Y3.5056
G01 X3.2577 Y3.5137
G01 X3.2835 Y3.5199
G01 X3.2999 Y3.5223
G01 X3.2999 Y4.8200
G01 X3.2238 Y4.8200
G01 X3.2177 Y4.8205
G01 X3.2105 Y4.8222
G01 X3.2047 Y4.8243
G01 X3.1993 Y4.8271
G01 X3.1942 Y4.8306
G01 X3.1888 Y4.8355
G01 X3.1848 Y4.8402
G01 X3.1809 Y4.8464
G01 X3.1779 Y4.8532
G01 X3.1762 Y4.8590
G01 X3.1754 Y4.8639
G01 X3.1750 Y4.8700
G01 X3.1750 Y5.3999
G01 X2.1157 Y5.3999
G00 Z1.0000
G00 X0.7621 Y7.6157
G01 F50.00
G01 Z-0.1000
G01 F300.00
G01 X0.7703 Y7.5916
G01 X0.7805 Y7.5684
G01 X0.7949 Y7.5421
G01 X0.8120 Y7.5174
G01 X0.8283 Y7.4979
G01 X0.8479 Y7.4783
G01 X0.8711 Y7.4592
G01 X0.8921 Y7.4449
G01 X0.9163 Y7.4315
G01 X0.9416 Y7.4203
G01 X0.9657 Y7.4121
G01 X0.9960 Y7.4049
G01 X1.0223 Y7.4013
G01 X1.0500 Y7.4000
G01 X1.9500 Y7.4000
G01 X1.9794 Y7.4014
G01 X2.0085 Y7.4058
G01 X2.0394 Y7.4137
G01 X2.0648 Y7.4228
G01 X2.0892 Y7.4343
G01 X2.1167 Y7.4506
G01 X2.1422 Y7.4697
G01 X2.1621 Y7.4879
G01 X2.1803 Y7.5078
G01 X2.1994 Y7.5333
G01 X2.2157 Y7.5608
G01 X2.2272 Y7.5852
G01 X2.2363 Y7.6106
G01 X2.2447 Y7.6439
G01 X2.2486 Y7.6706
G01 X2.2500 Y7.6988
G01 X2.2500 Y8.0999
G01 X3.1750 Y8.0999
G01 X3.1750 Y7.5688
G01 X3.1754 Y7.5639
G01 X3.1765 Y7.5579
G01 X3.1779 Y7.5532
G01 X3.1803 Y7.5475
G01 X3.1828 Y7.5433
G01 X3.1863 Y7.5383
G01 X3.1896 Y7.5346
G01 X3.1942 Y7.5306
G01 X3.2014 Y7.5259
G01 X3.2082 Y7.5229
G01 X3.2165 Y7.5207
G01 X3.2250 Y7.5200
G01 X3.8750 Y7.5200
G01 X3.8799 Y7.5202
G01 X3.8860 Y7.5212
G01 X3.8918 Y7.5229
G01 X3.8964 Y7.5248
G01 X3.9017 Y7.5278
G01 X3.9077 Y7.5321
G01 X3.9120 Y7.5364
G01 X3.9166 Y7.5422
G01 X3.9202 Y7.5486
G01 X3.9225 Y7.5543
G01 X3.9243 Y7.5615
G01 X3.9250 Y7.5688
G01 X3.9250 Y9.1300
G01 X3.9248 Y9.1349
G01 X3.9238 Y9.1410
G01 X3.9225 Y9.1457
G01 X3.9202 Y9.1514
G01 X3.9166 Y9.1578
G01 X3.9129 Y9.1627
G01 X3.9077 Y9.1679
G01 X3.9017 Y9.1722
G01 X3.8964 Y9.1752
G01 X3.8895 Y9.1778
G01 X3.8823 Y9.1795
G01 X3.8762 Y9.1800
G01 X3.2238 Y9.1800
G01 X3.2165 Y9.1793
G01 X3.2093 Y9.1775
G01 X3.2014 Y9.1741
G01 X3.1952 Y9.1702
G01 X3.1905 Y9.1662
G01 X3.1863 Y9.1617
G01 X3.1828 Y9.1567
G01 X3.1803 Y9.1525
G01 X3.1779 Y9.1468
G01 X3.1765 Y9.1421
G01 X3.1754 Y9.1361
G01 X3.1750 Y9.1312
G01 X3.1750 Y8.6001
G01 X2.1157 Y8.6001
G01 X2.0914 Y8.6146
G01 X2.0648 Y8.6272
G01 X2.0371 Y8.6371
G01 X2.0085 Y8.6442
G01 X1.9794 Y8.6486
G01 X1.9512 Y8.6500
G01 X1.8501 Y8.6500
G01 X1.8502 Y8.9264
G01 X1.9007 Y8.9504
G01 X1.9702 Y8.9919
G01 X2.0383 Y9.0422
G01 X2.1010 Y9.0990
G01 X2.1563 Y9.1598
G01 X2.2067 Y9.2278
G01 X2.2496 Y9.2993
G01 X2.2853 Y9.3747
G01 X2.3134 Y9.4533
G01 X2.3337 Y9.5342
G01 X2.3456 Y9.6142
G01 X2.3499 Y9.7025
G01 X2.3459 Y9.7833
G01 X2.3337 Y9.8658
G01 X2.3134 Y9.9467
G01 X2.2853 Y10.0253
G01 X2.2496 Y10.1007
G01 X2.2067 Y10.1722
G01 X2.1571 Y10.2392
G01 X2.1010 Y10.3010
G01 X2.0392 Y10.3571
G01 X1.9722 Y10.4067
G01 X1.9007 Y10.4496
G01 X1.8230 Y10.4862
G01 X1.7467 Y10.5134
G01 X1.6658 Y10.5337
G01 X1.5833 Y10.5459
G01 X1.4975 Y10.5499
G01 X1.4167 Y10.5459
G01 X1.3366 Y10.5341
G01 X1.2556 Y10.5141
G01 X1.1747 Y10.4853
G01 X1.1015 Y10.4507
G01 X1.0278 Y10.4067
G01 X0.9589 Y10.3555
G01 X0.8990 Y10.3010
G01 X0.8445 Y10.2411
G01 X0.7933 Y10.1722
G01 X0.7504 Y10.1007
G01 X0.7138 Y10.0230
G01 X0.6866 Y9.9467
G01 X0.6669 Y9.8682
G01 X0.6542 Y9.7845
G01 X0.6501 Y9.6975
G01 X0.6541 Y9.6167
G01 X0.6663 Y9.5342
G01 X0.6866 Y9.4533
G01 X0.7138 Y9.3770
G01 X0.7510 Y9.2982
G01 X0.7933 Y9.2278
G01 X0.8414 Y9.1627
G01 X0.8998 Y9.0981
G01 X0.9608 Y9.0429
G01 X1.0268 Y8.9939
G01 X1.0993 Y8.9504
G01 X1.1499 Y8.9264
G01 X1.1498 Y8.6500
G01 X1.0488 Y8.6500
G01 X1.0182 Y8.6483
G01 X0.9915 Y8.6442
G01 X0.9629 Y8.6371
G01 X0.9352 Y8.6272
G01 X0.9086 Y8.6146
G01 X0.8833 Y8.5994
G01 X0.8597 Y8.5819
G01 X0.8379 Y8.5621
G01 X0.8181 Y8.5403
G01 X0.8006 Y8.5167
G01 X0.7854 Y8.4914
G01 X0.7728 Y8.4648
G01 X0.7629 Y8.4371
G01 X0.7558 Y8.4085
G01 X0.7517 Y8.3818
G01 X0.7500 Y8.3500
G01 X0.7500 Y7.6988
G01 X0.7513 Y7.6723
G01 X0.7547 Y7.6472
G01 X0.7621 Y7.6157
G00 Z1.0000
G00 X4.1498 Y9.1732
G01 F50.00
G01 Z-0.1000
G01 F300.00
G01 X4.1442 Y9.1694
G01 X4.1396 Y9.1654
G01 X4.1356 Y9.1608
G01 X4.1321 Y9.1557
G01 X4.1293 Y9.1503
G01 X4.1272 Y9.1445
G01 X4.1257 Y9.1385
G01 X4.1250 Y9.1312
G01 X4.1250 Y7.5700
G01 X4.1257 Y7.5615
G01 X4.1279 Y7.5532
G01 X4.1298 Y7.5486
G01 X4.1328 Y7.5433
G01 X4.1363 Y7.5383
G01 X4.1405 Y7.5338
G01 X4.1452 Y7.5298
G01 X4.1504 Y7.5265
G01 X4.1559 Y7.5238
G01 X4.1617 Y7.5218
G01 X4.1677 Y7.5205
G01 X4.1738 Y7.5200
G01 X4.2499 Y7.5200
G01 X4.2499 Y7.3988
G01 X4.2511 Y7.3755
G01 X4.2547 Y7.3512
G01 X4.2614 Y7.3251
G01 X4.2689 Y7.3043
G01 X4.2783 Y7.2843
G01 X4.2920 Y7.2611
G01 X4.3075 Y7.2404
G01 X4.3232 Y7.2232
G01 X5.0856 Y6.4607
G01 X5.0809 Y6.4536
G01 X5.0775 Y6.4457
G01 X5.0757 Y6.4385
G01 X5.0750 Y6.4300
G01 X5.0751 Y4.8675
G01 X5.0760 Y4.8602
G01 X5.0775 Y4.8543
G01 X5.0803 Y4.8475
G01 X5.0841 Y4.8412
G01 X5.0888 Y4.8355
G01 X5.0942 Y4.8306
G01 X5.1004 Y4.8265
G01 X5.1070 Y4.8234
G01 X5.1152 Y4.8210
G01 X5.1238 Y4.8200
G01 X5.1999 Y4.8200
G01 X5.1999 Y3.5250
G01 X5.0875 Y3.5250
G01 X5.0593 Y3.5236
G01 X5.0290 Y3.5189
G01 X5.0040 Y3.5126
G01 X4.9775 Y3.5031
G01 X4.9520 Y3.4911
G01 X4.9278 Y3.4765
G01 X4.9051 Y3.4597
G01 X4.8860 Y3.4425
G01 X4.8637 Y3.4180
G01 X4.8485 Y3.3972
G01 X4.8328 Y3.3708
G01 X4.8210 Y3.3452
G01 X4.8124 Y3.3210
G01 X4.8061 Y3.2960
G01 X4.8014 Y3.2657
G01 X4.8001 Y3.2400
G01 X4.8000 Y2.7625
G01 X4.8014 Y2.7343
G01 X4.8058 Y2.7052
G01 X4.8124 Y2.6790
G01 X4.8210 Y2.6548
G01 X4.8339 Y2.6270
G01 X4.8485 Y2.6028
G01 X4.8637 Y2.5820
G01 X4.8842 Y2.5592
G01 X4.9070 Y2.5387
G01 X4.9278 Y2.5235
G01 X4.9520 Y2.5089
G01 X4.9798 Y2.4960
G01 X5.0040 Y2.4874
G01 X5.0290 Y2.4811
G01 X5.0593 Y2.4764
G01 X5.0875 Y2.4750
G01 X5.6625 Y2.4750
G01 X5.6907 Y2.4764
G01 X5.7198 Y2.4808
G01 X5.7460 Y2.4874
G01 X5.7725 Y2.4969
G01 X5.7980 Y2.5089
G01 X5.8202 Y2.5221
G01 X5.8467 Y2.5419
G01 X5.8658 Y2.5592
G01 X5.8847 Y2.5801
G01 X5.9015 Y2.6028
G01 X5.9148 Y2.6248
G01 X5.9290 Y2.6548
G01 X5.9376 Y2.6790
G01 X5.9445 Y2.7064
G01 X5.9486 Y2.7343
G01 X5.9500 Y2.7613
G01 X5.9500 Y3.2387
G01 X5.9486 Y3.2657
G01 X5.9449 Y3.2912
G01 X5.9372 Y3.3221
G01 X5.9281 Y3.3475
G01 X5.9172 Y3.3708
G01 X5.9015 Y3.3972
G01 X5.8831 Y3.4217
G01 X5.8658 Y3.4408
G01 X5.8458 Y3.4590
G01 X5.8202 Y3.4779
G01 X5.7980 Y3.4911
G01 X5.7736 Y3.5026
G01 X5.7448 Y3.5130
G01 X5.7186 Y3.5195
G01 X5.7001 Y3.5223
G01 X5.7001 Y4.8200
G01 X5.7762 Y4.8200
G01 X5.7848 Y4.8210
G01 X5.7930 Y4.8234
G01 X5.7996 Y4.8265
G01 X5.8048 Y4.8298
G01 X5.8104 Y4.8346
G01 X5.8152 Y4.8402
G01 X5.8191 Y4.8464
G01 X5.8221 Y4.8532
G01 X5.8240 Y4.8602
G01 X5.8249 Y4.8675
G01 X5.8250 Y6.4300
G01 X5.8246 Y6.4361
G01 X5.8232 Y6.4433
G01 X5.8207 Y6.4503
G01 X5.8179 Y6.4557
G01 X5.8137 Y6.4617
G01 X5.8095 Y6.4662
G01 X5.8038 Y6.4709
G01 X5.7975 Y6.4747
G01 X5.7918 Y6.4771
G01 X5.7835 Y6.4793
G01 X5.7762 Y6.4800
G01 X5.6981 Y6.4800
G01 X5.6953 Y6.4988
G01 X5.6893 Y6.5226
G01 X5.6811 Y6.5457
G01 X5.6717 Y6.5657
G01 X5.6565 Y6.5910
G01 X5.6433 Y6.6087
G01 X5.6285 Y6.6251
G01 X4.7501 Y7.5036
G01 X4.7501 Y7.5200
G01 X4.8275 Y7.5201
G01 X4.8335 Y7.5207
G01 X4.8383 Y7.5218
G01 X4.8475 Y7.5253
G01 X4.8528 Y7.5284
G01 X4.8586 Y7.5330
G01 X4.8629 Y7.5373
G01 X4.8666 Y7.5422
G01 X4.8702 Y7.5486
G01 X4.8725 Y7.5543
G01 X4.8740 Y7.5602
G01 X4.8749 Y7.5675
G01 X4.8750 Y9.1312
G01 X4.8745 Y9.1373
G01 X4.8728 Y9.1445
G01 X4.8707 Y9.1503
G01 X4.8679 Y9.1557
G01 X4.8644 Y9.1608
G01 X4.8604 Y9.1654
G01 X4.8558 Y9.1694
G01 X4.8501 Y9.1732
G01 X4.8502 Y9.4850
G01 X5.8150 Y10.4499
G01 X5.9264 Y10.4498
G01 X5.9504 Y10.3993
G01 X5.9919 Y10.3298
G01 X6.0422 Y10.2617
G01 X6.0990 Y10.1990
G01 X6.1598 Y10.1437
G01 X6.2278 Y10.0933
G01 X6.2993 Y10.0504
G01 X6.3747 Y10.0147
G01 X6.4556 Y9.9859
G01 X6.5366 Y9.9659
G01 X6.6167 Y9.9541
G01 X6.6975 Y9.9501
G01 X6.7833 Y9.9541
G01 X6.8634 Y9.9659
G01 X6.9467 Y9.9866
G01 X7.0253 Y10.0147
G01 X7.1007 Y10.0504
G01 X7.1712 Y10.0926
G01 X7.2411 Y10.1445
G01 X7.3010 Y10.1990
G01 X7.3571 Y10.2608
G01 X7.4081 Y10.3298
G01 X7.4496 Y10.3993
G01 X7.4848 Y10.4736
G01 X7.5134 Y10.5533
G01 X7.5337 Y10.6342
G01 X7.5459 Y10.7167
G01 X7.5500 Y10.7988
G01 X7.5459 Y10.8833
G01 X7.5339 Y10.9646
G01 X7.5134 Y11.0467
G01 X7.4946 Y11.0994
G01 X7.7450 Y11.3499
G01 X9.5731 Y11.3498
G01 X9.5839 Y11.3270
G01 X9.5971 Y11.3048
G01 X9.6137 Y11.2820
G01 X9.6342 Y11.2592
G01 X9.6551 Y11.2403
G01 X9.6798 Y11.2221
G01 X9.7020 Y11.2089
G01 X9.7252 Y11.1979
G01 X9.7540 Y11.1874
G01 X9.7838 Y11.1801
G01 X9.8093 Y11.1764
G01 X9.8375 Y11.1750
G01 X10.4137 Y11.1750
G01 X10.4407 Y11.1764
G01 X10.4686 Y11.1805
G01 X10.4960 Y11.1874
G01 X10.5236 Y11.1974
G01 X10.5502 Y11.2102
G01 X10.5722 Y11.2235
G01 X10.5930 Y11.2387
G01 X10.6158 Y11.2592
G01 X10.6347 Y11.2801
G01 X10.6529 Y11.3048
G01 X10.6661 Y11.3270
G01 X10.6771 Y11.3502
G01 X10.6876 Y11.3790
G01 X10.6947 Y11.4076
G01 X10.6986 Y11.4343
G01 X10.7000 Y11.4625
G01 X10.7000 Y11.9387
G01 X10.6986 Y11.9657
G01 X10.6945 Y11.9936
G01 X10.6876 Y12.0210
G01 X10.6776 Y12.0486
G01 X10.6648 Y12.0752
G01 X10.6515 Y12.0972
G01 X10.6363 Y12.1180
G01 X10.6158 Y12.1408
G01 X10.5949 Y12.1597
G01 X10.5702 Y12.1779
G01 X10.5480 Y12.1911
G01 X10.5248 Y12.2021
G01 X10.4960 Y12.2126
G01 X10.4686 Y12.2195
G01 X10.4407 Y12.2236
G01 X10.4125 Y12.2250
G01 X9.8375 Y12.2250
G01 X9.8069 Y12.2233
G01 X9.7814 Y12.2195
G01 X9.7540 Y12.2126
G01 X9.7252 Y12.2021
G01 X9.7020 Y12.1911
G01 X9.6778 Y12.1765
G01 X9.6533 Y12.1581
G01 X9.6342 Y12.1408
G01 X9.6153 Y12.1199
G01 X9.5971 Y12.0952
G01 X9.5839 Y12.0730
G01 X9.5731 Y12.0501
G01 X7.6000 Y12.0501
G01 X7.5657 Y12.0485
G01 X7.5317 Y12.0434
G01 X7.5007 Y12.0357
G01 X7.4660 Y12.0235
G01 X7.4328 Y12.0076
G01 X7.4055 Y11.9911
G01 X7.3779 Y11.9707
G01 X7.3524 Y11.9476
G01 X6.9994 Y11.5946
G01 X6.9467 Y11.6134
G01 X6.8646 Y11.6339
G01 X6.7833 Y11.6459
G01 X6.6988 Y11.6500
G01 X6.6167 Y11.6459
G01 X6.5342 Y11.6337
G01 X6.4533 Y11.6134
G01 X6.3736 Y11.5848
G01 X6.2993 Y11.5496
G01 X6.2278 Y11.5067
G01 X6.1608 Y11.4571
G01 X6.0998 Y11.4019
G01 X6.0429 Y11.3392
G01 X5.9939 Y11.2732
G01 X5.9504 Y11.2007
G01 X5.9264 Y11.1501
G01 X5.6688 Y11.1501
G01 X5.6357 Y11.1485
G01 X5.6029 Y11.1436
G01 X5.5684 Y11.1351
G01 X5.5338 Y11.1225
G01 X5.5049 Y11.1088
G01 X5.4775 Y11.0925
G01 X5.4479 Y11.0707
G01 X5.4224 Y11.0476
G01 X4.2507 Y9.8758
G01 X4.2293 Y9.8521
G01 X4.2103 Y9.8265
G01 X4.1901 Y9.7929
G01 X4.1765 Y9.7640
G01 X4.1649 Y9.7316
G01 X4.1566 Y9.6983
G01 X4.1518 Y9.6668
G01 X4.1499 Y9.6300
G01 X4.1498 Y9.1732
G00 Z1.0000
G00 X5.1250 Y7.5200
G01 F50.00
G01 Z-0.1000
G01 F300.00
G01 X5.7762 Y7.5200
G01 X5.7835 Y7.5207
G01 X5.7918 Y7.5229
G01 X5.7996 Y7.5265
G01 X5.8067 Y7.5313
G01 X5.8104 Y7.5346
G01 X5.8144 Y7.5392
G01 X5.8197 Y7.5475
G01 X5.8216 Y7.5520
G01 X5.8235 Y7.5579
G01 X5.8246 Y7.5639
G01 X5.8250 Y7.5688
G01 X5.8250 Y8.0999
G01 X6.8589 Y8.0999
G01 X7.0250 Y7.9338
G01 X7.0250 Y7.4125
G01 X7.0263 Y7.3868
G01 X7.0300 Y7.3613
G01 X7.0356 Y7.3387
G01 X7.0460 Y7.3098
G01 X7.0560 Y7.2888
G01 X7.0692 Y7.2667
G01 X7.0846 Y7.2460
G01 X7.1002 Y7.2287
G01 X7.1229 Y7.2081
G01 X7.1417 Y7.1942
G01 X7.1660 Y7.1799
G01 X7.1870 Y7.1700
G01 X7.2113 Y7.1613
G01 X7.2363 Y7.1550
G01 X7.2606 Y7.1514
G01 X7.2875 Y7.1500
G01 X7.7125 Y7.1500
G01 X7.7394 Y7.1514
G01 X7.7661 Y7.1556
G01 X7.7887 Y7.1613
G01 X7.8107 Y7.1691
G01 X7.8362 Y7.1810
G01 X7.8603 Y7.1957
G01 X7.8790 Y7.2096
G01 X7.8963 Y7.2252
G01 X7.9154 Y7.2460
G01 X7.9321 Y7.2687
G01 X7.9440 Y7.2888
G01 X7.9540 Y7.3098
G01 X7.9637 Y7.3363
G01 X7.9700 Y7.3613
G01 X7.9737 Y7.3868
G01 X7.9750 Y7.4113
G01 X7.9750 Y7.9338
G01 X8.2121 Y8.1709
G01 X10.2355 Y8.1709
G01 X10.2355 Y7.2133
G01 X10.2362 Y7.2060
G01 X10.2384 Y7.1977
G01 X10.2414 Y7.1909
G01 X10.2461 Y7.1837
G01 X10.2510 Y7.1783
G01 X10.2577 Y7.1729
G01 X10.2652 Y7.1688
G01 X10.2722 Y7.1663
G01 X10.2794 Y7.1649
G01 X10.2855 Y7.1645
G01 X13.7145 Y7.1645
G01 X13.7206 Y7.1649
G01 X13.7266 Y7.1660
G01 X13.7348 Y7.1688
G01 X13.7423 Y7.1729
G01 X13.7481 Y7.1775
G01 X13.7539 Y7.1837
G01 X13.7580 Y7.1899
G01 X13.7616 Y7.1977
G01 X13.7638 Y7.2060
G01 X13.7645 Y7.2133
G01 X13.7645 Y9.6275
G01 X13.7641 Y9.6336
G01 X13.7630 Y9.6396
G01 X13.7602 Y9.6478
G01 X13.7561 Y9.6553
G01 X13.7507 Y9.6620
G01 X13.7453 Y9.6669
G01 X13.7381 Y9.6716
G01 X13.7302 Y9.6750
G01 X13.7230 Y9.6768
G01 X13.7145 Y9.6775
G01 X10.2855 Y9.6775
G01 X10.2757 Y9.6765
G01 X10.2675 Y9.6741
G01 X10.2598 Y9.6704
G01 X10.2538 Y9.6662
G01 X10.2476 Y9.6602
G01 X10.2426 Y9.6532
G01 X10.2389 Y9.6455
G01 X10.2365 Y9.6373
G01 X10.2356 Y9.6300
G01 X10.2355 Y8.6711
G01 X8.1085 Y8.6711
G01 X8.0852 Y8.6700
G01 X8.0597 Y8.6663
G01 X8.0336 Y8.6596
G01 X8.0128 Y8.6521
G01 X7.9928 Y8.6427
G01 X7.9685 Y8.6283
G01 X7.9498 Y8.6143
G01 X7.9325 Y8.5987
G01 X7.7952 Y8.4614
G01 X7.7875 Y8.4640
G01 X7.7625 Y8.4702
G01 X7.7382 Y8.4737
G01 X7.7137 Y8.4750
G01 X7.2875 Y8.4750
G01 X7.2618 Y8.4737
G01 X7.2375 Y8.4702
G01 X7.2125 Y8.4640
G01 X7.2048 Y8.4614
G01 X7.1385 Y8.5277
G01 X7.1212 Y8.5433
G01 X7.1004 Y8.5586
G01 X7.0782 Y8.5717
G01 X7.0582 Y8.5811
G01 X7.0374 Y8.5886
G01 X7.0113 Y8.5953
G01 X6.9858 Y8.5990
G01 X6.9625 Y8.6001
G01 X5.8250 Y8.6001
G01 X5.8250 Y9.1312
G01 X5.8246 Y9.1361
G01 X5.8235 Y9.1421
G01 X5.8216 Y9.1480
G01 X5.8197 Y9.1525
G01 X5.8144 Y9.1608
G01 X5.8104 Y9.1654
G01 X5.8067 Y9.1687
G01 X5.8007 Y9.1729
G01 X5.7930 Y9.1766
G01 X5.7848 Y9.1790
G01 X5.7762 Y9.1800
G01 X5.1250 Y9.1800
G01 X5.1189 Y9.1796
G01 X5.1129 Y9.1785
G01 X5.1047 Y9.1757
G01 X5.0972 Y9.1716
G01 X5.0905 Y9.1662
G01 X5.0856 Y9.1608
G01 X5.0815 Y9.1546
G01 X5.0779 Y9.1468
G01 X5.0757 Y9.1385
G01 X5.0750 Y9.1312
G01 X5.0750 Y7.5700
G01 X5.0760 Y7.5602
G01 X5.0788 Y7.5509
G01 X5.0834 Y7.5422
G01 X5.0896 Y7.5346
G01 X5.0972 Y7.5284
G01 X5.1059 Y7.5238
G01 X5.1152 Y7.5210
G01 X5.1250 Y7.5200
G00 Z1.0000
G00 X6.9994 Y14.9946
G01 F50.00
G01 Z-0.1000
G01 F300.00
G01 X6.9467 Y15.0134
G01 X6.8646 Y15.0339
G01 X6.7833 Y15.0459
G01 X6.6988 Y15.0500
G01 X6.6167 Y15.0459
G01 X6.5342 Y15.0337
G01 X6.4533 Y15.0134
G01 X6.3736 Y14.9848
G01 X6.2993 Y14.9496
G01 X6.2278 Y14.9067
G01 X6.1608 Y14.8571
G01 X6.0990 Y14.8010
G01 X6.0429 Y14.7392
G01 X5.9933 Y14.6722
G01 X5.9504 Y14.6007
G01 X5.9143 Y14.5241
G01 X5.8866 Y14.4467
G01 X5.8663 Y14.3658
G01 X5.8541 Y14.2833
G01 X5.8500 Y14.2000
G01 X5.8541 Y14.1167
G01 X5.8663 Y14.0342
G01 X5.8866 Y13.9533
G01 X5.9147 Y13.8747
G01 X5.9504 Y13.7993
G01 X5.9933 Y13.7278
G01 X6.0429 Y13.6608
G01 X6.0990 Y13.5990
G01 X6.1608 Y13.5429
G01 X6.2278 Y13.4933
G01 X6.2993 Y13.4504
G01 X6.3759 Y13.4142
G01 X6.4533 Y13.3866
G01 X6.5318 Y13.3669
G01 X6.6167 Y13.3541
G01 X6.7025 Y13.3501
G01 X6.7833 Y13.3541
G01 X6.8658 Y13.3663
G01 X6.9491 Y13.3874
G01 X7.0253 Y13.4147
G01 X7.1007 Y13.4504
G01 X7.1722 Y13.4933
G01 X7.2373 Y13.5414
G01 X7.3010 Y13.5990
G01 X7.3586 Y13.6627
G01 X7.4068 Y13.7278
G01 X7.4496 Y13.7993
G01 X7.4862 Y13.8770
G01 X7.5134 Y13.9533
G01 X7.5334 Y14.0330
G01 X7.5461 Y14.1191
G01 X7.5500 Y14.2000
G01 X7.5460 Y14.2821
G01 X7.5334 Y14.3670
G01 X7.5134 Y14.4467
G01 X7.4946 Y14.4994
G01 X7.9450 Y14.9499
G01 X9.5731 Y14.9498
G01 X9.5839 Y14.9270
G01 X9.5971 Y14.9048
G01 X9.6137 Y14.8820
G01 X9.6342 Y14.8592
G01 X9.6551 Y14.8403
G01 X9.6798 Y14.8221
G01 X9.7020 Y14.8089
G01 X9.7252 Y14.7979
G01 X9.7540 Y14.7874
G01 X9.7814 Y14.7805
G01 X9.8093 Y14.7764
G01 X9.8375 Y14.7750
G01 X10.4125 Y14.7750
G01 X10.4407 Y14.7764
G01 X10.4698 Y14.7808
G01 X10.4960 Y14.7874
G01 X10.5202 Y14.7960
G01 X10.5480 Y14.8089
G01 X10.5742 Y14.8249
G01 X10.5949 Y14.8403
G01 X10.6140 Y14.8575
G01 X10.6347 Y14.8801
G01 X10.6529 Y14.9048
G01 X10.6661 Y14.9270
G01 X10.6771 Y14.9502
G01 X10.6880 Y14.9802
G01 X10.6945 Y15.0064
G01 X10.6983 Y15.0319
G01 X10.7000 Y15.0625
G01 X10.7000 Y15.5375
G01 X10.6986 Y15.5657
G01 X10.6947 Y15.5924
G01 X10.6876 Y15.6210
G01 X10.6790 Y15.6452
G01 X10.6648 Y15.6752
G01 X10.6515 Y15.6972
G01 X10.6347 Y15.7199
G01 X10.6158 Y15.7408
G01 X10.5949 Y15.7597
G01 X10.5722 Y15.7765
G01 X10.5502 Y15.7898
G01 X10.5202 Y15.8040
G01 X10.4960 Y15.8126
G01 X10.4686 Y15.8195
G01 X10.4407 Y15.8236
G01 X10.4137 Y15.8250
G01 X9.8375 Y15.8250
G01 X9.8093 Y15.8236
G01 X9.7814 Y15.8195
G01 X9.7540 Y15.8126
G01 X9.7252 Y15.8021
G01 X9.7020 Y15.7911
G01 X9.6798 Y15.7779
G01 X9.6551 Y15.7597
G01 X9.6342 Y15.7408
G01 X9.6137 Y15.7180
G01 X9.5971 Y15.6952
G01 X9.5839 Y15.6730
G01 X9.5731 Y15.6501
G01 X7.8000 Y15.6501
G01 X7.7657 Y15.6485
G01 X7.7329 Y15.6436
G01 X7.6960 Y15.6343
G01 X7.6660 Y15.6235
G01 X7.6371 Y15.6099
G01 X7.6055 Y15.5911
G01 X7.5760 Y15.5691
G01 X7.5524 Y15.5476
G01 X6.9994 Y14.9946
G00 Z1.0000
G00 X9.0001 Y19.9825
G01 F50.00
G01 Z-0.1000
G01 F300.00
G01 X9.0010 Y19.9654
G01 X9.0038 Y19.9460
G01 X9.0086 Y19.9269
G01 X9.0152 Y19.9085
G01 X9.0236 Y19.8907
G01 X9.0337 Y19.8739
G01 X9.0454 Y19.8581
G01 X9.0569 Y19.8454
G01 X9.0751 Y19.8289
G01 X9.0889 Y19.8187
G01 X9.1079 Y19.8075
G01 X9.1235 Y19.8002
G01 X9.1419 Y19.7936
G01 X9.1610 Y19.7888
G01 X9.1816 Y19.7859
G01 X9.2000 Y19.7850
G01 X10.8512 Y19.7850
G01 X10.8696 Y19.7860
G01 X10.8866 Y19.7884
G01 X10.9081 Y19.7936
G01 X10.9265 Y19.8002
G01 X10.9421 Y19.8075
G01 X10.9620 Y19.8193
G01 X11.6249 Y19.1564
G01 X11.6249 Y15.8250
G01 X11.5863 Y15.8250
G01 X11.5593 Y15.8236
G01 X11.5314 Y15.8195
G01 X11.5040 Y15.8126
G01 X11.4775 Y15.8031
G01 X11.4520 Y15.7911
G01 X11.4278 Y15.7765
G01 X11.4033 Y15.7581
G01 X11.3842 Y15.7408
G01 X11.3637 Y15.7180
G01 X11.3485 Y15.6972
G01 X11.3352 Y15.6752
G01 X11.3229 Y15.6498
G01 X11.3124 Y15.6210
G01 X11.3055 Y15.5936
G01 X11.3014 Y15.5657
G01 X11.3000 Y15.5375
G01 X11.3001 Y15.0600
G01 X11.3014 Y15.0343
G01 X11.3055 Y15.0064
G01 X11.3124 Y14.9790
G01 X11.3219 Y14.9525
G01 X11.3339 Y14.9270
G01 X11.3471 Y14.9048
G01 X11.3669 Y14.8783
G01 X11.3842 Y14.8592
G01 X11.4051 Y14.8403
G01 X11.4278 Y14.8235
G01 X11.4498 Y14.8102
G01 X11.4798 Y14.7960
G01 X11.5040 Y14.7874
G01 X11.5314 Y14.7805
G01 X11.5618 Y14.7762
G01 X11.5863 Y14.7750
G01 X11.6249 Y14.7750
G01 X11.6249 Y14.0250
G01 X11.5863 Y14.0250
G01 X11.5618 Y14.0238
G01 X11.5314 Y14.0195
G01 X11.5040 Y14.0126
G01 X11.4798 Y14.0040
G01 X11.4498 Y13.9898
G01 X11.4278 Y13.9765
G01 X11.4051 Y13.9597
G01 X11.3842 Y13.9408
G01 X11.3669 Y13.9217
G01 X11.3471 Y13.8952
G01 X11.3339 Y13.8730
G01 X11.3219 Y13.8475
G01 X11.3124 Y13.8210
G01 X11.3055 Y13.7936
G01 X11.3014 Y13.7657
G01 X11.3000 Y13.7387
G01 X11.3000 Y13.2625
G01 X11.3014 Y13.2343
G01 X11.3061 Y13.2040
G01 X11.3124 Y13.1790
G01 X11.3219 Y13.1525
G01 X11.3339 Y13.1270
G01 X11.3471 Y13.1048
G01 X11.3669 Y13.0783
G01 X11.3842 Y13.0592
G01 X11.4051 Y13.0403
G01 X11.4278 Y13.0235
G01 X11.4498 Y13.0102
G01 X11.4798 Y12.9960
G01 X11.5040 Y12.9874
G01 X11.5290 Y12.9811
G01 X11.5593 Y12.9764
G01 X11.5875 Y12.9750
G01 X12.1637 Y12.9750
G01 X12.1907 Y12.9764
G01 X12.2186 Y12.9805
G01 X12.2460 Y12.9874
G01 X12.2748 Y12.9979
G01 X12.3002 Y13.0102
G01 X12.3222 Y13.0235
G01 X12.3430 Y13.0387
G01 X12.3658 Y13.0592
G01 X12.3847 Y13.0801
G01 X12.4015 Y13.1028
G01 X12.4172 Y13.1292
G01 X12.4281 Y13.1525
G01 X12.4369 Y13.1767
G01 X12.4442 Y13.2052
G01 X12.4486 Y13.2343
G01 X12.4500 Y13.2625
G01 X12.4500 Y13.7375
G01 X12.4487 Y13.7645
G01 X12.4445 Y13.7936
G01 X12.4376 Y13.8210
G01 X12.4281 Y13.8475
G01 X12.4161 Y13.8730
G01 X12.4015 Y13.8972
G01 X12.3847 Y13.9199
G01 X12.3658 Y13.9408
G01 X12.3449 Y13.9597
G01 X12.3222 Y13.9765
G01 X12.2980 Y13.9911
G01 X12.2725 Y14.0031
G01 X12.2460 Y14.0126
G01 X12.2186 Y14.0195
G01 X12.1907 Y14.0236
G01 X12.1637 Y14.0250
G01 X12.1251 Y14.0250
G01 X12.1251 Y14.7750
G01 X12.1637 Y14.7750
G01 X12.1882 Y14.7762
G01 X12.2186 Y14.7805
G01 X12.2460 Y14.7874
G01 X12.2702 Y14.7960
G01 X12.3002 Y14.8102
G01 X12.3222 Y14.8235
G01 X12.3449 Y14.8403
G01 X12.3658 Y14.8592
G01 X12.3831 Y14.8783
G01 X12.4029 Y14.9048
G01 X12.4161 Y14.9270
G01 X12.4281 Y14.9525
G01 X12.4376 Y14.9790
G01 X12.4445 Y15.0064
G01 X12.4486 Y15.0343
G01 X12.4499 Y15.0600
G01 X12.4500 Y15.5387
G01 X12.4486 Y15.5657
G01 X12.4445 Y15.5936
G01 X12.4376 Y15.6210
G01 X12.4271 Y15.6498
G01 X12.4148 Y15.6752
G01 X12.4015 Y15.6972
G01 X12.3863 Y15.7180
G01 X12.3658 Y15.7408
G01 X12.3458 Y15.7590
G01 X12.3222 Y15.7765
G01 X12.2980 Y15.7911
G01 X12.2725 Y15.8031
G01 X12.2460 Y15.8126
G01 X12.2186 Y15.8195
G01 X12.1907 Y15.8236
G01 X12.1637 Y15.8250
G01 X12.1251 Y15.8250
G01 X12.1251 Y19.2600
G01 X12.1239 Y19.2845
G01 X12.1203 Y19.3088
G01 X12.1143 Y19.3326
G01 X12.1051 Y19.3580
G01 X12.0956 Y19.3779
G01 X12.0830 Y19.3989
G01 X12.0683 Y19.4187
G01 X12.0527 Y19.4360
G01 X11.1751 Y20.3135
G01 X11.1587 Y20.3283
G01 X11.1389 Y20.3430
G01 X11.1179 Y20.3556
G01 X11.0980 Y20.3651
G01 X11.0702 Y20.3750
G01 X11.0488 Y20.3803
G01 X11.0236 Y20.3840
G01 X11.0163 Y20.3961
G01 X11.0061 Y20.4099
G01 X10.9931 Y20.4246
G01 X10.9769 Y20.4396
G01 X10.9621 Y20.4506
G01 X10.9443 Y20.4614
G01 X10.9265 Y20.4698
G01 X10.9081 Y20.4764
G01 X10.8890 Y20.4812
G01 X10.8696 Y20.4840
G01 X10.8500 Y20.4850
G01 X9.2000 Y20.4850
G01 X9.1780 Y20.4837
G01 X9.1610 Y20.4812
G01 X9.1431 Y20.4767
G01 X9.1235 Y20.4698
G01 X9.1036 Y20.4602
G01 X9.0889 Y20.4513
G01 X9.0751 Y20.4411
G01 X9.0586 Y20.4264
G01 X9.0439 Y20.4099
G01 X9.0337 Y20.3961
G01 X9.0248 Y20.3814
G01 X9.0152 Y20.3615
G01 X9.0083 Y20.3419
G01 X9.0034 Y20.3216
G01 X9.0010 Y20.3046
G01 X9.0000 Y20.2862
G01 X9.0001 Y19.9825
G00 Z1.0000
G00 X9.0001 Y21.2525
G01 F50.00
G01 Z-0.1000
G01 F300.00
G01 X9.0010 Y21.2354
G01 X9.0038 Y21.2160
G01 X9.0086 Y21.1969
G01 X9.0152 Y21.1785
G01 X9.0236 Y21.1607
G01 X9.0337 Y21.1439
G01 X9.0454 Y21.1281
G01 X9.0586 Y21.1136
G01 X9.0731 Y21.1004
G01 X9.0889 Y21.0887
G01 X9.1057 Y21.0786
G01 X9.1235 Y21.0702
G01 X9.1419 Y21.0636
G01 X9.1610 Y21.0588
G01 X9.1804 Y21.0560
G01 X9.1975 Y21.0551
G01 X10.8525 Y21.0551
G01 X10.8720 Y21.0563
G01 X10.8890 Y21.0588
G01 X10.9057 Y21.0630
G01 X10.9265 Y21.0702
G01 X10.9464 Y21.0798
G01 X10.9611 Y21.0887
G01 X10.9749 Y21.0989
G01 X10.9914 Y21.1136
G01 X11.0054 Y21.1291
G01 X11.0163 Y21.1439
G01 X11.0230 Y21.1549
G01 X11.4914 Y21.1549
G01 X12.7499 Y19.8964
G01 X12.7499 Y16.5500
G01 X12.7511 Y16.5255
G01 X12.7547 Y16.5012
G01 X12.7607 Y16.4774
G01 X12.7699 Y16.4520
G01 X12.7794 Y16.4321
G01 X12.7920 Y16.4111
G01 X12.8067 Y16.3913
G01 X12.8232 Y16.3732
G01 X15.6963 Y13.5000
G01 X14.1464 Y11.9501
G01 X12.4494 Y11.9501
G01 X12.4485 Y11.9669
G01 X12.4442 Y11.9948
G01 X12.4376 Y12.0210
G01 X12.4286 Y12.0464
G01 X12.4148 Y12.0752
G01 X12.4015 Y12.0972
G01 X12.3840 Y12.1208
G01 X12.3658 Y12.1408
G01 X12.3467 Y12.1581
G01 X12.3202 Y12.1779
G01 X12.2980 Y12.1911
G01 X12.2725 Y12.2031
G01 X12.2460 Y12.2126
G01 X12.2210 Y12.2189
G01 X12.1907 Y12.2236
G01 X12.1625 Y12.2250
G01 X11.5863 Y12.2250
G01 X11.5569 Y12.2233
G01 X11.5314 Y12.2195
G01 X11.5064 Y12.2133
G01 X11.4775 Y12.2031
G01 X11.4520 Y12.1911
G01 X11.4278 Y12.1765
G01 X11.4033 Y12.1581
G01 X11.3842 Y12.1408
G01 X11.3669 Y12.1217
G01 X11.3485 Y12.0972
G01 X11.3328 Y12.0708
G01 X11.3219 Y12.0475
G01 X11.3131 Y12.0233
G01 X11.3055 Y11.9936
G01 X11.3013 Y11.9645
G01 X11.3000 Y11.9375
G01 X11.3000 Y11.4625
G01 X11.3015 Y11.4331
G01 X11.3055 Y11.4064
G01 X11.3124 Y11.3790
G01 X11.3219 Y11.3525
G01 X11.3328 Y11.3292
G01 X11.3485 Y11.3028
G01 X11.3637 Y11.2820
G01 X11.3860 Y11.2575
G01 X11.4051 Y11.2403
G01 X11.4278 Y11.2235
G01 X11.4520 Y11.2089
G01 X11.4752 Y11.1979
G01 X11.5064 Y11.1867
G01 X11.5314 Y11.1805
G01 X11.5593 Y11.1764
G01 X11.5875 Y11.1750
G01 X12.1625 Y11.1750
G01 X12.1895 Y11.1763
G01 X12.2186 Y11.1805
G01 X12.2460 Y11.1874
G01 X12.2725 Y11.1969
G01 X12.2958 Y11.2078
G01 X12.3242 Y11.2249
G01 X12.3449 Y11.2403
G01 X12.3667 Y11.2601
G01 X12.3847 Y11.2801
G01 X12.4015 Y11.3028
G01 X12.4161 Y11.3270
G01 X12.4276 Y11.3514
G01 X12.4376 Y11.3790
G01 X12.4442 Y11.4052
G01 X12.4485 Y11.4331
G01 X12.4494 Y11.4499
G01 X14.2500 Y11.4499
G01 X14.2745 Y11.4511
G01 X14.2988 Y11.4547
G01 X14.3226 Y11.4607
G01 X14.3457 Y11.4689
G01 X14.3679 Y11.4794
G01 X14.3889 Y11.4920
G01 X14.4087 Y11.5067
G01 X14.4268 Y11.5232
G01 X16.1536 Y13.2499
G01 X17.6000 Y13.2499
G01 X17.6000 Y12.5488
G01 X17.6012 Y12.5390
G01 X17.6025 Y12.5343
G01 X17.6048 Y12.5286
G01 X17.6071 Y12.5243
G01 X17.6106 Y12.5192
G01 X17.6138 Y12.5155
G01 X17.6183 Y12.5113
G01 X17.6254 Y12.5065
G01 X17.6332 Y12.5029
G01 X17.6415 Y12.5007
G01 X17.6488 Y12.5000
G01 X18.4500 Y12.5000
G01 X18.4549 Y12.5002
G01 X18.4610 Y12.5012
G01 X18.4703 Y12.5043
G01 X18.4788 Y12.5091
G01 X18.4827 Y12.5121
G01 X18.4870 Y12.5164
G01 X18.4929 Y12.5243
G01 X18.4966 Y12.5320
G01 X18.4990 Y12.5402
G01 X18.5000 Y12.5500
G01 X18.5000 Y14.4500
G01 X18.4998 Y14.4549
G01 X18.4988 Y14.4610
G01 X18.4971 Y14.4668
G01 X18.4947 Y14.4725
G01 X18.4922 Y14.4767
G01 X18.4887 Y14.4817
G01 X18.4854 Y14.4854
G01 X18.4808 Y14.4894
G01 X18.4736 Y14.4941
G01 X18.4668 Y14.4971
G01 X18.4598 Y14.4990
G01 X18.4512 Y14.5000
G01 X17.6500 Y14.5000
G01 X17.6415 Y14.4993
G01 X17.6332 Y14.4971
G01 X17.6254 Y14.4935
G01 X17.6183 Y14.4887
G01 X17.6146 Y14.4854
G01 X17.6106 Y14.4808
G01 X17.6078 Y14.4767
G01 X17.6048 Y14.4714
G01 X17.6029 Y14.4668
G01 X17.6012 Y14.4610
G01 X17.6000 Y14.4512
G01 X17.6000 Y13.7501
G01 X16.1536 Y13.7501
G01 X13.2501 Y16.6536
G01 X13.2501 Y20.0000
G01 X13.2486 Y20.0269
G01 X13.2453 Y20.0488
G01 X13.2393 Y20.0726
G01 X13.2311 Y20.0957
G01 X13.2194 Y20.1200
G01 X13.2080 Y20.1389
G01 X13.1948 Y20.1567
G01 X13.1777 Y20.1760
G01 X11.7701 Y21.5835
G01 X11.7537 Y21.5983
G01 X11.7339 Y21.6130
G01 X11.7129 Y21.6256
G01 X11.6930 Y21.6351
G01 X11.6652 Y21.6450
G01 X11.6438 Y21.6503
G01 X11.6195 Y21.6539
G01 X11.5950 Y21.6551
G01 X11.0230 Y21.6551
G01 X11.0163 Y21.6661
G01 X11.0061 Y21.6799
G01 X10.9923 Y21.6955
G01 X10.9769 Y21.7096
G01 X10.9601 Y21.7220
G01 X10.9421 Y21.7325
G01 X10.9265 Y21.7398
G01 X10.9104 Y21.7456
G01 X10.8890 Y21.7512
G01 X10.8684 Y21.7541
G01 X10.8500 Y21.7550
G01 X9.2000 Y21.7550
G01 X9.1792 Y21.7539
G01 X9.1610 Y21.7512
G01 X9.1443 Y21.7470
G01 X9.1235 Y21.7398
G01 X9.1036 Y21.7302
G01 X9.0889 Y21.7213
G01 X9.0731 Y21.7096
G01 X9.0569 Y21.6946
G01 X9.0454 Y21.6819
G01 X9.0337 Y21.6661
G01 X9.0225 Y21.6471
G01 X9.0152 Y21.6315
G01 X9.0094 Y21.6154
G01 X9.0034 Y21.5916
G01 X9.0010 Y21.5746
G01 X9.0000 Y21.5562
G01 X9.0001 Y21.2525
G00 Z1.0000
G00 X5.2001 Y23.0219
G01 F50.00
G01 Z-0.1000
G01 F300.00
G01 X5.2001 Y22.6001
G01 X6.1719 Y22.6001
G01 X6.2399 Y22.6680
G01 X6.2056 Y22.7729
G01 X6.1524 Y22.8673
G01 X6.0818 Y22.9495
G01 X5.9966 Y23.0163
G01 X5.8999 Y23.0652
G01 X5.7956 Y23.0943
G01 X5.6774 Y23.1032
G01 X5.2786 Y23.1004
G01 X5.2001 Y23.0219
G00 Z1.0000
G00 X3.4601 Y22.6680
G01 F50.00
G01 Z-0.1000
G01 F300.00
G01 X3.5281 Y22.6001
G01 X4.4999 Y22.6001
G01 X4.4999 Y23.0219
G01 X4.4214 Y23.1004
G01 X4.0226 Y23.1032
G01 X3.9044 Y23.0943
G01 X3.8001 Y23.0652
G01 X3.7034 Y23.0163
G01 X3.6182 Y22.9495
G01 X3.5476 Y22.8673
G01 X3.4944 Y22.7729
G01 X3.4601 Y22.6680
G00 Z1.0000
G00 X4.1475 Y21.3499
G01 F50.00
G01 Z-0.1000
G01 F300.00
G01 X4.1304 Y21.3490
G01 X4.1110 Y21.3462
G01 X4.0919 Y21.3414
G01 X4.0735 Y21.3348
G01 X4.0557 Y21.3264
G01 X4.0389 Y21.3163
G01 X4.0231 Y21.3046
G01 X4.0104 Y21.2931
G01 X3.9939 Y21.2749
G01 X3.9837 Y21.2611
G01 X3.9725 Y21.2421
G01 X3.9652 Y21.2265
G01 X3.9586 Y21.2081
G01 X3.9538 Y21.1890
G01 X3.9509 Y21.1684
G01 X3.9500 Y21.1500
G01 X3.9500 Y20.8488
G01 X3.9513 Y20.8280
G01 X3.9538 Y20.8110
G01 X3.9583 Y20.7931
G01 X3.9652 Y20.7735
G01 X3.9748 Y20.7536
G01 X3.9837 Y20.7389
G01 X3.9939 Y20.7251
G01 X4.0086 Y20.7086
G01 X4.0251 Y20.6939
G01 X4.0389 Y20.6837
G01 X4.0536 Y20.6748
G01 X4.0735 Y20.6652
G01 X4.0931 Y20.6583
G01 X4.1110 Y20.6538
G01 X4.1280 Y20.6513
G01 X4.1500 Y20.6500
G01 X5.5525 Y20.6501
G01 X5.5720 Y20.6513
G01 X5.5890 Y20.6538
G01 X5.6057 Y20.6580
G01 X5.6265 Y20.6652
G01 X5.6464 Y20.6748
G01 X5.6611 Y20.6837
G01 X5.6749 Y20.6939
G01 X5.6914 Y20.7086
G01 X5.7054 Y20.7241
G01 X5.7163 Y20.7389
G01 X5.7230 Y20.7499
G01 X6.2964 Y20.7499
G01 X8.3582 Y18.6882
G01 X8.3763 Y18.6717
G01 X8.3961 Y18.6570
G01 X8.4171 Y18.6444
G01 X8.4404 Y18.6335
G01 X8.4624 Y18.6257
G01 X8.4862 Y18.6197
G01 X8.5105 Y18.6161
G01 X8.5338 Y18.6149
G01 X9.0270 Y18.6149
G01 X9.0306 Y18.6087
G01 X9.0397 Y18.5954
G01 X9.0530 Y18.5794
G01 X9.0653 Y18.5672
G01 X9.0777 Y18.5568
G01 X9.0947 Y18.5450
G01 X9.1129 Y18.5350
G01 X9.1278 Y18.5285
G01 X9.1431 Y18.5233
G01 X9.1633 Y18.5184
G01 X9.1839 Y18.5157
G01 X9.2000 Y18.5150
G01 X10.8500 Y18.5150
G01 X10.8720 Y18.5163
G01 X10.8890 Y18.5188
G01 X10.9081 Y18.5236
G01 X10.9265 Y18.5302
G01 X10.9421 Y18.5375
G01 X10.9611 Y18.5487
G01 X10.9769 Y18.5604
G01 X10.9896 Y18.5719
G01 X11.0046 Y18.5881
G01 X11.0163 Y18.6039
G01 X11.0252 Y18.6186
G01 X11.0352 Y18.6396
G01 X11.0414 Y18.6569
G01 X11.0462 Y18.6760
G01 X11.0490 Y18.6954
G01 X11.0500 Y18.7138
G01 X11.0500 Y19.0162
G01 X11.0487 Y19.0370
G01 X11.0462 Y19.0540
G01 X11.0420 Y19.0707
G01 X11.0348 Y19.0915
G01 X11.0252 Y19.1114
G01 X11.0163 Y19.1261
G01 X11.0061 Y19.1399
G01 X10.9896 Y19.1581
G01 X10.9769 Y19.1696
G01 X10.9631 Y19.1799
G01 X10.9443 Y19.1914
G01 X10.9242 Y19.2007
G01 X10.9081 Y19.2064
G01 X10.8890 Y19.2112
G01 X10.8696 Y19.2140
G01 X10.8500 Y19.2150
G01 X9.1975 Y19.2149
G01 X9.1780 Y19.2137
G01 X9.1610 Y19.2112
G01 X9.1443 Y19.2070
G01 X9.1235 Y19.1998
G01 X9.1036 Y19.1902
G01 X9.0889 Y19.1813
G01 X9.0751 Y19.1711
G01 X9.0586 Y19.1564
G01 X9.0446 Y19.1409
G01 X9.0337 Y19.1261
G01 X9.0270 Y19.1151
G01 X8.6386 Y19.1151
G01 X6.5768 Y21.1768
G01 X6.5587 Y21.1933
G01 X6.5389 Y21.2080
G01 X6.5179 Y21.2206
G01 X6.4946 Y21.2315
G01 X6.4726 Y21.2393
G01 X6.4488 Y21.2453
G01 X6.4245 Y21.2489
G01 X6.4012 Y21.2501
G01 X5.7230 Y21.2501
G01 X5.7194 Y21.2563
G01 X5.7103 Y21.2696
G01 X5.6970 Y21.2856
G01 X5.6847 Y21.2978
G01 X5.6723 Y21.3082
G01 X5.6553 Y21.3200
G01 X5.6371 Y21.3300
G01 X5.6222 Y21.3365
G01 X5.6069 Y21.3417
G01 X5.5867 Y21.3466
G01 X5.5661 Y21.3493
G01 X5.5500 Y21.3500
G01 X4.1475 Y21.3499
G00 Z1.0000
G00 X4.1475 Y20.0999
G01 F50.00
G01 Z-0.1000
G01 F300.00
G01 X4.1304 Y20.0990
G01 X4.1134 Y20.0966
G01 X4.0896 Y20.0906
G01 X4.0735 Y20.0848
G01 X4.0557 Y20.0764
G01 X4.0389 Y20.0663
G01 X4.0251 Y20.0561
G01 X4.0069 Y20.0396
G01 X3.9954 Y20.0269
G01 X3.9837 Y20.0111
G01 X3.9736 Y19.9943
G01 X3.9662 Y19.9788
G01 X3.9583 Y19.9569
G01 X3.9534 Y19.9366
G01 X3.9510 Y19.9196
G01 X3.9500 Y19.9012
G01 X3.9500 Y19.6000
G01 X3.9508 Y19.5828
G01 X3.9538 Y19.5610
G01 X3.9594 Y19.5396
G01 X3.9652 Y19.5235
G01 X3.9725 Y19.5079
G01 X3.9830 Y19.4899
G01 X3.9954 Y19.4731
G01 X4.0086 Y19.4586
G01 X4.0231 Y19.4454
G01 X4.0410 Y19.4324
G01 X4.0557 Y19.4236
G01 X4.0712 Y19.4162
G01 X4.0896 Y19.4094
G01 X4.1110 Y19.4038
G01 X4.1292 Y19.4011
G01 X4.1500 Y19.4000
G01 X4.7048 Y19.4000
G01 X5.5855 Y18.5193
G01 X5.5642 Y18.4741
G01 X5.5363 Y18.3956
G01 X5.5163 Y18.3158
G01 X5.5042 Y18.2345
G01 X5.5001 Y18.1475
G01 X5.5041 Y18.0667
G01 X5.5166 Y17.9830
G01 X5.5366 Y17.9033
G01 X5.5638 Y17.8270
G01 X5.6016 Y17.7472
G01 X5.6433 Y17.6778
G01 X5.6929 Y17.6108
G01 X5.7490 Y17.5490
G01 X5.8098 Y17.4937
G01 X5.8778 Y17.4433
G01 X5.9493 Y17.4004
G01 X6.0247 Y17.3647
G01 X6.1033 Y17.3366
G01 X6.1842 Y17.3163
G01 X6.2667 Y17.3041
G01 X6.3500 Y17.3000
G01 X6.4333 Y17.3041
G01 X6.5158 Y17.3163
G01 X6.5967 Y17.3366
G01 X6.6753 Y17.3647
G01 X6.7507 Y17.4004
G01 X6.8222 Y17.4433
G01 X6.8892 Y17.4929
G01 X6.9510 Y17.5490
G01 X7.0063 Y17.6098
G01 X7.0581 Y17.6798
G01 X7.0996 Y17.7493
G01 X7.1353 Y17.8247
G01 X7.1641 Y17.9056
G01 X7.1837 Y17.9842
G01 X7.1959 Y18.0667
G01 X7.1999 Y18.1525
G01 X7.1959 Y18.2333
G01 X7.1837 Y18.3158
G01 X7.1626 Y18.3991
G01 X7.1353 Y18.4753
G01 X7.0996 Y18.5507
G01 X7.0567 Y18.6222
G01 X7.0086 Y18.6873
G01 X6.9493 Y18.7527
G01 X6.8892 Y18.8071
G01 X6.8222 Y18.8567
G01 X6.7507 Y18.8996
G01 X6.6764 Y18.9348
G01 X6.5944 Y18.9641
G01 X6.5158 Y18.9837
G01 X6.4321 Y18.9960
G01 X6.3500 Y19.0000
G01 X6.2667 Y18.9959
G01 X6.1842 Y18.9837
G01 X6.1260 Y18.9692
G01 X5.6613 Y19.4339
G01 X5.6787 Y19.4470
G01 X5.6914 Y19.4586
G01 X5.7030 Y19.4713
G01 X5.7163 Y19.4889
G01 X5.7264 Y19.5057
G01 X5.7348 Y19.5235
G01 X5.7420 Y19.5443
G01 X5.7462 Y19.5610
G01 X5.7487 Y19.5780
G01 X5.7500 Y19.5988
G01 X5.7500 Y19.9000
G01 X5.7491 Y19.9185
G01 X5.7470 Y19.9345
G01 X5.7417 Y19.9569
G01 X5.7365 Y19.9722
G01 X5.7280 Y19.9912
G01 X5.7200 Y20.0053
G01 X5.7096 Y20.0205
G01 X5.6978 Y20.0347
G01 X5.6839 Y20.0486
G01 X5.6705 Y20.0596
G01 X5.6553 Y20.0700
G01 X5.6391 Y20.0790
G01 X5.6222 Y20.0865
G01 X5.6047 Y20.0924
G01 X5.5867 Y20.0966
G01 X5.5685 Y20.0991
G01 X5.5512 Y20.1000
G01 X4.1475 Y20.0999
G00 Z1.0000
G00 X0.5475 Y18.4499
G01 F50.00
G01 Z-0.1000
G01 F300.00
G01 X0.5206 Y18.4486
G01 X0.4915 Y18.4442
G01 X0.4629 Y18.4371
G01 X0.4352 Y18.4272
G01 X0.4086 Y18.4146
G01 X0.3833 Y18.3994
G01 X0.3597 Y18.3819
G01 X0.3396 Y18.3638
G01 X0.3181 Y18.3403
G01 X0.3020 Y18.3187
G01 X0.2843 Y18.2892
G01 X0.2728 Y18.2648
G01 X0.2629 Y18.2371
G01 X0.2558 Y18.2085
G01 X0.2514 Y18.1794
G01 X0.2500 Y18.1500
G01 X0.2500 Y17.6500
G01 X0.2514 Y17.6206
G01 X0.2560 Y17.5903
G01 X0.2637 Y17.5606
G01 X0.2728 Y17.5352
G01 X0.2843 Y17.5108
G01 X0.3006 Y17.4833
G01 X0.3181 Y17.4597
G01 X0.3396 Y17.4362
G01 X0.3597 Y17.4181
G01 X0.3813 Y17.4020
G01 X0.4086 Y17.3854
G01 X0.4375 Y17.3720
G01 X0.4629 Y17.3629
G01 X0.4915 Y17.3558
G01 X0.5206 Y17.3514
G01 X0.5500 Y17.3500
G01 X2.7500 Y17.3500
G01 X2.7782 Y17.3513
G01 X2.8109 Y17.3563
G01 X2.8371 Y17.3629
G01 X2.8648 Y17.3728
G01 X2.8936 Y17.3866
G01 X2.9167 Y17.4006
G01 X2.9384 Y17.4166
G01 X2.9638 Y17.4396
G01 X2.9819 Y17.4597
G01 X2.9980 Y17.4813
G01 X3.0146 Y17.5086
G01 X3.0280 Y17.5375
G01 X3.0371 Y17.5629
G01 X3.0442 Y17.5915
G01 X3.0486 Y17.6206
G01 X3.0500 Y17.6488
G01 X3.0500 Y18.1500
G01 X3.0486 Y18.1794
G01 X3.0445 Y18.2073
G01 X3.0371 Y18.2371
G01 X3.0262 Y18.2670
G01 X3.0146 Y18.2914
G01 X3.0008 Y18.3146
G01 X2.9819 Y18.3403
G01 X2.9604 Y18.3638
G01 X2.9403 Y18.3819
G01 X2.9187 Y18.3980
G01 X2.8914 Y18.4146
G01 X2.8625 Y18.4280
G01 X2.8371 Y18.4371
G01 X2.8085 Y18.4442
G01 X2.7794 Y18.4486
G01 X2.7500 Y18.4500
G01 X0.5475 Y18.4499
G00 Z1.0000
G00 X0.5249 Y22.9700
G01 F50.00
G01 Z-0.1000
G01 F300.00
G01 X0.5249 Y19.0300
G01 X0.5261 Y19.0102
G01 X0.5283 Y18.9955
G01 X0.5326 Y18.9786
G01 X0.5394 Y18.9600
G01 X0.5458 Y18.9466
G01 X0.5535 Y18.9337
G01 X0.5651 Y18.9177
G01 X0.5786 Y18.9031
G01 X0.5897 Y18.8932
G01 X0.6016 Y18.8842
G01 X0.6175 Y18.8745
G01 X0.6342 Y18.8664
G01 X0.6530 Y18.8599
G01 X0.6675 Y18.8564
G01 X0.6822 Y18.8541
G01 X0.6995 Y18.8530
G01 X2.7413 Y18.8530
G01 X2.8870 Y18.8386
G01 X3.0187 Y18.7987
G01 X3.1401 Y18.7338
G01 X3.2465 Y18.6465
G01 X3.3338 Y18.5401
G01 X3.3987 Y18.4187
G01 X3.4386 Y18.2870
G01 X3.4530 Y18.1413
G01 X3.4530 Y17.6587
G01 X3.4386 Y17.5130
G01 X3.3987 Y17.3813
G01 X3.3338 Y17.2599
G01 X3.2465 Y17.1535
G01 X3.1401 Y17.0662
G01 X3.0187 Y17.0013
G01 X2.8870 Y16.9614
G01 X2.7413 Y16.9470
G01 X0.7020 Y16.9470
G01 X0.6859 Y16.9463
G01 X0.6651 Y16.9431
G01 X0.6506 Y16.9394
G01 X0.6365 Y16.9344
G01 X0.6185 Y16.9261
G01 X0.6016 Y16.9158
G01 X0.5897 Y16.9068
G01 X0.5786 Y16.8969
G01 X0.5651 Y16.8823
G01 X0.5535 Y16.8663
G01 X0.5458 Y16.8534
G01 X0.5384 Y16.8377
G01 X0.5326 Y16.8214
G01 X0.5283 Y16.8045
G01 X0.5258 Y16.7873
G01 X0.5249 Y16.7700
G01 X0.5249 Y10.8830
G01 X0.5258 Y10.8657
G01 X0.5281 Y10.8497
G01 X0.5326 Y10.8316
G01 X0.5375 Y10.8176
G01 X0.5471 Y10.7974
G01 X0.5548 Y10.7847
G01 X0.5651 Y10.7707
G01 X0.5768 Y10.7578
G01 X0.5897 Y10.7462
G01 X0.6036 Y10.7358
G01 X0.6164 Y10.7281
G01 X0.6365 Y10.7186
G01 X0.6506 Y10.7136
G01 X0.6675 Y10.7094
G01 X0.6846 Y10.7068
G01 X0.7008 Y10.7060
G01 X0.7194 Y10.7068
G01 X0.7365 Y10.7094
G01 X0.7534 Y10.7136
G01 X0.7709 Y10.7199
G01 X0.7855 Y10.7269
G01 X0.7993 Y10.7351
G01 X0.9079 Y10.8077
G01 X1.1354 Y10.9019
G01 X1.3769 Y10.9499
G01 X1.6231 Y10.9499
G01 X1.8646 Y10.9019
G01 X2.0921 Y10.8077
G01 X2.2968 Y10.6709
G01 X2.4709 Y10.4968
G01 X2.6077 Y10.2921
G01 X2.7019 Y10.0646
G01 X2.7499 Y9.8231
G01 X2.7500 Y9.7745
G01 X2.7508 Y9.7596
G01 X2.7531 Y9.7437
G01 X2.7583 Y9.7233
G01 X2.7634 Y9.7092
G01 X2.7703 Y9.6946
G01 X2.7798 Y9.6786
G01 X2.7917 Y9.6628
G01 X2.8018 Y9.6518
G01 X2.8128 Y9.6417
G01 X2.8286 Y9.6298
G01 X2.8457 Y9.6197
G01 X2.8592 Y9.6134
G01 X2.8733 Y9.6083
G01 X2.8925 Y9.6033
G01 X2.9109 Y9.6007
G01 X2.9270 Y9.5999
G01 X3.5854 Y9.6000
G01 X3.6003 Y9.6008
G01 X3.6151 Y9.6029
G01 X3.6344 Y9.6076
G01 X3.6508 Y9.6134
G01 X3.6643 Y9.6197
G01 X3.6824 Y9.6305
G01 X3.6953 Y9.6401
G01 X3.7064 Y9.6501
G01 X3.7199 Y9.6647
G01 X3.7315 Y9.6807
G01 X3.7392 Y9.6935
G01 X3.7461 Y9.7081
G01 X3.7524 Y9.7256
G01 X3.7564 Y9.7413
G01 X3.7591 Y9.7584
G01 X3.7609 Y9.7770
G01 X3.8038 Y9.9184
G01 X3.8734 Y10.0487
G01 X3.9672 Y10.1629
G01 X3.9900 Y10.1816
G01 X4.0019 Y10.1925
G01 X5.1075 Y11.2981
G01 X5.1184 Y11.3100
G01 X5.1371 Y11.3329
G01 X5.2513 Y11.4266
G01 X5.3816 Y11.4962
G01 X5.5230 Y11.5391
G01 X5.6246 Y11.5491
G01 X5.6406 Y11.5514
G01 X5.6586 Y11.5559
G01 X5.6727 Y11.5608
G01 X5.6928 Y11.5704
G01 X5.7056 Y11.5781
G01 X5.7176 Y11.5869
G01 X5.7315 Y11.5992
G01 X5.9032 Y11.7709
G01 X6.1079 Y11.9077
G01 X6.3354 Y12.0019
G01 X6.5769 Y12.0499
G01 X6.8185 Y12.0500
G01 X6.8334 Y12.0508
G01 X6.8506 Y12.0533
G01 X6.8674 Y12.0576
G01 X6.8826 Y12.0630
G01 X6.8995 Y12.0708
G01 X6.9123 Y12.0785
G01 X6.9293 Y12.0909
G01 X6.9412 Y12.1018
G01 X7.0384 Y12.1990
G01 X7.0484 Y12.2100
G01 X7.0671 Y12.2329
G01 X7.1813 Y12.3266
G01 X7.3116 Y12.3962
G01 X7.4530 Y12.4391
G01 X7.6000 Y12.4536
G01 X7.6294 Y12.4507
G01 X7.6455 Y12.4499
G01 X8.9896 Y12.4500
G01 X9.0058 Y12.4508
G01 X9.0229 Y12.4533
G01 X9.0398 Y12.4576
G01 X9.0562 Y12.4634
G01 X9.0740 Y12.4721
G01 X9.0868 Y12.4798
G01 X9.1007 Y12.4901
G01 X9.1153 Y12.5036
G01 X9.1253 Y12.5147
G01 X9.1342 Y12.5266
G01 X9.1446 Y12.5435
G01 X9.1529 Y12.5615
G01 X9.1578 Y12.5756
G01 X9.1615 Y12.5901
G01 X9.1646 Y12.6096
G01 X9.1655 Y12.6270
G01 X9.1646 Y12.6444
G01 X9.1621 Y12.6615
G01 X9.1571 Y12.6807
G01 X9.1520 Y12.6948
G01 X9.1451 Y12.7094
G01 X9.0895 Y12.8135
G01 X9.0580 Y12.9172
G01 X9.0468 Y13.0311
G01 X9.0479 Y13.0698
G01 X9.1281 Y13.1499
G01 X9.5730 Y13.1499
G01 X9.5839 Y13.1270
G01 X9.5971 Y13.1048
G01 X9.6153 Y13.0801
G01 X9.6360 Y13.0575
G01 X9.6551 Y13.0403
G01 X9.6758 Y13.0249
G01 X9.7020 Y13.0089
G01 X9.7298 Y12.9960
G01 X9.7540 Y12.9874
G01 X9.7790 Y12.9811
G01 X9.8105 Y12.9763
G01 X9.8375 Y12.9750
G01 X10.4125 Y12.9750
G01 X10.4407 Y12.9764
G01 X10.4686 Y12.9805
G01 X10.4936 Y12.9867
G01 X10.5248 Y12.9979
G01 X10.5480 Y13.0089
G01 X10.5722 Y13.0235
G01 X10.5949 Y13.0403
G01 X10.6149 Y13.0583
G01 X10.6347 Y13.0801
G01 X10.6501 Y13.1008
G01 X10.6672 Y13.1292
G01 X10.6781 Y13.1525
G01 X10.6876 Y13.1790
G01 X10.6945 Y13.2064
G01 X10.6985 Y13.2331
G01 X10.7000 Y13.2625
G01 X10.6999 Y13.7400
G01 X10.6983 Y13.7681
G01 X10.6945 Y13.7936
G01 X10.6883 Y13.8186
G01 X10.6781 Y13.8475
G01 X10.6661 Y13.8730
G01 X10.6501 Y13.8992
G01 X10.6347 Y13.9199
G01 X10.6175 Y13.9390
G01 X10.5949 Y13.9597
G01 X10.5702 Y13.9779
G01 X10.5480 Y13.9911
G01 X10.5248 Y14.0021
G01 X10.4983 Y14.0119
G01 X10.4686 Y14.0195
G01 X10.4382 Y14.0238
G01 X10.4125 Y14.0250
G01 X9.8375 Y14.0250
G01 X9.8093 Y14.0236
G01 X9.7790 Y14.0189
G01 X9.7540 Y14.0126
G01 X9.7298 Y14.0040
G01 X9.7020 Y13.9911
G01 X9.6758 Y13.9751
G01 X9.6551 Y13.9597
G01 X9.6360 Y13.9425
G01 X9.6153 Y13.9199
G01 X9.5971 Y13.8952
G01 X9.5839 Y13.8730
G01 X9.5730 Y13.8501
G01 X9.1281 Y13.8501
G01 X9.0479 Y13.9302
G01 X9.0468 Y13.9689
G01 X9.0580 Y14.0828
G01 X9.0895 Y14.1865
G01 X9.1446 Y14.2895
G01 X9.1515 Y14.3041
G01 X9.1585 Y14.3240
G01 X9.1621 Y14.3385
G01 X9.1647 Y14.3569
G01 X9.1654 Y14.3755
G01 X9.1646 Y14.3904
G01 X9.1625 Y14.4051
G01 X9.1578 Y14.4244
G01 X9.1510 Y14.4430
G01 X9.1446 Y14.4565
G01 X9.1369 Y14.4693
G01 X9.1253 Y14.4853
G01 X9.1118 Y14.4999
G01 X9.1007 Y14.5099
G01 X9.0888 Y14.5188
G01 X9.0697 Y14.5303
G01 X9.0562 Y14.5366
G01 X9.0398 Y14.5424
G01 X9.0205 Y14.5471
G01 X9.0058 Y14.5492
G01 X8.9896 Y14.5500
G01 X8.1828 Y14.5500
G01 X8.1666 Y14.5492
G01 X8.1519 Y14.5471
G01 X8.1326 Y14.5424
G01 X8.1162 Y14.5366
G01 X8.1027 Y14.5303
G01 X8.0846 Y14.5195
G01 X8.0717 Y14.5099
G01 X8.0597 Y14.4991
G01 X8.0009 Y14.4403
G01 X7.9901 Y14.4284
G01 X7.9812 Y14.4164
G01 X7.9708 Y14.3995
G01 X7.9634 Y14.3838
G01 X7.9576 Y14.3674
G01 X7.9533 Y14.3506
G01 X7.9507 Y14.3322
G01 X7.9499 Y14.3160
G01 X7.9499 Y14.0769
G01 X7.9019 Y13.8354
G01 X7.8077 Y13.6079
G01 X7.6709 Y13.4032
G01 X7.4968 Y13.2291
G01 X7.2921 Y13.0923
G01 X7.0646 Y12.9981
G01 X6.8231 Y12.9501
G01 X6.5769 Y12.9501
G01 X6.3354 Y12.9981
G01 X6.1079 Y13.0923
G01 X5.9032 Y13.2291
G01 X5.7291 Y13.4032
G01 X5.5923 Y13.6079
G01 X5.4981 Y13.8354
G01 X5.4501 Y14.0769
G01 X5.4501 Y14.3231
G01 X5.4981 Y14.5646
G01 X5.5923 Y14.7921
G01 X5.7291 Y14.9968
G01 X5.9032 Y15.1709
G01 X6.1079 Y15.3077
G01 X6.3354 Y15.4019
G01 X6.5769 Y15.4499
G01 X6.8160 Y15.4499
G01 X6.8322 Y15.4507
G01 X6.8506 Y15.4533
G01 X6.8674 Y15.4576
G01 X6.8838 Y15.4634
G01 X6.8984 Y15.4703
G01 X6.9164 Y15.4812
G01 X6.9284 Y15.4901
G01 X6.9412 Y15.5018
G01 X7.2375 Y15.7981
G01 X7.2484 Y15.8100
G01 X7.2672 Y15.8329
G01 X7.3813 Y15.9266
G01 X7.5116 Y15.9962
G01 X7.6530 Y16.0391
G01 X7.8000 Y16.0536
G01 X7.8294 Y16.0507
G01 X7.8455 Y16.0499
G01 X9.3167 Y16.0499
G01 X9.3341 Y16.0508
G01 X9.3513 Y16.0533
G01 X9.3681 Y16.0576
G01 X9.3845 Y16.0634
G01 X9.3991 Y16.0703
G01 X9.4171 Y16.0812
G01 X9.4281 Y16.0894
G01 X9.4544 Y16.1109
G01 X9.5736 Y16.1746
G01 X9.7030 Y16.2139
G01 X9.8462 Y16.2280
G01 X10.2730 Y16.2280
G01 X10.2879 Y16.2286
G01 X10.3075 Y16.2314
G01 X10.3244 Y16.2356
G01 X10.3408 Y16.2414
G01 X10.3575 Y16.2495
G01 X10.3714 Y16.2578
G01 X10.3834 Y16.2667
G01 X10.3982 Y16.2798
G01 X10.4114 Y16.2946
G01 X10.4202 Y16.3067
G01 X10.4279 Y16.3194
G01 X10.4366 Y16.3373
G01 X10.4431 Y16.3560
G01 X10.4467 Y16.3705
G01 X10.4489 Y16.3852
G01 X10.4500 Y16.4038
G01 X10.4501 Y16.6747
G01 X10.4492 Y16.6921
G01 X10.4469 Y16.7081
G01 X10.4424 Y16.7261
G01 X10.4366 Y16.7425
G01 X10.4292 Y16.7582
G01 X10.4209 Y16.7721
G01 X10.4083 Y16.7889
G01 X10.3991 Y16.7991
G01 X10.3751 Y16.8231
G01 X10.3751 Y17.2450
G01 X10.8512 Y17.2450
G01 X10.8720 Y17.2463
G01 X10.8890 Y17.2488
G01 X10.9069 Y17.2533
G01 X10.9288 Y17.2612
G01 X10.9443 Y17.2686
G01 X10.9611 Y17.2787
G01 X10.9769 Y17.2904
G01 X10.9896 Y17.3019
G01 X11.0046 Y17.3181
G01 X11.0163 Y17.3339
G01 X11.0252 Y17.3486
G01 X11.0348 Y17.3685
G01 X11.0414 Y17.3869
G01 X11.0456 Y17.4036
G01 X11.0492 Y17.4278
G01 X11.0500 Y17.4450
G01 X11.0500 Y17.7462
G01 X11.0491 Y17.7635
G01 X11.0470 Y17.7795
G01 X11.0424 Y17.7997
G01 X11.0356 Y17.8194
G01 X11.0290 Y17.8341
G01 X11.0212 Y17.8483
G01 X11.0096 Y17.8655
G01 X10.9962 Y17.8814
G01 X10.9847 Y17.8928
G01 X10.9723 Y17.9032
G01 X10.9553 Y17.9150
G01 X10.9371 Y17.9250
G01 X10.9222 Y17.9315
G01 X10.9047 Y17.9374
G01 X10.8845 Y17.9420
G01 X10.8685 Y17.9441
G01 X10.8512 Y17.9450
G01 X10.2798 Y17.9450
G01 X10.2635 Y17.9525
G01 X10.2494 Y17.9574
G01 X10.2349 Y17.9611
G01 X10.2154 Y17.9642
G01 X10.1980 Y17.9651
G01 X9.8495 Y17.9650
G01 X9.8322 Y17.9639
G01 X9.8175 Y17.9617
G01 X9.8030 Y17.9581
G01 X9.7854 Y17.9520
G01 X9.7702 Y17.9450
G01 X9.2000 Y17.9450
G01 X9.1816 Y17.9441
G01 X9.1586 Y17.9406
G01 X9.1419 Y17.9364
G01 X9.1235 Y17.9298
G01 X9.1036 Y17.9202
G01 X9.0889 Y17.9113
G01 X9.0731 Y17.8996
G01 X9.0569 Y17.8846
G01 X9.0454 Y17.8719
G01 X9.0337 Y17.8561
G01 X9.0236 Y17.8393
G01 X9.0162 Y17.8238
G01 X9.0086 Y17.8031
G01 X9.0034 Y17.7816
G01 X9.0010 Y17.7646
G01 X9.0000 Y17.7462
G01 X9.0000 Y17.4450
G01 X9.0009 Y17.4265
G01 X9.0034 Y17.4083
G01 X9.0076 Y17.3903
G01 X9.0127 Y17.3749
G01 X9.0220 Y17.3538
G01 X9.0300 Y17.3397
G01 X9.0390 Y17.3263
G01 X9.0522 Y17.3103
G01 X9.0670 Y17.2957
G01 X9.0795 Y17.2854
G01 X9.0928 Y17.2762
G01 X9.1109 Y17.2660
G01 X9.1299 Y17.2577
G01 X9.1453 Y17.2526
G01 X9.1633 Y17.2484
G01 X9.1815 Y17.2459
G01 X9.2000 Y17.2450
G01 X9.6749 Y17.2450
G01 X9.6749 Y16.8231
G01 X9.5965 Y16.7447
G01 X9.0713 Y16.7417
G01 X8.9533 Y16.7509
G01 X8.8490 Y16.7802
G01 X8.7525 Y16.8294
G01 X8.6673 Y16.8963
G01 X8.5969 Y16.9787
G01 X8.5439 Y17.0731
G01 X8.5261 Y17.1279
G01 X8.5200 Y17.1438
G01 X8.5112 Y17.1612
G01 X8.5034 Y17.1737
G01 X8.4930 Y17.1873
G01 X8.4813 Y17.1998
G01 X8.4685 Y17.2111
G01 X8.4547 Y17.2211
G01 X8.4400 Y17.2298
G01 X8.4244 Y17.2370
G01 X8.4083 Y17.2427
G01 X8.3917 Y17.2468
G01 X8.3736 Y17.2493
G01 X8.3577 Y17.2501
G01 X7.2911 Y17.2501
G01 X7.2737 Y17.2492
G01 X7.2577 Y17.2469
G01 X7.2397 Y17.2424
G01 X7.2233 Y17.2366
G01 X7.2076 Y17.2292
G01 X7.1937 Y17.2209
G01 X7.1769 Y17.2083
G01 X7.1668 Y17.1991
G01 X7.1468 Y17.1791
G01 X6.9421 Y17.0423
G01 X6.7146 Y16.9481
G01 X6.4731 Y16.9001
G01 X6.2269 Y16.9001
G01 X5.9854 Y16.9481
G01 X5.7579 Y17.0423
G01 X5.5532 Y17.1791
G01 X5.3791 Y17.3532
G01 X5.2423 Y17.5579
G01 X5.1481 Y17.7854
G01 X5.1001 Y18.0269
G01 X5.1001 Y18.2731
G01 X5.1092 Y18.3190
G01 X5.1116 Y18.3349
G01 X5.1126 Y18.3535
G01 X5.1118 Y18.3696
G01 X5.1092 Y18.3880
G01 X5.1056 Y18.4025
G01 X5.0981 Y18.4235
G01 X5.0917 Y18.4370
G01 X5.0827 Y18.4519
G01 X5.0724 Y18.4658
G01 X5.0616 Y18.4778
G01 X4.5943 Y18.9452
G01 X4.5814 Y18.9568
G01 X4.5654 Y18.9685
G01 X4.5525 Y18.9761
G01 X4.5391 Y18.9826
G01 X4.5228 Y18.9886
G01 X4.5036 Y18.9936
G01 X4.4852 Y18.9963
G01 X4.4691 Y18.9970
G01 X4.1587 Y18.9970
G01 X4.0325 Y19.0095
G01 X3.9196 Y19.0437
G01 X3.8155 Y19.0994
G01 X3.7242 Y19.1742
G01 X3.6494 Y19.2655
G01 X3.5937 Y19.3696
G01 X3.5595 Y19.4825
G01 X3.5470 Y19.6087
G01 X3.5470 Y19.8913
G01 X3.5595 Y20.0175
G01 X3.5937 Y20.1304
G01 X3.6494 Y20.2345
G01 X3.6732 Y20.2636
G01 X3.6828 Y20.2766
G01 X3.6918 Y20.2915
G01 X3.6992 Y20.3072
G01 X3.7050 Y20.3236
G01 X3.7093 Y20.3405
G01 X3.7118 Y20.3576
G01 X3.7126 Y20.3762
G01 X3.7118 Y20.3924
G01 X3.7093 Y20.4095
G01 X3.7050 Y20.4264
G01 X3.6987 Y20.4439
G01 X3.6918 Y20.4585
G01 X3.6821 Y20.4744
G01 X3.6732 Y20.4864
G01 X3.6494 Y20.5155
G01 X3.5937 Y20.6196
G01 X3.5595 Y20.7325
G01 X3.5470 Y20.8587
G01 X3.5470 Y21.1413
G01 X3.5595 Y21.2675
G01 X3.5937 Y21.3804
G01 X3.6026 Y21.3970
G01 X3.6091 Y21.4108
G01 X3.6155 Y21.4286
G01 X3.6197 Y21.4458
G01 X3.6219 Y21.4609
G01 X3.6229 Y21.4823
G01 X3.6219 Y21.4987
G01 X3.6190 Y21.5162
G01 X3.6145 Y21.5333
G01 X3.6078 Y21.5511
G01 X3.6004 Y21.5658
G01 X3.5903 Y21.5818
G01 X3.5802 Y21.5948
G01 X3.5476 Y21.6327
G01 X3.4944 Y21.7271
G01 X3.4602 Y21.8311
G01 X3.4601 Y21.8320
G01 X3.5281 Y21.8999
G01 X4.5953 Y21.8999
G01 X4.6115 Y21.8925
G01 X4.6256 Y21.8876
G01 X4.6401 Y21.8839
G01 X4.6596 Y21.8808
G01 X4.6770 Y21.8799
G01 X5.0255 Y21.8800
G01 X5.0428 Y21.8811
G01 X5.0575 Y21.8833
G01 X5.0720 Y21.8869
G01 X5.0896 Y21.8930
G01 X5.1047 Y21.8999
G01 X6.1719 Y21.8999
G01 X6.2412 Y21.8306
G01 X6.2415 Y21.8173
G01 X6.2432 Y21.8021
G01 X6.2471 Y21.7835
G01 X6.2530 Y21.7654
G01 X6.2608 Y21.7481
G01 X6.2704 Y21.7317
G01 X6.2793 Y21.7193
G01 X6.2894 Y21.7078
G01 X6.3040 Y21.6938
G01 X6.3192 Y21.6824
G01 X6.3333 Y21.6738
G01 X6.3493 Y21.6661
G01 X6.3660 Y21.6600
G01 X6.3820 Y21.6559
G01 X6.4008 Y21.6530
G01 X6.5274 Y21.6405
G01 X6.6499 Y21.6034
G01 X6.7628 Y21.5430
G01 X6.8618 Y21.4618
G01 X6.8774 Y21.4428
G01 X6.8883 Y21.4308
G01 X8.2956 Y20.0235
G01 X8.3076 Y20.0127
G01 X8.3216 Y20.0024
G01 X8.3365 Y19.9934
G01 X8.3500 Y19.9870
G01 X8.3709 Y19.9795
G01 X8.3854 Y19.9759
G01 X8.4038 Y19.9733
G01 X8.4200 Y19.9725
G01 X8.4349 Y19.9732
G01 X8.4545 Y19.9759
G01 X8.4714 Y19.9801
G01 X8.4854 Y19.9851
G01 X8.5056 Y19.9946
G01 X8.5183 Y20.0024
G01 X8.5323 Y20.0127
G01 X8.5452 Y20.0244
G01 X8.5552 Y20.0354
G01 X8.5679 Y20.0522
G01 X8.5761 Y20.0661
G01 X8.5826 Y20.0796
G01 X8.5901 Y20.1006
G01 X8.5936 Y20.1150
G01 X8.5963 Y20.1335
G01 X8.5970 Y20.1496
G01 X8.5970 Y20.2763
G01 X8.6095 Y20.4025
G01 X8.6437 Y20.5154
G01 X8.6994 Y20.6195
G01 X8.7322 Y20.6596
G01 X8.7410 Y20.6716
G01 X8.7500 Y20.6865
G01 X8.7574 Y20.7022
G01 X8.7632 Y20.7186
G01 X8.7675 Y20.7355
G01 X8.7699 Y20.7514
G01 X8.7709 Y20.7700
G01 X8.7697 Y20.7898
G01 X8.7675 Y20.8045
G01 X8.7639 Y20.8190
G01 X8.7574 Y20.8378
G01 X8.7500 Y20.8535
G01 X8.7403 Y20.8694
G01 X8.7307 Y20.8823
G01 X8.6994 Y20.9205
G01 X8.6437 Y21.0246
G01 X8.6095 Y21.1375
G01 X8.5970 Y21.2637
G01 X8.5970 Y21.5463
G01 X8.6095 Y21.6725
G01 X8.6437 Y21.7854
G01 X8.6994 Y21.8895
G01 X8.7742 Y21.9808
G01 X8.8655 Y22.0556
G01 X8.9696 Y22.1113
G01 X9.0825 Y22.1455
G01 X9.2087 Y22.1580
G01 X10.8413 Y22.1580
G01 X10.9142 Y22.1508
G01 X10.9316 Y22.1499
G01 X14.0684 Y22.1499
G01 X14.0858 Y22.1508
G01 X14.1587 Y22.1580
G01 X15.7913 Y22.1580
G01 X15.9175 Y22.1455
G01 X16.0274 Y22.1122
G01 X16.0431 Y22.1083
G01 X16.0615 Y22.1057
G01 X16.0776 Y22.1049
G01 X16.3519 Y22.1049
G01 X16.3681 Y22.1057
G01 X16.3950 Y22.1083
G01 X16.5322 Y22.0948
G01 X16.6641 Y22.0548
G01 X16.7857 Y21.9898
G01 X16.8923 Y21.9023
G01 X16.9095 Y21.8814
G01 X16.9204 Y21.8695
G01 X17.7645 Y21.0254
G01 X17.7755 Y21.0153
G01 X17.7836 Y21.0086
G01 X17.7956 Y20.9997
G01 X17.8104 Y20.9907
G01 X17.8272 Y20.9827
G01 X17.8424 Y20.9772
G01 X17.8604 Y20.9726
G01 X17.8776 Y20.9700
G01 X17.8950 Y20.9692
G01 X17.9135 Y20.9702
G01 X17.9295 Y20.9726
G01 X17.9440 Y20.9762
G01 X17.9627 Y20.9827
G01 X17.9806 Y20.9913
G01 X17.9933 Y20.9990
G01 X18.0054 Y21.0079
G01 X18.0202 Y21.0210
G01 X18.0333 Y21.0359
G01 X18.0422 Y21.0479
G01 X18.0499 Y21.0606
G01 X18.0581 Y21.0774
G01 X18.0651 Y21.0972
G01 X18.0686 Y21.1117
G01 X18.0710 Y21.1277
G01 X18.0720 Y21.1438
G01 X18.0720 Y21.1538
G01 X18.0861 Y21.2970
G01 X18.1254 Y21.4264
G01 X18.1338 Y21.4440
G01 X18.1400 Y21.4615
G01 X18.1439 Y21.4772
G01 X18.1461 Y21.4919
G01 X18.1473 Y21.5117
G01 X18.1464 Y21.5291
G01 X18.1443 Y21.5438
G01 X18.1396 Y21.5631
G01 X18.1328 Y21.5817
G01 X18.1264 Y21.5952
G01 X18.1181 Y21.6091
G01 X18.1071 Y21.6240
G01 X18.0963 Y21.6360
G01 X18.0291 Y21.7032
G01 X17.8923 Y21.9079
G01 X17.7981 Y22.1354
G01 X17.7501 Y22.3769
G01 X17.7501 Y22.6231
G01 X17.7981 Y22.8646
G01 X17.8923 Y23.0921
G01 X18.0291 Y23.2968
G01 X18.2032 Y23.4709
G01 X18.4079 Y23.6077
G01 X18.6354 Y23.7019
G01 X18.8769 Y23.7499
G01 X19.1231 Y23.7499
G01 X19.3646 Y23.7019
G01 X19.5921 Y23.6077
G01 X19.7968 Y23.4709
G01 X19.9709 Y23.2968
G01 X20.1077 Y23.0921
G01 X20.2019 Y22.8646
G01 X20.2499 Y22.6231
G01 X20.2499 Y22.3769
G01 X20.2019 Y22.1354
G01 X20.1077 Y21.9079
G01 X19.9709 Y21.7032
G01 X19.9037 Y21.6360
G01 X19.8929 Y21.6240
G01 X19.8826 Y21.6101
G01 X19.8736 Y21.5952
G01 X19.8653 Y21.5772
G01 X19.8604 Y21.5631
G01 X19.8567 Y21.5486
G01 X19.8537 Y21.5303
G01 X19.8527 Y21.5117
G01 X19.8536 Y21.4944
G01 X19.8561 Y21.4772
G01 X19.8597 Y21.4627
G01 X19.8662 Y21.4440
G01 X19.8746 Y21.4264
G01 X19.9139 Y21.2970
G01 X19.9280 Y21.1538
G01 X19.9280 Y20.5962
G01 X19.9139 Y20.4530
G01 X19.8746 Y20.3236
G01 X19.8109 Y20.2044
G01 X19.7346 Y20.1114
G01 X19.7250 Y20.0984
G01 X19.7167 Y20.0845
G01 X19.7086 Y20.0678
G01 X19.7021 Y20.0490
G01 X19.6986 Y20.0345
G01 X19.6963 Y20.0198
G01 X19.6952 Y19.9988
G01 X19.6963 Y19.9802
G01 X19.6986 Y19.9655
G01 X19.7021 Y19.9510
G01 X19.7086 Y19.9322
G01 X19.7167 Y19.9155
G01 X19.7250 Y19.9016
G01 X19.7346 Y19.8886
G01 X19.8109 Y19.7956
G01 X19.8746 Y19.6764
G01 X19.9139 Y19.5470
G01 X19.9280 Y19.4038
G01 X19.9280 Y18.8462
G01 X19.9139 Y18.7030
G01 X19.8746 Y18.5736
G01 X19.8109 Y18.4544
G01 X19.7251 Y18.3499
G01 X19.7137 Y18.3405
G01 X19.7027 Y18.3305
G01 X19.6894 Y18.3158
G01 X19.6798 Y18.3028
G01 X19.6708 Y18.2879
G01 X19.6634 Y18.2722
G01 X19.6572 Y18.2546
G01 X19.6529 Y18.2365
G01 X19.6508 Y18.2218
G01 X19.6500 Y18.2056
G01 X19.6499 Y17.9107
G01 X19.6511 Y17.8909
G01 X19.6533 Y17.8761
G01 X19.6572 Y17.8605
G01 X19.6634 Y17.8429
G01 X19.6708 Y17.8272
G01 X19.6798 Y17.8123
G01 X19.6886 Y17.8003
G01 X19.7018 Y17.7855
G01 X19.7137 Y17.7746
G01 X19.7197 Y17.7697
G01 X19.7759 Y17.7012
G01 X19.8177 Y17.6230
G01 X19.8434 Y17.5382
G01 X19.8530 Y17.4413
G01 X19.8530 Y17.1554
G01 X19.8538 Y17.1380
G01 X19.8564 Y17.1208
G01 X19.8599 Y17.1063
G01 X19.8664 Y17.0876
G01 X19.8751 Y17.0698
G01 X19.8828 Y17.0570
G01 X19.8924 Y17.0440
G01 X19.9048 Y17.0302
G01 X19.9168 Y17.0193
G01 X19.9868 Y16.9618
G01 X20.0024 Y16.9428
G01 X20.0133 Y16.9308
G01 X21.4432 Y15.5009
G01 X21.4552 Y15.4901
G01 X21.4692 Y15.4798
G01 X21.4841 Y15.4708
G01 X21.4998 Y15.4634
G01 X21.5162 Y15.4576
G01 X21.5330 Y15.4533
G01 X21.5502 Y15.4508
G01 X21.5663 Y15.4500
G01 X21.9712 Y15.4500
G01 X21.9898 Y15.4511
G01 X22.0045 Y15.4533
G01 X22.0202 Y15.4572
G01 X22.0400 Y15.4644
G01 X22.0534 Y15.4708
G01 X22.0683 Y15.4798
G01 X22.0823 Y15.4901
G01 X22.0934 Y15.5001
G01 X22.1068 Y15.5147
G01 X22.1185 Y15.5307
G01 X22.1261 Y15.5435
G01 X22.1336 Y15.5592
G01 X22.1394 Y15.5756
G01 X22.1431 Y15.5901
G01 X22.1464 Y15.6121
G01 X22.1470 Y15.6270
G01 X22.1470 Y17.4413
G01 X22.1566 Y17.5382
G01 X22.1823 Y17.6230
G01 X22.2314 Y17.7149
G01 X22.2383 Y17.7295
G01 X22.2437 Y17.7447
G01 X22.2483 Y17.7627
G01 X22.2509 Y17.7799
G01 X22.2517 Y17.7973
G01 X22.2510 Y17.8134
G01 X22.2478 Y17.8342
G01 X22.2441 Y17.8487
G01 X22.2383 Y17.8650
G01 X22.2296 Y17.8829
G01 X22.2219 Y17.8956
G01 X22.2131 Y17.9077
G01 X22.2007 Y17.9216
G01 X22.1889 Y17.9325
G01 X22.1374 Y17.9749
G01 X22.0516 Y18.0794
G01 X21.9879 Y18.1986
G01 X21.9486 Y18.3280
G01 X21.9345 Y18.4712
G01 X21.9345 Y18.9288
G01 X21.9486 Y19.0720
G01 X21.9879 Y19.2014
G01 X22.0516 Y19.3206
G01 X22.1374 Y19.4251
G01 X22.1622 Y19.4455
G01 X22.1724 Y19.4547
G01 X22.1850 Y19.4684
G01 X22.1962 Y19.4833
G01 X22.2039 Y19.4960
G01 X22.2134 Y19.5162
G01 X22.2184 Y19.5302
G01 X22.2226 Y19.5471
G01 X22.2253 Y19.5667
G01 X22.2260 Y19.5816
G01 X22.2253 Y19.5978
G01 X22.2226 Y19.6162
G01 X22.2190 Y19.6307
G01 X22.2115 Y19.6516
G01 X22.2051 Y19.6651
G01 X22.1962 Y19.6800
G01 X22.1858 Y19.6940
G01 X22.1758 Y19.7050
G01 X22.1613 Y19.7185
G01 X22.1463 Y19.7295
G01 X22.1324 Y19.7378
G01 X22.0805 Y19.7655
G01 X21.9968 Y19.8343
G01 X21.9280 Y19.9180
G01 X21.8770 Y20.0135
G01 X21.8455 Y20.1172
G01 X21.8343 Y20.2311
G01 X21.8354 Y20.2698
G01 X21.9156 Y20.3499
G01 X22.3605 Y20.3499
G01 X22.3714 Y20.3270
G01 X22.3846 Y20.3048
G01 X22.4012 Y20.2820
G01 X22.4217 Y20.2592
G01 X22.4426 Y20.2403
G01 X22.4673 Y20.2221
G01 X22.4895 Y20.2089
G01 X22.5127 Y20.1979
G01 X22.5415 Y20.1874
G01 X22.5689 Y20.1805
G01 X22.5968 Y20.1764
G01 X22.6250 Y20.1750
G01 X23.2012 Y20.1750
G01 X23.2306 Y20.1767
G01 X23.2561 Y20.1805
G01 X23.2811 Y20.1867
G01 X23.3100 Y20.1969
G01 X23.3377 Y20.2102
G01 X23.3597 Y20.2235
G01 X23.3805 Y20.2387
G01 X23.4033 Y20.2592
G01 X23.4238 Y20.2820
G01 X23.4390 Y20.3028
G01 X23.4523 Y20.3248
G01 X23.4656 Y20.3525
G01 X23.4758 Y20.3814
G01 X23.4820 Y20.4064
G01 X23.4858 Y20.4319
G01 X23.4874 Y20.4600
G01 X23.4875 Y20.9375
G01 X23.4861 Y20.9657
G01 X23.4817 Y20.9948
G01 X23.4751 Y21.0210
G01 X23.4665 Y21.0452
G01 X23.4536 Y21.0730
G01 X23.4390 Y21.0972
G01 X23.4238 Y21.1180
G01 X23.4033 Y21.1408
G01 X23.3805 Y21.1613
G01 X23.3597 Y21.1765
G01 X23.3355 Y21.1911
G01 X23.3077 Y21.2040
G01 X23.2835 Y21.2126
G01 X23.2626 Y21.2179
G01 X23.2626 Y21.6469
G01 X23.3480 Y21.7323
G01 X23.3588 Y21.7443
G01 X23.3698 Y21.7593
G01 X23.3781 Y21.7732
G01 X23.3845 Y21.7867
G01 X23.3913 Y21.8053
G01 X23.3960 Y21.8245
G01 X23.3981 Y21.8393
G01 X23.3990 Y21.8567
G01 X23.3981 Y21.8740
G01 X23.3956 Y21.8912
G01 X23.3913 Y21.9081
G01 X23.3864 Y21.9221
G01 X23.2981 Y22.1354
G01 X23.2501 Y22.3769
G01 X23.2501 Y22.6231
G01 X23.2981 Y22.8646
G01 X23.3923 Y23.0921
G01 X23.5291 Y23.2968
G01 X23.7032 Y23.4709
G01 X23.9079 Y23.6077
G01 X24.1354 Y23.7019
G01 X24.3769 Y23.7499
G01 X24.6231 Y23.7499
G01 X24.8646 Y23.7019
G01 X25.0921 Y23.6077
G01 X25.2968 Y23.4709
G01 X25.4709 Y23.2968
G01 X25.6077 Y23.0921
G01 X25.7019 Y22.8646
G01 X25.7499 Y22.6231
G01 X25.7499 Y22.3769
G01 X25.7019 Y22.1354
G01 X25.6077 Y21.9079
G01 X25.4844 Y21.7233
G01 X25.4768 Y21.7105
G01 X25.4693 Y21.6948
G01 X25.4635 Y21.6784
G01 X25.4590 Y21.6603
G01 X25.4567 Y21.6444
G01 X25.4559 Y21.6295
G01 X25.4570 Y21.6072
G01 X25.4593 Y21.5925
G01 X25.4635 Y21.5756
G01 X25.4693 Y21.5592
G01 X25.4757 Y21.5457
G01 X25.4871 Y21.5266
G01 X25.4960 Y21.5147
G01 X25.5077 Y21.5018
G01 X25.5206 Y21.4901
G01 X25.5325 Y21.4812
G01 X25.5505 Y21.4703
G01 X25.5652 Y21.4634
G01 X25.5815 Y21.4576
G01 X25.5984 Y21.4533
G01 X25.6168 Y21.4507
G01 X25.6329 Y21.4499
G01 X25.6909 Y21.4499
G01 X25.7058 Y21.4506
G01 X25.7255 Y21.4533
G01 X25.7423 Y21.4576
G01 X25.7587 Y21.4634
G01 X25.7744 Y21.4708
G01 X25.7893 Y21.4798
G01 X25.8013 Y21.4886
G01 X25.8161 Y21.5018
G01 X25.8303 Y21.5178
G01 X25.8988 Y21.5740
G01 X25.9770 Y21.6158
G01 X26.0618 Y21.6415
G01 X26.1587 Y21.6510
G01 X27.6413 Y21.6510
G01 X27.7382 Y21.6415
G01 X27.8230 Y21.6158
G01 X27.9012 Y21.5740
G01 X27.9697 Y21.5178
G01 X28.0259 Y21.4492
G01 X28.0677 Y21.3711
G01 X28.0934 Y21.2863
G01 X28.1030 Y21.1894
G01 X28.1030 Y20.2068
G01 X28.0934 Y20.1099
G01 X28.0677 Y20.0250
G01 X28.0259 Y19.9469
G01 X27.9697 Y19.8784
G01 X27.9174 Y19.8354
G01 X27.9045 Y19.8238
G01 X27.8913 Y19.8090
G01 X27.8825 Y19.7969
G01 X27.8748 Y19.7842
G01 X27.8661 Y19.7663
G01 X27.8596 Y19.7476
G01 X27.8561 Y19.7331
G01 X27.8538 Y19.7184
G01 X27.8527 Y19.6986
G01 X27.8538 Y19.6788
G01 X27.8561 Y19.6640
G01 X27.8596 Y19.6495
G01 X27.8661 Y19.6308
G01 X27.8748 Y19.6130
G01 X27.8825 Y19.6002
G01 X27.8913 Y19.5882
G01 X27.9045 Y19.5734
G01 X27.9174 Y19.5617
G01 X27.9697 Y19.5188
G01 X28.0259 Y19.4503
G01 X28.0677 Y19.3721
G01 X28.0934 Y19.2873
G01 X28.1030 Y19.1904
G01 X28.1030 Y18.2078
G01 X28.0934 Y18.1109
G01 X28.0677 Y18.0261
G01 X28.0259 Y17.9479
G01 X27.9697 Y17.8794
G01 X27.9158 Y17.8352
G01 X27.9038 Y17.8244
G01 X27.8913 Y17.8106
G01 X27.8809 Y17.7967
G01 X27.8720 Y17.7818
G01 X27.8656 Y17.7683
G01 X27.8587 Y17.7497
G01 X27.8541 Y17.7304
G01 X27.8520 Y17.7157
G01 X27.8511 Y17.6983
G01 X27.8520 Y17.6810
G01 X27.8541 Y17.6662
G01 X27.8587 Y17.6469
G01 X27.8656 Y17.6283
G01 X27.8720 Y17.6149
G01 X27.8809 Y17.5999
G01 X27.8913 Y17.5860
G01 X27.9038 Y17.5723
G01 X27.9158 Y17.5614
G01 X27.9697 Y17.5173
G01 X28.0259 Y17.4487
G01 X28.0677 Y17.3706
G01 X28.0934 Y17.2858
G01 X28.1030 Y17.1889
G01 X28.1030 Y16.2063
G01 X28.0934 Y16.1094
G01 X28.0677 Y16.0245
G01 X28.0259 Y15.9464
G01 X27.9697 Y15.8779
G01 X27.9189 Y15.8362
G01 X27.9061 Y15.8245
G01 X27.8929 Y15.8097
G01 X27.8840 Y15.7977
G01 X27.8763 Y15.7849
G01 X27.8677 Y15.7671
G01 X27.8612 Y15.7484
G01 X27.8576 Y15.7339
G01 X27.8554 Y15.7191
G01 X27.8542 Y15.6993
G01 X27.8551 Y15.6820
G01 X27.8572 Y15.6672
G01 X27.8618 Y15.6479
G01 X27.8677 Y15.6316
G01 X27.8740 Y15.6181
G01 X27.8840 Y15.6010
G01 X27.8944 Y15.5870
G01 X27.9069 Y15.5733
G01 X27.9189 Y15.5625
G01 X27.9697 Y15.5208
G01 X28.0259 Y15.4523
G01 X28.0677 Y15.3741
G01 X28.0934 Y15.2893
G01 X28.1030 Y15.1924
G01 X28.1030 Y14.2098
G01 X28.0934 Y14.1129
G01 X28.0677 Y14.0281
G01 X28.0259 Y13.9499
G01 X27.9697 Y13.8814
G01 X27.9174 Y13.8385
G01 X27.9045 Y13.8268
G01 X27.8913 Y13.8120
G01 X27.8825 Y13.8000
G01 X27.8748 Y13.7872
G01 X27.8661 Y13.7694
G01 X27.8596 Y13.7507
G01 X27.8561 Y13.7362
G01 X27.8538 Y13.7214
G01 X27.8527 Y13.7016
G01 X27.8535 Y13.6843
G01 X27.8556 Y13.6695
G01 X27.8603 Y13.6502
G01 X27.8671 Y13.6316
G01 X27.8736 Y13.6182
G01 X27.8825 Y13.6033
G01 X27.8928 Y13.5893
G01 X27.9054 Y13.5756
G01 X27.9174 Y13.5648
G01 X27.9697 Y13.5218
G01 X28.0259 Y13.4533
G01 X28.0677 Y13.3752
G01 X28.0934 Y13.2903
G01 X28.1030 Y13.1934
G01 X28.1030 Y12.2108
G01 X28.0934 Y12.1139
G01 X28.0677 Y12.0291
G01 X28.0259 Y11.9510
G01 X27.9697 Y11.8824
G01 X27.9158 Y11.8383
G01 X27.9047 Y11.8283
G01 X27.8913 Y11.8137
G01 X27.8816 Y11.8008
G01 X27.8709 Y11.7827
G01 X27.8646 Y11.7691
G01 X27.8587 Y11.7528
G01 X27.8541 Y11.7335
G01 X27.8520 Y11.7187
G01 X27.8511 Y11.7014
G01 X27.8520 Y11.6840
G01 X27.8541 Y11.6693
G01 X27.8587 Y11.6500
G01 X27.8656 Y11.6314
G01 X27.8720 Y11.6179
G01 X27.8809 Y11.6030
G01 X27.8913 Y11.5891
G01 X27.9038 Y11.5753
G01 X27.9158 Y11.5645
G01 X27.9697 Y11.5203
G01 X28.0259 Y11.4518
G01 X28.0677 Y11.3736
G01 X28.0934 Y11.2888
G01 X28.1030 Y11.1919
G01 X28.1030 Y10.2093
G01 X28.0934 Y10.1124
G01 X28.0677 Y10.0276
G01 X28.0259 Y9.9494
G01 X27.9697 Y9.8809
G01 X27.9174 Y9.8380
G01 X27.9045 Y9.8263
G01 X27.8913 Y9.8115
G01 X27.8825 Y9.7995
G01 X27.8748 Y9.7867
G01 X27.8661 Y9.7689
G01 X27.8596 Y9.7502
G01 X27.8561 Y9.7357
G01 X27.8538 Y9.7209
G01 X27.8527 Y9.7011
G01 X27.8538 Y9.6813
G01 X27.8561 Y9.6666
G01 X27.8596 Y9.6521
G01 X27.8661 Y9.6334
G01 X27.8748 Y9.6155
G01 X27.8825 Y9.6028
G01 X27.8913 Y9.5907
G01 X27.9045 Y9.5759
G01 X27.9174 Y9.5643
G01 X27.9697 Y9.5213
G01 X28.0259 Y9.4528
G01 X28.0677 Y9.3747
G01 X28.0934 Y9.2898
G01 X28.1030 Y9.1929
G01 X28.1030 Y8.2103
G01 X28.0934 Y8.1134
G01 X28.0677 Y8.0286
G01 X28.0259 Y7.9505
G01 X27.9697 Y7.8819
G01 X27.9012 Y7.8257
G01 X27.8230 Y7.7839
G01 X27.7382 Y7.7582
G01 X27.6413 Y7.7487
G01 X26.2399 Y7.7487
G01 X26.2214 Y7.7475
G01 X26.2066 Y7.7453
G01 X26.1921 Y7.7417
G01 X26.1734 Y7.7352
G01 X26.1577 Y7.7278
G01 X26.1428 Y7.7188
G01 X26.1308 Y7.7100
G01 X26.1160 Y7.6968
G01 X24.9883 Y6.5692
G01 X24.9774 Y6.5572
G01 X24.9618 Y6.5382
G01 X24.8628 Y6.4570
G01 X24.7801 Y6.4128
G01 X24.7663 Y6.4044
G01 X24.7514 Y6.3933
G01 X24.7395 Y6.3824
G01 X24.7286 Y6.3705
G01 X24.6501 Y6.2749
G01 X24.5897 Y6.2253
G01 X24.5786 Y6.2153
G01 X24.5651 Y6.2007
G01 X24.5541 Y6.1857
G01 X24.5458 Y6.1718
G01 X24.5394 Y6.1584
G01 X24.5326 Y6.1398
G01 X24.5279 Y6.1205
G01 X24.5258 Y6.1057
G01 X24.5250 Y6.0908
G01 X24.5250 Y6.0663
G01 X24.5256 Y6.0526
G01 X24.5283 Y6.0330
G01 X24.5326 Y6.0162
G01 X24.5375 Y6.0021
G01 X24.5458 Y5.9841
G01 X24.5562 Y5.9672
G01 X24.5651 Y5.9552
G01 X24.5759 Y5.9432
G01 X24.7308 Y5.7883
G01 X24.7428 Y5.7774
G01 X24.7618 Y5.7618
G01 X24.8430 Y5.6628
G01 X24.9034 Y5.5499
G01 X24.9405 Y5.4274
G01 X24.9531 Y5.3000
G01 X24.9507 Y5.2755
G01 X24.9499 Y5.2594
G01 X24.9500 Y4.9349
G01 X24.9508 Y4.9188
G01 X24.9533 Y4.9016
G01 X24.9576 Y4.8848
G01 X24.9634 Y4.8684
G01 X24.9708 Y4.8527
G01 X24.9798 Y4.8378
G01 X24.9901 Y4.8238
G01 X25.0018 Y4.8110
G01 X25.0147 Y4.7993
G01 X25.0276 Y4.7896
G01 X25.0425 Y4.7806
G01 X25.0512 Y4.7759
G01 X25.1197 Y4.7197
G01 X25.1759 Y4.6512
G01 X25.2177 Y4.5730
G01 X25.2434 Y4.4882
G01 X25.2530 Y4.3913
G01 X25.2530 Y3.7587
G01 X25.2434 Y3.6618
G01 X25.2177 Y3.5770
G01 X25.1759 Y3.4988
G01 X25.1197 Y3.4303
G01 X25.0512 Y3.3741
G01 X24.9730 Y3.3323
G01 X24.8882 Y3.3066
G01 X24.7913 Y3.2970
G01 X23.7587 Y3.2970
G01 X23.6618 Y3.3066
G01 X23.5770 Y3.3323
G01 X23.4988 Y3.3741
G01 X23.4847 Y3.3856
G01 X23.4717 Y3.3952
G01 X23.4568 Y3.4042
G01 X23.4433 Y3.4106
G01 X23.4247 Y3.4174
G01 X23.4091 Y3.4214
G01 X23.3907 Y3.4242
G01 X23.3758 Y3.4250
G01 X21.0254 Y3.4250
G01 X21.0093 Y3.4242
G01 X20.9921 Y3.4217
G01 X20.9753 Y3.4174
G01 X20.9567 Y3.4106
G01 X20.9432 Y3.4042
G01 X20.9283 Y3.3952
G01 X20.9153 Y3.3856
G01 X20.9012 Y3.3741
G01 X20.8230 Y3.3323
G01 X20.7382 Y3.3066
G01 X20.6413 Y3.2970
G01 X19.6087 Y3.2970
G01 X19.5118 Y3.3066
G01 X19.4270 Y3.3323
G01 X19.3488 Y3.3741
G01 X19.2803 Y3.4303
G01 X19.2241 Y3.4988
G01 X19.1823 Y3.5770
G01 X19.1566 Y3.6618
G01 X19.1470 Y3.7587
G01 X19.1470 Y4.3913
G01 X19.1566 Y4.4882
G01 X19.1823 Y4.5730
G01 X19.2241 Y4.6512
G01 X19.2803 Y4.7197
G01 X19.3488 Y4.7759
G01 X19.4270 Y4.8177
G01 X19.5118 Y4.8434
G01 X19.6087 Y4.8530
G01 X20.6413 Y4.8530
G01 X20.7382 Y4.8434
G01 X20.8230 Y4.8177
G01 X20.9012 Y4.7759
G01 X20.9153 Y4.7644
G01 X20.9283 Y4.7548
G01 X20.9432 Y4.7458
G01 X20.9567 Y4.7394
G01 X20.9753 Y4.7326
G01 X20.9921 Y4.7283
G01 X21.0093 Y4.7258
G01 X21.0254 Y4.7250
G01 X23.3733 Y4.7249
G01 X23.3907 Y4.7258
G01 X23.4055 Y4.7279
G01 X23.4247 Y4.7326
G01 X23.4433 Y4.7394
G01 X23.4568 Y4.7458
G01 X23.4696 Y4.7535
G01 X23.4847 Y4.7644
G01 X23.4988 Y4.7759
G01 X23.5540 Y4.8054
G01 X23.5678 Y4.8138
G01 X23.5808 Y4.8234
G01 X23.5947 Y4.8358
G01 X23.6063 Y4.8487
G01 X23.6167 Y4.8626
G01 X23.6250 Y4.8764
G01 X23.6330 Y4.8932
G01 X23.6395 Y4.9120
G01 X23.6431 Y4.9264
G01 X23.6454 Y4.9412
G01 X23.6465 Y4.9610
G01 X23.6454 Y4.9808
G01 X23.6431 Y4.9955
G01 X23.6395 Y5.0100
G01 X23.6330 Y5.0288
G01 X23.6244 Y5.0466
G01 X23.6167 Y5.0594
G01 X23.6078 Y5.0714
G01 X23.5955 Y5.0853
G01 X23.4433 Y5.2376
G01 X23.4322 Y5.2476
G01 X23.4132 Y5.2632
G01 X23.3320 Y5.3622
G01 X23.2716 Y5.4751
G01 X23.2345 Y5.5976
G01 X23.2219 Y5.7250
G01 X23.2243 Y5.7495
G01 X23.2251 Y5.7656
G01 X23.2251 Y6.0884
G01 X23.2239 Y6.1082
G01 X23.2217 Y6.1229
G01 X23.2181 Y6.1374
G01 X23.2116 Y6.1561
G01 X23.2029 Y6.1740
G01 X23.1952 Y6.1868
G01 X23.1864 Y6.1988
G01 X23.1732 Y6.2136
G01 X23.1603 Y6.2253
G01 X23.1123 Y6.2646
G01 X23.1004 Y6.2736
G01 X23.0835 Y6.2839
G01 X23.0666 Y6.2918
G01 X23.0514 Y6.2972
G01 X23.0345 Y6.3014
G01 X23.0174 Y6.3040
G01 X23.0025 Y6.3048
G01 X22.9802 Y6.3037
G01 X22.9655 Y6.3014
G01 X22.9474 Y6.2968
G01 X22.9322 Y6.2914
G01 X22.9187 Y6.2850
G01 X22.9006 Y6.2743
G01 X22.8877 Y6.2646
G01 X22.7956 Y6.1891
G01 X22.6764 Y6.1254
G01 X22.5470 Y6.0861
G01 X22.4038 Y6.0720
G01 X21.8462 Y6.0720
G01 X21.7030 Y6.0861
G01 X21.5736 Y6.1254
G01 X21.4544 Y6.1891
G01 X21.4281 Y6.2106
G01 X21.4171 Y6.2188
G01 X21.3991 Y6.2297
G01 X21.3845 Y6.2366
G01 X21.3681 Y6.2424
G01 X21.3513 Y6.2467
G01 X21.3329 Y6.2493
G01 X21.3167 Y6.2501
G01 X20.0911 Y6.2501
G01 X20.0725 Y6.2491
G01 X20.0565 Y6.2467
G01 X20.0421 Y6.2431
G01 X20.0233 Y6.2366
G01 X20.0055 Y6.2279
G01 X19.9927 Y6.2202
G01 X19.9807 Y6.2114
G01 X19.9659 Y6.1982
G01 X19.7968 Y6.0291
G01 X19.5921 Y5.8923
G01 X19.3646 Y5.7981
G01 X19.1231 Y5.7501
G01 X18.8769 Y5.7501
G01 X18.6354 Y5.7981
G01 X18.4079 Y5.8923
G01 X18.2032 Y6.0291
G01 X18.0291 Y6.2032
G01 X17.8923 Y6.4079
G01 X17.7981 Y6.6354
G01 X17.7501 Y6.8769
G01 X17.7501 Y7.1231
G01 X17.7981 Y7.3646
G01 X17.8923 Y7.5921
G01 X18.0291 Y7.7968
G01 X18.2032 Y7.9709
G01 X18.4079 Y8.1077
G01 X18.6354 Y8.2019
G01 X18.8769 Y8.2499
G01 X19.1231 Y8.2499
G01 X19.3646 Y8.2019
G01 X19.5921 Y8.1077
G01 X19.7968 Y7.9709
G01 X19.9659 Y7.8018
G01 X19.9797 Y7.7894
G01 X19.9948 Y7.7785
G01 X20.0076 Y7.7708
G01 X20.0211 Y7.7644
G01 X20.0397 Y7.7576
G01 X20.0565 Y7.7533
G01 X20.0737 Y7.7508
G01 X20.0911 Y7.7499
G01 X21.1992 Y7.7500
G01 X21.2154 Y7.7508
G01 X21.2325 Y7.7533
G01 X21.2494 Y7.7576
G01 X21.2635 Y7.7625
G01 X21.2836 Y7.7721
G01 X21.2964 Y7.7798
G01 X21.3103 Y7.7901
G01 X21.3232 Y7.8018
G01 X21.3349 Y7.8147
G01 X21.3452 Y7.8286
G01 X21.3529 Y7.8414
G01 X21.3625 Y7.8615
G01 X21.3678 Y7.8768
G01 X21.3721 Y7.8949
G01 X21.3742 Y7.9096
G01 X21.3751 Y7.9270
G01 X21.3751 Y8.1808
G01 X21.3741 Y8.1994
G01 X21.3717 Y8.2154
G01 X21.3674 Y8.2322
G01 X21.3616 Y8.2486
G01 X21.3536 Y8.2654
G01 X21.3452 Y8.2792
G01 X21.3356 Y8.2922
G01 X21.2641 Y8.3794
G01 X21.2004 Y8.4986
G01 X21.1611 Y8.6280
G01 X21.1470 Y8.7712
G01 X21.1470 Y9.2288
G01 X21.1611 Y9.3720
G01 X21.2004 Y9.5014
G01 X21.2641 Y9.6206
G01 X21.3499 Y9.7251
G01 X21.3747 Y9.7455
G01 X21.3849 Y9.7547
G01 X21.3975 Y9.7684
G01 X21.4087 Y9.7833
G01 X21.4164 Y9.7960
G01 X21.4259 Y9.8162
G01 X21.4309 Y9.8302
G01 X21.4351 Y9.8471
G01 X21.4377 Y9.8643
G01 X21.4385 Y9.8792
G01 X21.4377 Y9.8990
G01 X21.4351 Y9.9162
G01 X21.4315 Y9.9307
G01 X21.4240 Y9.9516
G01 X21.4176 Y9.9651
G01 X21.4087 Y9.9800
G01 X21.3983 Y9.9940
G01 X21.3875 Y10.0059
G01 X21.3738 Y10.0185
G01 X21.3588 Y10.0295
G01 X21.3449 Y10.0378
G01 X21.2930 Y10.0655
G01 X21.2093 Y10.1343
G01 X21.1405 Y10.2180
G01 X21.0895 Y10.3135
G01 X21.0580 Y10.4172
G01 X21.0468 Y10.5311
G01 X21.0479 Y10.5698
G01 X21.1281 Y10.6499
G01 X21.5730 Y10.6499
G01 X21.5839 Y10.6270
G01 X21.5971 Y10.6048
G01 X21.6153 Y10.5801
G01 X21.6360 Y10.5575
G01 X21.6551 Y10.5403
G01 X21.6758 Y10.5249
G01 X21.7020 Y10.5089
G01 X21.7298 Y10.4960
G01 X21.7540 Y10.4874
G01 X21.7790 Y10.4811
G01 X21.8069 Y10.4767
G01 X21.8375 Y10.4750
G01 X22.4150 Y10.4751
G01 X22.4431 Y10.4767
G01 X22.4686 Y10.4805
G01 X22.4936 Y10.4867
G01 X22.5225 Y10.4969
G01 X22.5502 Y10.5102
G01 X22.5722 Y10.5235
G01 X22.5930 Y10.5387
G01 X22.6140 Y10.5575
G01 X22.6347 Y10.5801
G01 X22.6515 Y10.6028
G01 X22.6661 Y10.6270
G01 X22.6790 Y10.6548
G01 X22.6876 Y10.6790
G01 X22.6939 Y10.7040
G01 X22.6985 Y10.7331
G01 X22.7000 Y10.7625
G01 X22.7000 Y11.2375
G01 X22.6987 Y11.2645
G01 X22.6945 Y11.2936
G01 X22.6869 Y11.3233
G01 X22.6781 Y11.3475
G01 X22.6672 Y11.3708
G01 X22.6513 Y11.3976
G01 X23.7537 Y12.5000
G01 X24.3537 Y12.5001
G01 X24.3621 Y12.5015
G01 X24.3714 Y12.5048
G01 X24.3788 Y12.5091
G01 X24.3862 Y12.5155
G01 X24.3922 Y12.5233
G01 X24.3962 Y12.5309
G01 X24.3990 Y12.5402
G01 X24.4000 Y12.5488
G01 X24.4000 Y14.4500
G01 X24.3990 Y14.4598
G01 X24.3975 Y14.4657
G01 X24.3957 Y14.4703
G01 X24.3922 Y14.4767
G01 X24.3887 Y14.4817
G01 X24.3836 Y14.4870
G01 X24.3778 Y14.4916
G01 X24.3714 Y14.4952
G01 X24.3645 Y14.4978
G01 X24.3573 Y14.4995
G01 X24.3512 Y14.5000
G01 X23.5500 Y14.5000
G01 X23.5402 Y14.4990
G01 X23.5320 Y14.4966
G01 X23.5254 Y14.4935
G01 X23.5192 Y14.4894
G01 X23.5138 Y14.4845
G01 X23.5091 Y14.4788
G01 X23.5053 Y14.4725
G01 X23.5025 Y14.4657
G01 X23.5007 Y14.4585
G01 X23.5000 Y14.4512
G01 X23.5000 Y12.9537
G01 X22.0713 Y11.5250
G01 X21.8375 Y11.5250
G01 X21.8105 Y11.5237
G01 X21.7790 Y11.5189
G01 X21.7540 Y11.5126
G01 X21.7264 Y11.5026
G01 X21.6998 Y11.4898
G01 X21.6778 Y11.4765
G01 X21.6570 Y11.4613
G01 X21.6342 Y11.4408
G01 X21.6153 Y11.4199
G01 X21.5985 Y11.3972
G01 X21.5828 Y11.3708
G01 X21.5710 Y11.3452
G01 X21.5624 Y11.3210
G01 X21.5571 Y11.3001
G01 X21.0501 Y11.3001
G01 X21.0500 Y11.3592
G01 X21.0468 Y11.4689
G01 X21.0493 Y11.4946
G01 X21.0501 Y11.5107
G01 X21.0501 Y12.0413
G01 X21.0494 Y12.0562
G01 X21.0469 Y12.0746
G01 X21.0431 Y12.0903
G01 X21.0356 Y12.1113
G01 X21.0292 Y12.1248
G01 X21.0202 Y12.1397
G01 X21.0099 Y12.1536
G01 X20.9991 Y12.1656
G01 X20.9834 Y12.1797
G01 X20.9714 Y12.1885
G01 X20.9586 Y12.1962
G01 X20.9408 Y12.2049
G01 X20.9220 Y12.2114
G01 X20.9075 Y12.2150
G01 X20.8928 Y12.2172
G01 X20.8730 Y12.2184
G01 X20.8532 Y12.2172
G01 X20.8385 Y12.2150
G01 X20.8216 Y12.2107
G01 X20.8052 Y12.2049
G01 X20.7917 Y12.1986
G01 X20.7726 Y12.1871
G01 X20.7597 Y12.1774
G01 X20.7487 Y12.1674
G01 X20.7423 Y12.1605
G01 X20.6570 Y12.0905
G01 X20.5615 Y12.0395
G01 X20.4578 Y12.0080
G01 X20.3780 Y12.0002
G01 X20.3001 Y12.0781
G01 X20.3001 Y12.5000
G01 X20.3537 Y12.5001
G01 X20.3621 Y12.5015
G01 X20.3714 Y12.5048
G01 X20.3778 Y12.5084
G01 X20.3827 Y12.5121
G01 X20.3870 Y12.5164
G01 X20.3916 Y12.5222
G01 X20.3952 Y12.5286
G01 X20.3975 Y12.5343
G01 X20.3993 Y12.5415
G01 X20.3999 Y12.5475
G01 X20.4000 Y14.4500
G01 X20.3998 Y14.4549
G01 X20.3988 Y14.4610
G01 X20.3975 Y14.4657
G01 X20.3952 Y14.4714
G01 X20.3922 Y14.4767
G01 X20.3879 Y14.4827
G01 X20.3827 Y14.4879
G01 X20.3778 Y14.4916
G01 X20.3714 Y14.4952
G01 X20.3645 Y14.4978
G01 X20.3573 Y14.4995
G01 X20.3512 Y14.5000
G01 X19.5500 Y14.5000
G01 X19.5439 Y14.4996
G01 X19.5355 Y14.4978
G01 X19.5275 Y14.4947
G01 X19.5192 Y14.4894
G01 X19.5130 Y14.4836
G01 X19.5071 Y14.4757
G01 X19.5034 Y14.4680
G01 X19.5010 Y14.4598
G01 X19.5000 Y14.4512
G01 X19.5000 Y12.5488
G01 X19.5005 Y12.5427
G01 X19.5022 Y12.5355
G01 X19.5043 Y12.5297
G01 X19.5078 Y12.5233
G01 X19.5121 Y12.5173
G01 X19.5164 Y12.5130
G01 X19.5212 Y12.5091
G01 X19.5275 Y12.5053
G01 X19.5367 Y12.5018
G01 X19.5463 Y12.5001
G01 X19.5999 Y12.5000
G01 X19.5999 Y12.0781
G01 X19.5220 Y12.0002
G01 X19.4422 Y12.0080
G01 X19.3385 Y12.0395
G01 X19.2430 Y12.0905
G01 X19.1593 Y12.1593
G01 X19.0897 Y12.2440
G01 X19.0834 Y12.2543
G01 X19.0737 Y12.2672
G01 X19.0621 Y12.2801
G01 X19.0492 Y12.2918
G01 X19.0331 Y12.3034
G01 X19.0203 Y12.3110
G01 X19.0046 Y12.3185
G01 X18.9883 Y12.3243
G01 X18.9738 Y12.3280
G01 X18.9518 Y12.3313
G01 X18.9369 Y12.3320
G01 X18.9219 Y12.3313
G01 X18.9023 Y12.3285
G01 X18.8855 Y12.3243
G01 X18.8714 Y12.3194
G01 X18.8534 Y12.3110
G01 X18.8385 Y12.3021
G01 X18.8227 Y12.2902
G01 X18.8117 Y12.2801
G01 X18.8016 Y12.2691
G01 X18.7697 Y12.2303
G01 X18.7012 Y12.1741
G01 X18.6230 Y12.1323
G01 X18.5382 Y12.1066
G01 X18.4413 Y12.0970
G01 X17.6587 Y12.0970
G01 X17.5618 Y12.1066
G01 X17.4770 Y12.1323
G01 X17.3988 Y12.1741
G01 X17.3303 Y12.2303
G01 X17.2741 Y12.2988
G01 X17.2323 Y12.3770
G01 X17.2066 Y12.4618
G01 X17.1970 Y12.5587
G01 X17.1970 Y12.6730
G01 X17.1963 Y12.6891
G01 X17.1936 Y12.7075
G01 X17.1894 Y12.7244
G01 X17.1836 Y12.7408
G01 X17.1761 Y12.7565
G01 X17.1672 Y12.7714
G01 X17.1583 Y12.7834
G01 X17.1434 Y12.7999
G01 X17.1313 Y12.8106
G01 X17.1163 Y12.8215
G01 X17.1034 Y12.8292
G01 X17.0900 Y12.8356
G01 X17.0714 Y12.8424
G01 X17.0521 Y12.8471
G01 X17.0373 Y12.8492
G01 X17.0212 Y12.8500
G01 X16.3926 Y12.8501
G01 X16.3752 Y12.8492
G01 X16.3592 Y12.8469
G01 X16.3388 Y12.8417
G01 X16.3248 Y12.8366
G01 X16.3091 Y12.8292
G01 X16.2922 Y12.8188
G01 X16.2802 Y12.8099
G01 X16.2682 Y12.7991
G01 X14.7383 Y11.2692
G01 X14.7274 Y11.2572
G01 X14.7118 Y11.2382
G01 X14.6128 Y11.1570
G01 X14.4999 Y11.0966
G01 X14.3774 Y11.0595
G01 X14.2500 Y11.0469
G01 X14.2255 Y11.0493
G01 X14.2106 Y11.0500
G01 X14.1258 Y11.0500
G01 X14.1096 Y11.0492
G01 X14.0949 Y11.0471
G01 X14.0756 Y11.0424
G01 X14.0592 Y11.0366
G01 X14.0457 Y11.0303
G01 X14.0266 Y11.0188
G01 X14.0147 Y11.0099
G01 X14.0018 Y10.9982
G01 X13.9901 Y10.9853
G01 X13.9812 Y10.9734
G01 X13.9697 Y10.9543
G01 X13.9634 Y10.9408
G01 X13.9576 Y10.9244
G01 X13.9529 Y10.9051
G01 X13.9508 Y10.8904
G01 X13.9500 Y10.8742
G01 X13.9499 Y10.1001
G01 X13.9511 Y10.0803
G01 X13.9533 Y10.0655
G01 X13.9569 Y10.0511
G01 X13.9625 Y10.0346
G01 X13.9708 Y10.0166
G01 X13.9791 Y10.0027
G01 X13.9901 Y9.9878
G01 X14.0018 Y9.9749
G01 X14.0137 Y9.9640
G01 X14.0342 Y9.9472
G01 X14.0904 Y9.8787
G01 X14.1322 Y9.8005
G01 X14.1579 Y9.7157
G01 X14.1675 Y9.6188
G01 X14.1675 Y7.2232
G01 X14.1579 Y7.1263
G01 X14.1322 Y7.0415
G01 X14.0904 Y6.9633
G01 X14.0342 Y6.8948
G01 X13.9657 Y6.8386
G01 X13.8875 Y6.7968
G01 X13.8027 Y6.7711
G01 X13.7058 Y6.7615
G01 X10.2942 Y6.7615
G01 X10.1973 Y6.7711
G01 X10.1125 Y6.7968
G01 X10.0343 Y6.8386
G01 X9.9658 Y6.8948
G01 X9.9096 Y6.9633
G01 X9.8678 Y7.0415
G01 X9.8421 Y7.1263
G01 X9.8325 Y7.2232
G01 X9.8325 Y7.5940
G01 X9.8317 Y7.6114
G01 X9.8294 Y7.6273
G01 X9.8249 Y7.6454
G01 X9.8191 Y7.6618
G01 X9.8116 Y7.6775
G01 X9.8027 Y7.6924
G01 X9.7923 Y7.7063
G01 X9.7807 Y7.7192
G01 X9.7678 Y7.7309
G01 X9.7528 Y7.7419
G01 X9.7389 Y7.7502
G01 X9.7255 Y7.7566
G01 X9.7069 Y7.7634
G01 X9.6876 Y7.7681
G01 X9.6728 Y7.7702
G01 X9.6567 Y7.7710
G01 X8.6770 Y7.7711
G01 X8.6572 Y7.7699
G01 X8.6425 Y7.7677
G01 X8.6256 Y7.7634
G01 X8.6092 Y7.7576
G01 X8.5957 Y7.7513
G01 X8.5786 Y7.7412
G01 X8.5647 Y7.7309
G01 X8.5536 Y7.7209
G01 X8.5401 Y7.7063
G01 X8.5285 Y7.6903
G01 X8.5208 Y7.6775
G01 X8.5134 Y7.6618
G01 X8.5076 Y7.6454
G01 X8.5039 Y7.6309
G01 X8.5007 Y7.6101
G01 X8.4999 Y7.5940
G01 X8.4999 Y5.7645
G01 X8.4971 Y5.7594
G01 X8.4906 Y5.7456
G01 X8.4847 Y5.7289
G01 X8.4801 Y5.7105
G01 X8.4778 Y5.6942
G01 X8.4771 Y5.6752
G01 X8.4783 Y5.5825
G01 X8.4670 Y5.4672
G01 X8.4355 Y5.3635
G01 X8.3845 Y5.2680
G01 X8.3157 Y5.1843
G01 X8.2320 Y5.1155
G01 X8.1365 Y5.0645
G01 X8.0328 Y5.0330
G01 X7.9302 Y5.0229
G01 X7.8501 Y5.1031
G01 X7.8501 Y5.5642
G01 X7.8593 Y5.5699
G01 X7.8781 Y5.5838
G01 X7.8972 Y5.6010
G01 X7.9154 Y5.6210
G01 X7.9314 Y5.6427
G01 X7.9451 Y5.6660
G01 X7.9550 Y5.6870
G01 X7.9629 Y5.7090
G01 X7.9700 Y5.7363
G01 X7.9737 Y5.7618
G01 X7.9750 Y5.7875
G01 X7.9750 Y6.5887
G01 X7.9737 Y6.6132
G01 X7.9700 Y6.6387
G01 X7.9637 Y6.6637
G01 X7.9540 Y6.6902
G01 X7.9440 Y6.7112
G01 X7.9321 Y6.7313
G01 X7.9154 Y6.7540
G01 X7.8963 Y6.7748
G01 X7.8790 Y6.7904
G01 X7.8603 Y6.8043
G01 X7.8362 Y6.8190
G01 X7.8107 Y6.8309
G01 X7.7887 Y6.8387
G01 X7.7661 Y6.8444
G01 X7.7382 Y6.8487
G01 X7.7125 Y6.8500
G01 X7.2875 Y6.8500
G01 X7.2606 Y6.8486
G01 X7.2363 Y6.8450
G01 X7.2137 Y6.8394
G01 X7.1848 Y6.8290
G01 X7.1638 Y6.8190
G01 X7.1417 Y6.8058
G01 X7.1210 Y6.7904
G01 X7.1037 Y6.7748
G01 X7.0831 Y6.7521
G01 X7.0692 Y6.7333
G01 X7.0549 Y6.7090
G01 X7.0450 Y6.6880
G01 X7.0363 Y6.6637
G01 X7.0300 Y6.6387
G01 X7.0262 Y6.6120
G01 X7.0250 Y6.5875
G01 X7.0250 Y5.7863
G01 X7.0266 Y5.7593
G01 X7.0300 Y5.7363
G01 X7.0356 Y5.7137
G01 X7.0450 Y5.6870
G01 X7.0566 Y5.6627
G01 X7.0692 Y5.6417
G01 X7.0831 Y5.6229
G01 X7.1010 Y5.6028
G01 X7.1219 Y5.5838
G01 X7.1407 Y5.5699
G01 X7.1499 Y5.5642
G01 X7.1499 Y5.1031
G01 X7.0698 Y5.0229
G01 X6.9672 Y5.0330
G01 X6.8673 Y5.0633
G01 X6.8528 Y5.0668
G01 X6.8380 Y5.0691
G01 X6.8195 Y5.0702
G01 X6.8009 Y5.0694
G01 X6.7813 Y5.0663
G01 X6.7669 Y5.0626
G01 X6.7528 Y5.0576
G01 X6.7362 Y5.0501
G01 X6.4050 Y5.0501
G01 X6.3877 Y5.0492
G01 X6.3717 Y5.0469
G01 X6.3536 Y5.0424
G01 X6.3350 Y5.0356
G01 X6.3216 Y5.0292
G01 X6.3087 Y5.0215
G01 X6.2927 Y5.0099
G01 X6.2781 Y4.9964
G01 X6.2682 Y4.9853
G01 X6.2592 Y4.9734
G01 X6.2489 Y4.9565
G01 X6.2414 Y4.9408
G01 X6.2349 Y4.9220
G01 X6.2314 Y4.9075
G01 X6.2291 Y4.8928
G01 X6.2184 Y4.7818
G01 X6.1927 Y4.6970
G01 X6.1509 Y4.6188
G01 X6.1394 Y4.6047
G01 X6.1305 Y4.5927
G01 X6.1203 Y4.5757
G01 X6.1134 Y4.5611
G01 X6.1076 Y4.5447
G01 X6.1033 Y4.5279
G01 X6.1009 Y4.5119
G01 X6.0999 Y4.4933
G01 X6.1000 Y3.8472
G01 X6.1011 Y3.8299
G01 X6.1033 Y3.8151
G01 X6.1069 Y3.8006
G01 X6.1134 Y3.7819
G01 X6.1214 Y3.7651
G01 X6.1298 Y3.7513
G01 X6.1394 Y3.7383
G01 X6.2359 Y3.6206
G01 X6.2996 Y3.5014
G01 X6.3389 Y3.3720
G01 X6.3530 Y3.2288
G01 X6.3530 Y2.7712
G01 X6.3389 Y2.6280
G01 X6.2996 Y2.4986
G01 X6.2359 Y2.3794
G01 X6.1501 Y2.2749
G01 X6.0456 Y2.1891
G01 X5.9264 Y2.1254
G01 X5.7970 Y2.0861
G01 X5.6538 Y2.0720
G01 X5.0962 Y2.0720
G01 X4.9530 Y2.0861
G01 X4.8236 Y2.1254
G01 X4.7490 Y2.1652
G01 X4.7344 Y2.1721
G01 X4.7204 Y2.1772
G01 X4.6988 Y2.1826
G01 X4.6828 Y2.1848
G01 X4.6642 Y2.1855
G01 X4.6469 Y2.1844
G01 X4.6321 Y2.1822
G01 X4.6177 Y2.1786
G01 X4.5989 Y2.1721
G01 X4.5822 Y2.1641
G01 X4.5683 Y2.1558
G01 X4.5553 Y2.1462
G01 X4.4570 Y2.0655
G01 X4.3615 Y2.0145
G01 X4.2578 Y1.9830
G01 X4.1431 Y1.9717
G01 X4.0546 Y1.9736
G01 X3.9751 Y2.0531
G01 X3.9751 Y2.4730
G01 X3.9747 Y2.4820
G01 X3.9960 Y2.4874
G01 X4.0202 Y2.4960
G01 X4.0480 Y2.5089
G01 X4.0722 Y2.5235
G01 X4.0930 Y2.5387
G01 X4.1158 Y2.5592
G01 X4.1363 Y2.5820
G01 X4.1515 Y2.6028
G01 X4.1661 Y2.6270
G01 X4.1790 Y2.6548
G01 X4.1876 Y2.6790
G01 X4.1945 Y2.7064
G01 X4.1986 Y2.7343
G01 X4.2000 Y2.7625
G01 X4.2000 Y3.2213
G01 X4.6768 Y3.6982
G01 X4.6917 Y3.7145
G01 X4.7080 Y3.7361
G01 X4.7217 Y3.7593
G01 X4.7311 Y3.7793
G01 X4.7386 Y3.8001
G01 X4.7453 Y3.8262
G01 X4.7489 Y3.8505
G01 X4.7501 Y3.8750
G01 X4.7501 Y4.8200
G01 X4.8262 Y4.8200
G01 X4.8348 Y4.8210
G01 X4.8430 Y4.8234
G01 X4.8496 Y4.8265
G01 X4.8548 Y4.8298
G01 X4.8604 Y4.8346
G01 X4.8652 Y4.8402
G01 X4.8691 Y4.8464
G01 X4.8721 Y4.8532
G01 X4.8740 Y4.8602
G01 X4.8749 Y4.8675
G01 X4.8750 Y6.4300
G01 X4.8748 Y6.4349
G01 X4.8738 Y6.4410
G01 X4.8707 Y6.4503
G01 X4.8685 Y6.4546
G01 X4.8652 Y6.4598
G01 X4.8620 Y6.4636
G01 X4.8577 Y6.4679
G01 X4.8507 Y6.4729
G01 X4.8430 Y6.4766
G01 X4.8348 Y6.4790
G01 X4.8262 Y6.4800
G01 X4.1738 Y6.4800
G01 X4.1665 Y6.4793
G01 X4.1593 Y6.4775
G01 X4.1525 Y6.4747
G01 X4.1462 Y6.4709
G01 X4.1405 Y6.4662
G01 X4.1348 Y6.4598
G01 X4.1309 Y6.4536
G01 X4.1279 Y6.4468
G01 X4.1257 Y6.4385
G01 X4.1250 Y6.4300
G01 X4.1251 Y4.8675
G01 X4.1260 Y4.8602
G01 X4.1275 Y4.8543
G01 X4.1303 Y4.8475
G01 X4.1341 Y4.8412
G01 X4.1388 Y4.8355
G01 X4.1442 Y4.8306
G01 X4.1504 Y4.8265
G01 X4.1570 Y4.8234
G01 X4.1652 Y4.8210
G01 X4.1738 Y4.8200
G01 X4.2499 Y4.8200
G01 X4.2499 Y3.9786
G01 X3.8001 Y3.5288
G01 X3.8001 Y4.8200
G01 X3.8762 Y4.8200
G01 X3.8848 Y4.8210
G01 X3.8930 Y4.8234
G01 X3.8996 Y4.8265
G01 X3.9048 Y4.8298
G01 X3.9104 Y4.8346
G01 X3.9152 Y4.8402
G01 X3.9191 Y4.8464
G01 X3.9221 Y4.8532
G01 X3.9240 Y4.8602
G01 X3.9249 Y4.8675
G01 X3.9250 Y6.4300
G01 X3.9240 Y6.4398
G01 X3.9216 Y6.4480
G01 X3.9172 Y6.4567
G01 X3.9112 Y6.4645
G01 X3.9077 Y6.4679
G01 X3.9028 Y6.4716
G01 X3.8941 Y6.4762
G01 X3.8848 Y6.4790
G01 X3.8750 Y6.4800
G01 X3.2238 Y6.4800
G01 X3.2165 Y6.4793
G01 X3.2082 Y6.4771
G01 X3.2014 Y6.4741
G01 X3.1942 Y6.4694
G01 X3.1896 Y6.4654
G01 X3.1863 Y6.4617
G01 X3.1834 Y6.4578
G01 X3.1803 Y6.4525
G01 X3.1784 Y6.4480
G01 X3.1765 Y6.4421
G01 X3.1754 Y6.4361
G01 X3.1750 Y6.4312
G01 X3.1750 Y5.9001
G01 X2.2500 Y5.9001
G01 X2.2500 Y6.3012
G01 X2.2486 Y6.3294
G01 X2.2437 Y6.3609
G01 X2.2363 Y6.3894
G01 X2.2272 Y6.4148
G01 X2.2157 Y6.4392
G01 X2.1994 Y6.4667
G01 X2.1834 Y6.4884
G01 X2.1621 Y6.5121
G01 X2.1403 Y6.5319
G01 X2.1167 Y6.5494
G01 X2.0892 Y6.5657
G01 X2.0648 Y6.5772
G01 X2.0394 Y6.5863
G01 X2.0109 Y6.5937
G01 X1.9794 Y6.5986
G01 X1.9512 Y6.6000
G01 X1.0488 Y6.6000
G01 X1.0206 Y6.5986
G01 X0.9939 Y6.5947
G01 X0.9629 Y6.5871
G01 X0.9352 Y6.5772
G01 X0.9108 Y6.5657
G01 X0.8813 Y6.5480
G01 X0.8597 Y6.5319
G01 X0.8362 Y6.5104
G01 X0.8181 Y6.4903
G01 X0.8020 Y6.4687
G01 X0.7866 Y6.4436
G01 X0.7728 Y6.4148
G01 X0.7629 Y6.3871
G01 X0.7558 Y6.3585
G01 X0.7516 Y6.3306
G01 X0.7500 Y6.3000
G01 X0.7500 Y5.6500
G01 X0.7514 Y5.6206
G01 X0.7555 Y5.5927
G01 X0.7629 Y5.5629
G01 X0.7728 Y5.5352
G01 X0.7854 Y5.5086
G01 X0.8006 Y5.4833
G01 X0.8181 Y5.4597
G01 X0.8379 Y5.4379
G01 X0.8597 Y5.4181
G01 X0.8854 Y5.3992
G01 X0.9086 Y5.3854
G01 X0.9352 Y5.3728
G01 X0.9629 Y5.3629
G01 X0.9927 Y5.3555
G01 X1.0206 Y5.3514
G01 X1.0488 Y5.3500
G01 X1.1499 Y5.3500
G01 X1.1499 Y4.9281
G01 X1.0712 Y4.8493
G01 X0.8078 Y4.8466
G01 X0.7194 Y4.8553
G01 X0.7008 Y4.8562
G01 X0.6846 Y4.8553
G01 X0.6675 Y4.8528
G01 X0.6506 Y4.8486
G01 X0.6365 Y4.8436
G01 X0.6185 Y4.8353
G01 X0.6016 Y4.8249
G01 X0.5897 Y4.8160
G01 X0.5777 Y4.8052
G01 X0.5636 Y4.7895
G01 X0.5548 Y4.7775
G01 X0.5471 Y4.7647
G01 X0.5384 Y4.7469
G01 X0.5319 Y4.7282
G01 X0.5283 Y4.7137
G01 X0.5259 Y4.6977
G01 X0.5249 Y4.6791
G01 X0.5250 Y0.7008
G01 X0.5258 Y0.6846
G01 X0.5279 Y0.6699
G01 X0.5326 Y0.6506
G01 X0.5394 Y0.6320
G01 X0.5458 Y0.6185
G01 X0.5535 Y0.6057
G01 X0.5651 Y0.5897
G01 X0.5786 Y0.5751
G01 X0.5897 Y0.5651
G01 X0.6016 Y0.5562
G01 X0.6185 Y0.5458
G01 X0.6365 Y0.5375
G01 X0.6506 Y0.5326
G01 X0.6651 Y0.5289
G01 X0.6846 Y0.5258
G01 X0.7020 Y0.5249
G01 X28.2180 Y0.5249
G01 X28.2365 Y0.5259
G01 X28.2525 Y0.5283
G01 X28.2694 Y0.5326
G01 X28.2857 Y0.5384
G01 X28.3014 Y0.5458
G01 X28.3163 Y0.5548
G01 X28.3303 Y0.5651
G01 X28.3432 Y0.5768
G01 X28.3532 Y0.5878
G01 X28.3665 Y0.6057
G01 X28.3747 Y0.6196
G01 X28.3824 Y0.6365
G01 X28.3874 Y0.6506
G01 X28.3916 Y0.6675
G01 X28.3942 Y0.6846
G01 X28.3950 Y0.7008
G01 X28.3939 Y0.7218
G01 X28.3916 Y0.7365
G01 X28.3877 Y0.7522
G01 X28.3820 Y0.7686
G01 X28.3767 Y0.7802
G01 X28.3364 Y0.9130
G01 X28.3220 Y1.0587
G01 X28.3220 Y3.2413
G01 X28.3364 Y3.3870
G01 X28.3763 Y3.5187
G01 X28.4412 Y3.6401
G01 X28.5285 Y3.7465
G01 X28.6349 Y3.8338
G01 X28.7563 Y3.8987
G01 X28.8880 Y3.9386
G01 X29.0337 Y3.9530
G01 X29.5163 Y3.9530
G01 X29.6620 Y3.9386
G01 X29.7937 Y3.8987
G01 X29.9151 Y3.8338
G01 X30.0215 Y3.7465
G01 X30.1088 Y3.6401
G01 X30.1737 Y3.5187
G01 X30.2136 Y3.3870
G01 X30.2280 Y3.2413
G01 X30.2280 Y1.0587
G01 X30.2136 Y0.9130
G01 X30.1732 Y0.7799
G01 X30.1680 Y0.7686
G01 X30.1623 Y0.7522
G01 X30.1584 Y0.7365
G01 X30.1561 Y0.7218
G01 X30.1550 Y0.6995
G01 X30.1558 Y0.6846
G01 X30.1584 Y0.6675
G01 X30.1626 Y0.6506
G01 X30.1676 Y0.6365
G01 X30.1771 Y0.6164
G01 X30.1848 Y0.6036
G01 X30.1952 Y0.5897
G01 X30.2068 Y0.5768
G01 X30.2179 Y0.5667
G01 X30.2357 Y0.5535
G01 X30.2486 Y0.5458
G01 X30.2643 Y0.5384
G01 X30.2806 Y0.5326
G01 X30.2951 Y0.5289
G01 X30.3147 Y0.5258
G01 X30.3320 Y0.5249
G01 X35.6680 Y0.5249
G01 X35.6877 Y0.5261
G01 X35.7025 Y0.5283
G01 X35.7170 Y0.5319
G01 X35.7357 Y0.5384
G01 X35.7525 Y0.5464
G01 X35.7663 Y0.5548
G01 X35.7783 Y0.5636
G01 X35.7932 Y0.5768
G01 X35.8063 Y0.5916
G01 X35.8152 Y0.6036
G01 X35.8229 Y0.6164
G01 X35.8315 Y0.6342
G01 X35.8380 Y0.6530
G01 X35.8416 Y0.6675
G01 X35.8439 Y0.6822
G01 X35.8450 Y0.7020
G01 X35.8439 Y0.7218
G01 X35.8416 Y0.7365
G01 X35.8377 Y0.7522
G01 X35.8320 Y0.7686
G01 X35.8267 Y0.7802
G01 X35.7864 Y0.9130
G01 X35.7720 Y1.0587
G01 X35.7720 Y3.2413
G01 X35.7864 Y3.3870
G01 X35.8263 Y3.5187
G01 X35.8912 Y3.6401
G01 X35.9785 Y3.7465
G01 X36.0849 Y3.8338
G01 X36.2063 Y3.8987
G01 X36.3380 Y3.9386
G01 X36.4837 Y3.9530
G01 X36.9663 Y3.9530
G01 X37.1120 Y3.9386
G01 X37.2437 Y3.8987
G01 X37.3651 Y3.8338
G01 X37.4715 Y3.7465
G01 X37.5588 Y3.6401
G01 X37.6237 Y3.5187
G01 X37.6636 Y3.3870
G01 X37.6780 Y3.2413
G01 X37.6780 Y1.0587
G01 X37.6636 Y0.9130
G01 X37.6232 Y0.7799
G01 X37.6180 Y0.7686
G01 X37.6123 Y0.7522
G01 X37.6084 Y0.7365
G01 X37.6061 Y0.7218
G01 X37.6050 Y0.7008
G01 X37.6058 Y0.6846
G01 X37.6080 Y0.6699
G01 X37.6126 Y0.6506
G01 X37.6195 Y0.6320
G01 X37.6259 Y0.6185
G01 X37.6335 Y0.6057
G01 X37.6452 Y0.5897
G01 X37.6586 Y0.5751
G01 X37.6697 Y0.5651
G01 X37.6817 Y0.5562
G01 X37.6975 Y0.5464
G01 X37.7143 Y0.5384
G01 X37.7330 Y0.5319
G01 X37.7475 Y0.5283
G01 X37.7623 Y0.5261
G01 X37.7820 Y0.5249
G01 X42.2992 Y0.5250
G01 X42.3154 Y0.5258
G01 X42.3301 Y0.5279
G01 X42.3494 Y0.5326
G01 X42.3680 Y0.5394
G01 X42.3815 Y0.5458
G01 X42.3943 Y0.5535
G01 X42.4103 Y0.5651
G01 X42.4249 Y0.5786
G01 X42.4349 Y0.5897
G01 X42.4438 Y0.6016
G01 X42.4542 Y0.6185
G01 X42.4625 Y0.6365
G01 X42.4674 Y0.6506
G01 X42.4711 Y0.6651
G01 X42.4742 Y0.6846
G01 X42.4751 Y0.7020
G01 X42.4751 Y5.1799
G01 X42.4742 Y5.1973
G01 X42.4717 Y5.2145
G01 X42.4674 Y5.2313
G01 X42.4616 Y5.2477
G01 X42.4542 Y5.2634
G01 X42.4452 Y5.2783
G01 X42.4349 Y5.2922
G01 X42.4249 Y5.3033
G01 X42.4084 Y5.3183
G01 X42.3964 Y5.3271
G01 X42.3815 Y5.3361
G01 X42.3658 Y5.3435
G01 X42.3494 Y5.3494
G01 X42.3325 Y5.3536
G01 X42.3178 Y5.3558
G01 X42.2955 Y5.3569
G01 X42.2806 Y5.3561
G01 X42.2623 Y5.3533
G01 X42.2466 Y5.3494
G01 X42.2302 Y5.3435
G01 X42.2145 Y5.3361
G01 X42.1986 Y5.3264
G01 X42.1857 Y5.3168
G01 X42.1737 Y5.3060
G01 X42.0968 Y5.2291
G01 X41.8921 Y5.0923
G01 X41.6646 Y4.9981
G01 X41.4231 Y4.9501
G01 X41.1769 Y4.9501
G01 X40.9354 Y4.9981
G01 X40.7079 Y5.0923
G01 X40.5032 Y5.2291
G01 X40.3291 Y5.4032
G01 X40.1923 Y5.6079
G01 X40.0981 Y5.8354
G01 X40.0501 Y6.0769
G01 X40.0501 Y6.3231
G01 X40.0981 Y6.5646
G01 X40.1923 Y6.7921
G01 X40.3291 Y6.9968
G01 X40.4999 Y7.1677
G01 X40.5099 Y7.1788
G01 X40.5202 Y7.1927
G01 X40.5292 Y7.2076
G01 X40.5366 Y7.2233
G01 X40.5424 Y7.2397
G01 X40.5467 Y7.2565
G01 X40.5492 Y7.2737
G01 X40.5500 Y7.2899
G01 X40.5500 Y7.4742
G01 X40.5492 Y7.4904
G01 X40.5471 Y7.5051
G01 X40.5417 Y7.5267
G01 X40.5366 Y7.5408
G01 X40.5303 Y7.5543
G01 X40.5202 Y7.5714
G01 X40.5083 Y7.5872
G01 X40.4982 Y7.5982
G01 X40.4872 Y7.6083
G01 X40.4714 Y7.6202
G01 X40.4543 Y7.6303
G01 X40.4408 Y7.6366
G01 X40.4267 Y7.6417
G01 X40.4063 Y7.6469
G01 X40.3904 Y7.6492
G01 X40.3730 Y7.6501
G01 X39.9587 Y7.6501
G01 X39.9509 Y7.6517
G01 X39.9361 Y7.6538
G01 X39.9175 Y7.6548
G01 X39.9002 Y7.6540
G01 X39.8421 Y7.6483
G01 X39.5287 Y7.6511
G01 X39.4501 Y7.7297
G01 X39.4501 Y8.1516
G01 X39.8537 Y8.1518
G01 X39.8610 Y8.1529
G01 X39.8680 Y8.1550
G01 X39.8746 Y8.1581
G01 X39.8817 Y8.1630
G01 X39.8879 Y8.1690
G01 X39.8922 Y8.1749
G01 X39.8957 Y8.1814
G01 X39.8982 Y8.1883
G01 X39.8995 Y8.1943
G01 X39.9000 Y8.2016
G01 X39.9000 Y9.2029
G01 X39.8988 Y9.2126
G01 X39.8975 Y9.2173
G01 X39.8952 Y9.2230
G01 X39.8929 Y9.2273
G01 X39.8894 Y9.2324
G01 X39.8854 Y9.2370
G01 X39.8817 Y9.2403
G01 X39.8746 Y9.2451
G01 X39.8668 Y9.2487
G01 X39.8585 Y9.2509
G01 X39.8500 Y9.2516
G01 X38.3500 Y9.2516
G01 X38.3439 Y9.2513
G01 X38.3367 Y9.2498
G01 X38.3297 Y9.2474
G01 X38.3222 Y9.2432
G01 X38.3164 Y9.2387
G01 X38.3113 Y9.2334
G01 X38.3071 Y9.2273
G01 X38.3034 Y9.2196
G01 X38.3012 Y9.2126
G01 X38.3004 Y9.2078
G01 X38.3000 Y9.2016
G01 X38.3000 Y9.0517
G01 X37.8781 Y9.0517
G01 X37.7983 Y9.1315
G01 X37.7968 Y9.1951
G01 X37.8080 Y9.3094
G01 X37.8395 Y9.4131
G01 X37.8905 Y9.5086
G01 X37.9593 Y9.5924
G01 X38.0063 Y9.6310
G01 X38.0183 Y9.6418
G01 X38.0309 Y9.6556
G01 X38.0405 Y9.6685
G01 X38.0502 Y9.6844
G01 X38.0585 Y9.7024
G01 X38.0635 Y9.7165
G01 X38.0671 Y9.7310
G01 X38.0699 Y9.7481
G01 X38.0711 Y9.7679
G01 X38.0699 Y9.7877
G01 X38.0677 Y9.8024
G01 X38.0641 Y9.8169
G01 X38.0571 Y9.8368
G01 X38.0502 Y9.8514
G01 X38.0398 Y9.8683
G01 X38.0309 Y9.8802
G01 X37.9741 Y9.9494
G01 X37.9323 Y10.0276
G01 X37.9066 Y10.1124
G01 X37.8970 Y10.2093
G01 X37.8970 Y11.1919
G01 X37.9066 Y11.2888
G01 X37.9323 Y11.3736
G01 X37.9741 Y11.4518
G01 X38.0303 Y11.5203
G01 X38.0842 Y11.5645
G01 X38.0962 Y11.5753
G01 X38.1087 Y11.5891
G01 X38.1191 Y11.6030
G01 X38.1280 Y11.6179
G01 X38.1344 Y11.6314
G01 X38.1413 Y11.6500
G01 X38.1459 Y11.6693
G01 X38.1480 Y11.6840
G01 X38.1489 Y11.7002
G01 X38.1480 Y11.7187
G01 X38.1459 Y11.7335
G01 X38.1405 Y11.7551
G01 X38.1354 Y11.7691
G01 X38.1280 Y11.7848
G01 X38.1191 Y11.7998
G01 X38.1087 Y11.8137
G01 X38.0970 Y11.8266
G01 X38.0851 Y11.8375
G01 X38.0303 Y11.8824
G01 X37.9741 Y11.9510
G01 X37.9694 Y11.9597
G01 X37.9604 Y11.9745
G01 X37.9507 Y11.9875
G01 X37.9382 Y12.0012
G01 X37.9242 Y12.0135
G01 X37.9122 Y12.0224
G01 X37.8994 Y12.0301
G01 X37.8816 Y12.0387
G01 X37.8652 Y12.0446
G01 X37.8460 Y12.0492
G01 X37.8312 Y12.0514
G01 X37.8151 Y12.0522
G01 X37.4936 Y12.0522
G01 X37.4775 Y12.0515
G01 X37.4567 Y12.0483
G01 X37.4422 Y12.0446
G01 X37.4259 Y12.0387
G01 X37.4102 Y12.0313
G01 X37.3973 Y12.0237
G01 X37.3794 Y12.0104
G01 X37.3684 Y12.0003
G01 X34.3268 Y8.9587
G01 X34.3151 Y8.9458
G01 X34.3048 Y8.9319
G01 X34.2958 Y8.9170
G01 X34.2884 Y8.9013
G01 X34.2826 Y8.8849
G01 X34.2783 Y8.8681
G01 X34.2758 Y8.8509
G01 X34.2750 Y8.8360
G01 X34.2750 Y6.7772
G01 X34.2758 Y6.7610
G01 X34.2783 Y6.7439
G01 X34.2826 Y6.7270
G01 X34.2884 Y6.7106
G01 X34.2958 Y6.6949
G01 X34.3048 Y6.6800
G01 X34.3151 Y6.6661
G01 X34.3259 Y6.6541
G01 X34.3397 Y6.6415
G01 X34.3536 Y6.6312
G01 X34.3685 Y6.6222
G01 X34.3842 Y6.6148
G01 X34.4006 Y6.6090
G01 X34.4175 Y6.6047
G01 X34.4346 Y6.6022
G01 X34.4495 Y6.6014
G01 X34.4694 Y6.6022
G01 X34.4889 Y6.6053
G01 X34.5034 Y6.6090
G01 X34.6075 Y6.6405
G01 X34.7337 Y6.6530
G01 X35.0163 Y6.6530
G01 X35.1425 Y6.6405
G01 X35.2451 Y6.6094
G01 X35.2608 Y6.6055
G01 X35.2768 Y6.6031
G01 X35.2953 Y6.6021
G01 X35.3127 Y6.6030
G01 X35.3299 Y6.6055
G01 X35.3456 Y6.6094
G01 X35.3631 Y6.6156
G01 X35.3766 Y6.6219
G01 X35.3957 Y6.6334
G01 X35.4077 Y6.6423
G01 X35.4205 Y6.6540
G01 X35.4322 Y6.6669
G01 X35.4411 Y6.6788
G01 X35.4515 Y6.6957
G01 X35.4584 Y6.7103
G01 X35.4923 Y6.7921
G01 X35.6291 Y6.9968
G01 X35.8032 Y7.1709
G01 X36.0079 Y7.3077
G01 X36.2354 Y7.4019
G01 X36.4769 Y7.4499
G01 X36.7231 Y7.4499
G01 X36.9646 Y7.4019
G01 X37.1921 Y7.3077
G01 X37.3968 Y7.1709
G01 X37.5709 Y6.9968
G01 X37.7077 Y6.7921
G01 X37.8019 Y6.5646
G01 X37.8499 Y6.3231
G01 X37.8499 Y6.0769
G01 X37.8019 Y5.8354
G01 X37.7077 Y5.6079
G01 X37.5709 Y5.4032
G01 X37.3968 Y5.2291
G01 X37.1921 Y5.0923
G01 X36.9646 Y4.9981
G01 X36.7231 Y4.9501
G01 X36.4827 Y4.9500
G01 X36.4666 Y4.9492
G01 X36.4518 Y4.9471
G01 X36.4314 Y4.9421
G01 X36.4162 Y4.9366
G01 X36.4005 Y4.9292
G01 X36.3856 Y4.9202
G01 X36.3716 Y4.9099
G01 X36.3588 Y4.8982
G01 X36.3116 Y4.8510
G01 X36.3016 Y4.8400
G01 X36.2829 Y4.8171
G01 X36.1687 Y4.7234
G01 X36.0384 Y4.6538
G01 X35.8970 Y4.6109
G01 X35.7491 Y4.5963
G01 X35.7331 Y4.5940
G01 X35.7151 Y4.5896
G01 X35.7010 Y4.5846
G01 X35.6819 Y4.5757
G01 X35.6661 Y4.5659
G01 X35.6542 Y4.5570
G01 X35.6431 Y4.5470
G01 X35.6296 Y4.5325
G01 X35.6193 Y4.5185
G01 X35.6103 Y4.5036
G01 X35.6024 Y4.4868
G01 X35.5970 Y4.4715
G01 X35.5813 Y4.4196
G01 X35.5256 Y4.3155
G01 X35.4508 Y4.2242
G01 X35.3595 Y4.1494
G01 X35.2554 Y4.0937
G01 X35.1425 Y4.0595
G01 X35.0163 Y4.0470
G01 X34.7337 Y4.0470
G01 X34.6075 Y4.0595
G01 X34.4946 Y4.0937
G01 X34.3905 Y4.1494
G01 X34.3614 Y4.1732
G01 X34.3484 Y4.1828
G01 X34.3335 Y4.1918
G01 X34.3178 Y4.1992
G01 X34.3014 Y4.2050
G01 X34.2845 Y4.2093
G01 X34.2674 Y4.2118
G01 X34.2500 Y4.2127
G01 X34.2326 Y4.2118
G01 X34.2155 Y4.2093
G01 X34.1986 Y4.2050
G01 X34.1822 Y4.1992
G01 X34.1665 Y4.1918
G01 X34.1516 Y4.1828
G01 X34.1386 Y4.1732
G01 X34.1095 Y4.1494
G01 X34.0054 Y4.0937
G01 X33.8925 Y4.0595
G01 X33.7663 Y4.0470
G01 X33.4837 Y4.0470
G01 X33.3575 Y4.0595
G01 X33.2446 Y4.0937
G01 X33.1405 Y4.1494
G01 X33.1114 Y4.1732
G01 X33.1004 Y4.1814
G01 X33.0813 Y4.1929
G01 X33.0678 Y4.1992
G01 X33.0537 Y4.2043
G01 X33.0369 Y4.2087
G01 X33.0174 Y4.2118
G01 X33.0000 Y4.2127
G01 X32.9826 Y4.2118
G01 X32.9655 Y4.2093
G01 X32.9486 Y4.2050
G01 X32.9322 Y4.1992
G01 X32.9165 Y4.1918
G01 X32.9016 Y4.1828
G01 X32.8886 Y4.1732
G01 X32.8595 Y4.1494
G01 X32.7554 Y4.0937
G01 X32.6425 Y4.0595
G01 X32.5163 Y4.0470
G01 X32.2337 Y4.0470
G01 X32.1075 Y4.0595
G01 X31.9946 Y4.0937
G01 X31.9780 Y4.1026
G01 X31.9642 Y4.1091
G01 X31.9464 Y4.1155
G01 X31.9292 Y4.1197
G01 X31.9141 Y4.1219
G01 X31.8927 Y4.1229
G01 X31.8763 Y4.1219
G01 X31.8588 Y4.1190
G01 X31.8417 Y4.1145
G01 X31.8239 Y4.1078
G01 X31.8092 Y4.1004
G01 X31.7932 Y4.0903
G01 X31.7802 Y4.0802
G01 X31.7423 Y4.0476
G01 X31.6479 Y3.9944
G01 X31.5439 Y3.9602
G01 X31.5430 Y3.9601
G01 X31.4751 Y4.0281
G01 X31.4751 Y5.0953
G01 X31.4825 Y5.1115
G01 X31.4874 Y5.1256
G01 X31.4911 Y5.1401
G01 X31.4942 Y5.1596
G01 X31.4951 Y5.1770
G01 X31.4950 Y5.5255
G01 X31.4939 Y5.5428
G01 X31.4917 Y5.5575
G01 X31.4881 Y5.5720
G01 X31.4820 Y5.5896
G01 X31.4751 Y5.6047
G01 X31.4751 Y6.6719
G01 X31.5440 Y6.7409
G01 X31.5599 Y6.7412
G01 X31.5775 Y6.7433
G01 X31.5949 Y6.7471
G01 X31.6117 Y6.7527
G01 X31.6279 Y6.7599
G01 X31.6433 Y6.7686
G01 X31.6578 Y6.7789
G01 X31.6702 Y6.7898
G01 X31.6832 Y6.8036
G01 X31.6940 Y6.8177
G01 X31.7033 Y6.8328
G01 X31.7100 Y6.8465
G01 X31.7119 Y6.8511
G01 X31.7178 Y6.8678
G01 X31.7215 Y6.8826
G01 X31.7243 Y6.9014
G01 X31.7251 Y6.9179
G01 X31.7251 Y10.3344
G01 X31.7243 Y10.3505
G01 X31.7219 Y10.3750
G01 X31.7345 Y10.5024
G01 X31.7716 Y10.6249
G01 X31.8320 Y10.7378
G01 X31.9132 Y10.8368
G01 X31.9322 Y10.8524
G01 X31.9442 Y10.8633
G01 X36.2128 Y15.1320
G01 X36.2237 Y15.1439
G01 X36.2393 Y15.1629
G01 X36.3383 Y15.2441
G01 X36.4512 Y15.3045
G01 X36.5737 Y15.3417
G01 X36.7011 Y15.3542
G01 X36.7256 Y15.3518
G01 X36.7417 Y15.3511
G01 X37.8138 Y15.3511
G01 X37.8312 Y15.3519
G01 X37.8496 Y15.3547
G01 X37.8652 Y15.3587
G01 X37.8793 Y15.3637
G01 X37.8973 Y15.3720
G01 X37.9142 Y15.3823
G01 X37.9262 Y15.3912
G01 X37.9390 Y15.4029
G01 X37.9507 Y15.4158
G01 X37.9604 Y15.4287
G01 X37.9694 Y15.4436
G01 X37.9741 Y15.4523
G01 X38.0303 Y15.5208
G01 X38.0820 Y15.5633
G01 X38.0939 Y15.5741
G01 X38.1056 Y15.5870
G01 X38.1160 Y15.6010
G01 X38.1237 Y15.6137
G01 X38.1332 Y15.6339
G01 X38.1382 Y15.6479
G01 X38.1424 Y15.6648
G01 X38.1449 Y15.6820
G01 X38.1458 Y15.6993
G01 X38.1449 Y15.7167
G01 X38.1424 Y15.7339
G01 X38.1382 Y15.7507
G01 X38.1323 Y15.7671
G01 X38.1249 Y15.7828
G01 X38.1173 Y15.7956
G01 X38.1048 Y15.8126
G01 X38.0939 Y15.8245
G01 X38.0820 Y15.8354
G01 X38.0303 Y15.8779
G01 X37.9741 Y15.9464
G01 X37.9323 Y16.0245
G01 X37.9066 Y16.1094
G01 X37.8970 Y16.2063
G01 X37.8970 Y17.1889
G01 X37.9066 Y17.2858
G01 X37.9323 Y17.3706
G01 X37.9741 Y17.4487
G01 X38.0303 Y17.5173
G01 X38.0842 Y17.5614
G01 X38.0953 Y17.5714
G01 X38.1087 Y17.5860
G01 X38.1184 Y17.5989
G01 X38.1291 Y17.6170
G01 X38.1354 Y17.6306
G01 X38.1413 Y17.6469
G01 X38.1459 Y17.6662
G01 X38.1480 Y17.6810
G01 X38.1489 Y17.6983
G01 X38.1480 Y17.7157
G01 X38.1459 Y17.7304
G01 X38.1413 Y17.7497
G01 X38.1354 Y17.7661
G01 X38.1291 Y17.7796
G01 X38.1184 Y17.7977
G01 X38.1087 Y17.8106
G01 X38.0953 Y17.8252
G01 X38.0842 Y17.8352
G01 X38.0303 Y17.8794
G01 X37.9741 Y17.9479
G01 X37.9323 Y18.0261
G01 X37.9066 Y18.1109
G01 X37.8970 Y18.2078
G01 X37.8970 Y19.1904
G01 X37.9066 Y19.2873
G01 X37.9323 Y19.3721
G01 X37.9741 Y19.4503
G01 X38.0303 Y19.5188
G01 X38.0826 Y19.5617
G01 X38.0946 Y19.5725
G01 X38.1072 Y19.5862
G01 X38.1182 Y19.6012
G01 X38.1264 Y19.6151
G01 X38.1329 Y19.6286
G01 X38.1404 Y19.6495
G01 X38.1439 Y19.6640
G01 X38.1465 Y19.6812
G01 X38.1473 Y19.6986
G01 X38.1467 Y19.7135
G01 X38.1437 Y19.7343
G01 X38.1397 Y19.7500
G01 X38.1348 Y19.7640
G01 X38.1264 Y19.7820
G01 X38.1161 Y19.7989
G01 X38.1064 Y19.8118
G01 X38.0937 Y19.8255
G01 X38.0826 Y19.8354
G01 X38.0303 Y19.8784
G01 X37.9741 Y19.9469
G01 X37.9323 Y20.0250
G01 X37.9066 Y20.1099
G01 X37.8970 Y20.2068
G01 X37.8970 Y21.1894
G01 X37.9066 Y21.2863
G01 X37.9179 Y21.3240
G01 X37.9215 Y21.3385
G01 X37.9238 Y21.3532
G01 X37.9249 Y21.3718
G01 X37.9242 Y21.3879
G01 X37.9215 Y21.4075
G01 X37.9165 Y21.4267
G01 X37.9114 Y21.4408
G01 X37.9051 Y21.4543
G01 X37.8951 Y21.4714
G01 X37.8831 Y21.4872
G01 X37.8731 Y21.4982
G01 X37.8620 Y21.5083
G01 X37.8462 Y21.5202
G01 X37.8313 Y21.5292
G01 X37.8156 Y21.5366
G01 X37.7969 Y21.5431
G01 X37.7824 Y21.5467
G01 X37.7676 Y21.5489
G01 X37.7479 Y21.5501
G01 X29.0207 Y21.5501
G01 X27.0501 Y23.5207
G01 X27.0501 Y24.2980
G01 X27.0492 Y24.3154
G01 X27.0469 Y24.3313
G01 X27.0424 Y24.3494
G01 X27.0375 Y24.3635
G01 X27.0279 Y24.3836
G01 X27.0202 Y24.3964
G01 X27.0099 Y24.4103
G01 X26.9982 Y24.4232
G01 X26.9853 Y24.4349
G01 X26.9714 Y24.4452
G01 X26.9586 Y24.4529
G01 X26.9385 Y24.4625
G01 X26.9244 Y24.4674
G01 X26.9075 Y24.4717
G01 X26.8904 Y24.4742
G01 X26.8755 Y24.4750
G01 X3.6300 Y24.4751
G01 X3.6151 Y24.4744
G01 X3.5931 Y24.4711
G01 X3.5786 Y24.4674
G01 X3.5623 Y24.4616
G01 X3.5466 Y24.4542
G01 X3.5337 Y24.4465
G01 X3.5168 Y24.4341
G01 X3.5048 Y24.4232
G01 X3.4948 Y24.4122
G01 X3.4815 Y24.3943
G01 X3.4739 Y24.3815
G01 X3.4664 Y24.3658
G01 X3.4606 Y24.3494
G01 X3.4569 Y24.3349
G01 X3.4538 Y24.3154
G01 X3.4530 Y24.2980
G01 X3.4530 Y23.8587
G01 X3.4386 Y23.7130
G01 X3.3987 Y23.5813
G01 X3.3338 Y23.4599
G01 X3.2465 Y23.3535
G01 X3.1401 Y23.2662
G01 X3.0187 Y23.2013
G01 X2.8870 Y23.1614
G01 X2.7413 Y23.1470
G01 X0.7020 Y23.1470
G01 X0.6846 Y23.1462
G01 X0.6675 Y23.1436
G01 X0.6506 Y23.1394
G01 X0.6342 Y23.1336
G01 X0.6185 Y23.1261
G01 X0.6036 Y23.1172
G01 X0.5897 Y23.1068
G01 X0.5768 Y23.0952
G01 X0.5667 Y23.0842
G01 X0.5535 Y23.0663
G01 X0.5453 Y23.0523
G01 X0.5375 Y23.0354
G01 X0.5326 Y23.0214
G01 X0.5283 Y23.0045
G01 X0.5258 Y22.9873
G01 X0.5249 Y22.9700
G00 Z1.0000
G00 X0.5475 Y24.6499
G01 F50.00
G01 Z-0.1000
G01 F300.00
G01 X0.5206 Y24.6486
G01 X0.4915 Y24.6442
G01 X0.4629 Y24.6371
G01 X0.4352 Y24.6272
G01 X0.4086 Y24.6146
G01 X0.3833 Y24.5994
G01 X0.3597 Y24.5819
G01 X0.3396 Y24.5638
G01 X0.3181 Y24.5403
G01 X0.3020 Y24.5187
G01 X0.2843 Y24.4892
G01 X0.2728 Y24.4648
G01 X0.2629 Y24.4371
G01 X0.2558 Y24.4085
G01 X0.2514 Y24.3794
G01 X0.2500 Y24.3500
G01 X0.2500 Y23.8500
G01 X0.2514 Y23.8206
G01 X0.2560 Y23.7903
G01 X0.2637 Y23.7606
G01 X0.2728 Y23.7352
G01 X0.2843 Y23.7108
G01 X0.3006 Y23.6833
G01 X0.3181 Y23.6597
G01 X0.3396 Y23.6362
G01 X0.3597 Y23.6181
G01 X0.3813 Y23.6020
G01 X0.4086 Y23.5854
G01 X0.4375 Y23.5720
G01 X0.4629 Y23.5629
G01 X0.4915 Y23.5558
G01 X0.5206 Y23.5514
