(G-CODE GENERATED BY FLATCAM v8.994 - www.flatcam.org - Version Date: 2020/11/7)

(Name: doorbell-F_Cu.gbr_ncc_cnc)
(Type: G-code from Geometry)
(Units: MM)

(Created on Dimanche, 08 août 2021 at 16:04)

(This preprocessor is the default preprocessor used by FlatCAM.)
(It is made to work with MACH3 compatible motion controllers.)

(TOOL DIAMETER: 0.2 mm)
(Feedrate_XY: 80.0 mm/min)
(Feedrate_Z: 50.0 mm/min)
(Feedrate rapids 1500.0 mm/min)

(Z_Cut: -0.05 mm)
(Z_Move: 1.0 mm)
(Z Start: None mm)
(Z End: 5.0 mm)
(X,Y End: None mm)
(Steps per circle: 64)
(Preprocessor Geometry: default)

(X range:    0.1750 ...   44.8250  mm)
(Y range:    0.1750 ...   24.8250  mm)

(Spindle Speed: 2000.0 RPM)
G21
G90
G94

G01 F80.00

M5
G00 Z5.0000
G00 X0.0000 Y0.0000
T2
M6    
(MSG, Change to Tool Dia = 0.2000)
M0
G00 Z5.0000

S500 M3
G4 P0.5
S1000 M3
G4 P0.5
S2000 M3
G01 F80.00
G00 X0.1750 Y0.1750
G01 F50.00
G01 Z-0.0500
G01 F80.00
G01 X0.1750 Y24.8250
G01 X44.8250 Y24.8250
G01 X44.8250 Y0.1750
G01 X0.1750 Y0.1750
G01 X0.2513 Y0.1750
G01 X0.1750 Y0.4158
G01 X0.3981 Y0.1750
G01 X0.1750 Y0.8793
G01 X0.1750 Y1.3728
G01 X0.2777 Y1.0189
G01 X0.5450 Y0.1750
G01 X0.6918 Y0.1750
G01 X0.4116 Y1.0595
G01 X0.1750 Y1.8754
G01 X0.1750 Y2.4133
G01 X0.2772 Y2.0258
G01 X0.5456 Y1.1002
G01 X0.8389 Y0.1750
G01 X0.9869 Y0.1750
G01 X0.9696 Y0.2253
G01 X0.6796 Y1.1408
G01 X0.4121 Y2.0632
G01 X0.1750 Y2.9626
G01 X0.1750 Y3.5652
G01 X0.3031 Y3.0259
G01 X0.5470 Y2.1005
G01 X0.8135 Y1.1815
G01 X1.1025 Y0.2692
G01 X1.1349 Y0.1750
G01 X1.2830 Y0.1750
G01 X1.2355 Y0.3131
G01 X0.9475 Y1.2221
G01 X0.6819 Y2.1379
G01 X0.4389 Y3.0599
G01 X0.2186 Y3.9876
G01 X0.1750 Y4.1934
G01 X0.1750 Y4.8694
G01 X0.3552 Y4.0182
G01 X0.5747 Y3.0939
G01 X0.8169 Y2.1752
G01 X1.0815 Y1.2627
G01 X1.2035 Y0.8776
G00 Z1.0000
G00 X1.2398 Y0.7630
G01 F50.00
G01 Z-0.0500
G01 F80.00
G01 X1.3684 Y0.3570
G01 X1.4310 Y0.1750
G01 X1.5791 Y0.1750
G01 X1.5013 Y0.4009
G01 X1.4406 Y0.5927
G00 Z1.0000
G00 X1.5931 Y0.5750
G01 F50.00
G01 Z-0.0500
G01 F80.00
G01 X1.6343 Y0.4449
G01 X1.7271 Y0.1750
G01 X1.8751 Y0.1750
G01 X1.7672 Y0.4888
G01 X1.7399 Y0.5750
G01 X1.8867 Y0.5750
G01 X1.9001 Y0.5327
G01 X2.0232 Y0.1750
G01 X2.1712 Y0.1750
G01 X2.0336 Y0.5750
G01 X2.1817 Y0.5750
G01 X2.3193 Y0.1750
G01 X2.4673 Y0.1750
G01 X2.3297 Y0.5750
G00 Z1.0000
G00 X2.4777 Y0.5750
G01 F50.00
G01 Z-0.0500
G01 F80.00
G01 X2.6154 Y0.1750
G01 X2.7634 Y0.1750
G01 X2.6156 Y0.6047
G00 Z1.0000
G00 X2.7342 Y0.6903
G01 F50.00
G01 Z-0.0500
G01 F80.00
G01 X2.9114 Y0.1750
G01 X3.0595 Y0.1750
G01 X2.8307 Y0.8401
G01 X2.8206 Y0.8718
G00 Z1.0000
G00 X2.8250 Y1.3216
G01 F50.00
G01 Z-0.0500
G01 F80.00
G01 X2.9636 Y0.8840
G01 X3.2075 Y0.1750
G01 X3.3556 Y0.1750
G01 X3.0966 Y0.9279
G01 X2.8250 Y1.7851
G01 X2.8250 Y2.2872
G01 X2.9571 Y1.8317
G01 X3.2295 Y0.9718
G01 X3.5036 Y0.1750
G01 X3.6517 Y0.1750
G01 X3.3624 Y1.0158
G01 X3.0911 Y1.8723
G01 X2.8408 Y2.7353
G01 X2.8250 Y2.7953
G00 Z1.0000
G00 X2.6758 Y3.3615
G01 F50.00
G01 Z-0.0500
G01 F80.00
G01 X2.6118 Y3.6041
G01 X2.5570 Y3.8350
G00 Z1.0000
G00 X2.4155 Y3.8250
G01 F50.00
G01 Z-0.0500
G01 F80.00
G01 X2.4760 Y3.5701
G01 X2.5149 Y3.4226
G01 X2.6863 Y3.8963
G01 X2.7476 Y3.6382
G01 X2.9757 Y2.7726
G01 X3.2250 Y1.9130
G01 X3.4954 Y1.0597
G01 X3.7865 Y0.2133
G01 X3.8008 Y0.1750
G01 X3.9501 Y0.1750
G01 X3.9184 Y0.2604
G01 X3.6283 Y1.1036
G01 X3.3590 Y1.9536
G01 X3.1107 Y2.8100
G01 X2.8834 Y3.6722
G01 X2.7967 Y4.0373
G00 Z1.0000
G00 X2.8250 Y4.5240
G01 F50.00
G01 Z-0.0500
G01 F80.00
G01 X3.0192 Y3.7062
G01 X3.2456 Y2.8473
G01 X3.4930 Y1.9942
G01 X3.7612 Y1.1475
G01 X4.0502 Y0.3076
G01 X4.0994 Y0.1750
G01 X4.2488 Y0.1750
G01 X4.1820 Y0.3548
G01 X3.8942 Y1.1914
G01 X3.6270 Y2.0349
G01 X3.3805 Y2.8847
G01 X3.1550 Y3.7402
G01 X2.9506 Y4.6011
G01 X2.8250 Y5.1943
G01 X2.8250 Y5.9218
G01 X2.9047 Y5.4940
G01 X3.0872 Y4.6317
G01 X3.2908 Y3.7742
G01 X3.5155 Y2.9220
G01 X3.7609 Y2.0755
G01 X4.0271 Y1.2353
G01 X4.3138 Y0.4019
G01 X4.3981 Y0.1750
G01 X4.5475 Y0.1750
G01 X4.4456 Y0.4491
G01 X4.3935 Y0.6007
G00 Z1.0000
G00 X4.5503 Y0.5750
G01 F50.00
G01 Z-0.0500
G01 F80.00
G01 X4.5774 Y0.4963
G01 X4.6968 Y0.1750
G01 X4.8462 Y0.1750
G01 X4.7093 Y0.5434
G01 X4.6984 Y0.5750
G01 X4.8469 Y0.5750
G01 X4.9955 Y0.1750
G01 X5.1449 Y0.1750
G01 X4.9962 Y0.5750
G01 X5.1456 Y0.5750
G01 X5.2942 Y0.1750
G01 X5.4436 Y0.1750
G01 X5.2949 Y0.5750
G01 X5.4443 Y0.5750
G01 X5.5929 Y0.1750
G01 X5.7423 Y0.1750
G01 X5.5837 Y0.6016
G00 Z1.0000
G00 X5.7028 Y0.6831
G01 F50.00
G01 Z-0.0500
G01 F80.00
G01 X5.8916 Y0.1750
G01 X6.0410 Y0.1750
G01 X5.7911 Y0.8474
G00 Z1.0000
G00 X5.8175 Y1.1948
G01 F50.00
G01 Z-0.0500
G01 F80.00
G01 X5.8956 Y0.9679
G01 X6.1905 Y0.1750
G01 X6.3412 Y0.1750
G01 X6.3189 Y0.2308
G01 X6.0274 Y1.0151
G01 X5.9656 Y1.1948
G01 X6.1136 Y1.1948
G01 X6.1592 Y1.0622
G01 X6.4495 Y0.2812
G01 X6.4920 Y0.1750
G01 X6.6428 Y0.1750
G01 X6.5802 Y0.3316
G01 X6.2910 Y1.1094
G01 X6.2616 Y1.1948
G01 X6.4097 Y1.1948
G01 X6.4229 Y1.1566
G01 X6.7108 Y0.3820
G01 X6.7935 Y0.1750
G01 X6.9443 Y0.1750
G01 X6.8414 Y0.4324
G01 X6.5580 Y1.1948
G01 X6.7073 Y1.1948
G01 X6.9720 Y0.4828
G01 X7.0951 Y0.1750
G01 X7.2458 Y0.1750
G01 X7.1026 Y0.5331
G01 X6.8567 Y1.1948
G01 X7.0060 Y1.1948
G01 X7.2333 Y0.5835
G01 X7.3966 Y0.1750
G01 X7.5474 Y0.1750
G01 X7.3639 Y0.6339
G01 X7.1554 Y1.1948
G01 X7.3047 Y1.1948
G01 X7.4945 Y0.6843
G01 X7.6982 Y0.1750
G01 X7.8489 Y0.1750
G01 X7.6251 Y0.7347
G01 X7.4541 Y1.1948
G01 X7.6034 Y1.1948
G01 X7.7557 Y0.7851
G01 X7.9997 Y0.1750
G01 X8.1505 Y0.1750
G01 X7.8864 Y0.8355
G01 X7.7528 Y1.1948
G01 X7.9021 Y1.1949
G01 X8.0170 Y0.8858
G01 X8.3012 Y0.1750
G01 X8.4528 Y0.1750
G01 X8.4404 Y0.2040
G01 X8.1476 Y0.9362
G01 X8.0515 Y1.1949
G01 X8.2008 Y1.1949
G01 X8.2782 Y0.9866
G01 X8.5697 Y0.2576
G01 X8.6051 Y0.1750
G01 X8.7574 Y0.1750
G01 X8.6991 Y0.3112
G01 X8.4088 Y1.0370
G01 X8.3502 Y1.1949
G01 X8.4995 Y1.1949
G01 X8.5394 Y1.0874
G01 X8.8284 Y0.3648
G01 X8.9098 Y0.1750
G01 X9.0621 Y0.1750
G01 X8.9578 Y0.4183
G01 X8.6701 Y1.1378
G01 X8.6488 Y1.1950
G01 X8.7981 Y1.1950
G01 X9.0871 Y0.4719
G01 X9.2144 Y0.1750
G01 X9.3667 Y0.1750
G01 X9.2165 Y0.5255
G01 X8.9487 Y1.1950
G01 X9.0995 Y1.1950
G01 X9.3458 Y0.5791
G01 X9.5190 Y0.1750
G01 X9.6713 Y0.1750
G01 X9.4751 Y0.6326
G01 X9.2503 Y1.1950
G01 X9.4010 Y1.1950
G01 X9.6045 Y0.6862
G01 X9.8236 Y0.1750
G01 X9.9759 Y0.1750
G01 X9.7338 Y0.7398
G01 X9.5518 Y1.1950
G01 X9.7026 Y1.1950
G01 X9.8632 Y0.7934
G01 X10.1282 Y0.1750
G01 X10.2805 Y0.1750
G01 X9.9925 Y0.8469
G01 X9.8533 Y1.1951
G00 Z1.0000
G00 X9.9876 Y1.2363
G01 F50.00
G01 Z-0.0500
G01 F80.00
G01 X10.1219 Y0.9005
G01 X10.4150 Y0.2168
G01 X10.4341 Y0.1750
G01 X10.5880 Y0.1750
G01 X10.5429 Y0.2735
G01 X10.2512 Y0.9541
G01 X10.0868 Y1.3652
G00 Z1.0000
G00 X10.1000 Y1.7105
G01 F50.00
G01 Z-0.0500
G01 F80.00
G01 X10.1069 Y1.6920
G01 X10.3805 Y1.0077
G01 X10.6709 Y0.3303
G01 X10.7420 Y0.1750
G01 X10.8960 Y0.1750
G01 X10.7989 Y0.3870
G01 X10.5099 Y1.0612
G01 X10.2375 Y1.7424
G01 X9.9819 Y2.4300
G01 X9.9609 Y2.4911
G00 Z1.0000
G00 X9.8218 Y2.4650
G01 F50.00
G01 Z-0.0500
G01 F80.00
G01 X9.8501 Y2.3828
G01 X10.0185 Y1.9296
G00 Z1.0000
G00 X9.8449 Y1.9950
G01 F50.00
G01 Z-0.0500
G01 F80.00
G01 X9.7183 Y2.3357
G01 X9.6738 Y2.4650
G01 X9.5257 Y2.4650
G01 X9.5864 Y2.2885
G01 X9.6956 Y1.9950
G01 X9.5462 Y1.9950
G01 X9.4546 Y2.2414
G01 X9.3777 Y2.4650
G01 X9.2297 Y2.4650
G01 X9.3228 Y2.1942
G01 X9.3969 Y1.9950
G01 X9.2475 Y1.9950
G01 X9.1910 Y2.1470
G01 X9.0816 Y2.4650
G01 X8.9336 Y2.4650
G01 X9.0592 Y2.0999
G01 X9.0982 Y1.9950
G01 X8.9488 Y1.9950
G01 X8.9274 Y2.0527
G01 X8.7855 Y2.4650
G01 X8.6375 Y2.4650
G01 X8.7956 Y2.0055
G01 X8.7995 Y1.9950
G01 X8.6511 Y1.9950
G01 X8.4894 Y2.4650
G01 X8.3414 Y2.4650
G01 X8.5030 Y1.9951
G01 X8.3550 Y1.9951
G01 X8.1933 Y2.4652
G00 Z1.0000
G00 X8.0183 Y2.5434
G01 F50.00
G01 Z-0.0500
G01 F80.00
G01 X8.2070 Y1.9951
G01 X8.0589 Y1.9951
G01 X7.8822 Y2.5089
G01 X7.6461 Y3.2541
G01 X7.4284 Y4.0048
G01 X7.2897 Y4.5310
G00 Z1.0000
G00 X7.1657 Y4.4521
G01 F50.00
G01 Z-0.0500
G01 F80.00
G01 X7.2935 Y3.9675
G01 X7.5121 Y3.2134
G01 X7.7492 Y2.4650
G01 X7.9109 Y1.9951
G01 X7.7628 Y1.9951
G01 X7.6163 Y2.4211
G01 X7.3782 Y3.1728
G01 X7.1585 Y3.9302
G01 X7.0354 Y4.3973
G00 Z1.0000
G00 X6.8996 Y4.3633
G01 F50.00
G01 Z-0.0500
G01 F80.00
G01 X7.0236 Y3.8928
G01 X7.2442 Y3.1322
G01 X7.4834 Y2.3771
G01 X7.6148 Y1.9951
G01 X7.4667 Y1.9951
G01 X7.3504 Y2.3332
G01 X7.1102 Y3.0915
G01 X6.8887 Y3.8555
G01 X6.7583 Y4.3503
G00 Z1.0000
G00 X6.6104 Y4.3618
G01 F50.00
G01 Z-0.0500
G01 F80.00
G01 X6.7537 Y3.8181
G01 X6.9762 Y3.0509
G01 X7.2175 Y2.2893
G01 X7.3187 Y1.9951
G01 X7.1707 Y1.9951
G01 X7.0846 Y2.2454
G01 X6.8423 Y3.0102
G01 X6.6188 Y3.7808
G01 X6.4555 Y4.4005
G00 Z1.0000
G00 X6.2905 Y4.4773
G01 F50.00
G01 Z-0.0500
G01 F80.00
G01 X6.4839 Y3.7435
G01 X6.7083 Y2.9696
G01 X6.9516 Y2.2015
G01 X7.0226 Y1.9951
G01 X6.8746 Y1.9951
G01 X6.8187 Y2.1576
G01 X6.5743 Y2.9290
G01 X6.3490 Y3.7061
G01 X6.1427 Y4.4886
G01 X6.1128 Y4.6144
G00 Z1.0000
G00 X5.9130 Y4.8498
G01 F50.00
G01 Z-0.0500
G01 F80.00
G01 X6.0069 Y4.4546
G01 X6.2140 Y3.6688
G01 X6.4404 Y2.8883
G01 X6.6858 Y2.1136
G01 X6.7265 Y1.9951
G01 X6.5785 Y1.9951
G01 X6.5528 Y2.0697
G01 X6.3064 Y2.8477
G01 X6.0791 Y3.6315
G01 X5.8711 Y4.4206
G01 X5.8000 Y4.7200
G00 Z1.0000
G00 X5.7987 Y4.1460
G01 F50.00
G01 Z-0.0500
G01 F80.00
G01 X5.9442 Y3.5941
G01 X6.1724 Y2.8070
G01 X6.4199 Y2.0258
G01 X6.4305 Y1.9951
G01 X6.2828 Y1.9951
G01 X6.0384 Y2.7664
G01 X5.8092 Y3.5568
G01 X5.7084 Y3.9394
G00 Z1.0000
G00 X5.5865 Y3.8527
G01 F50.00
G01 Z-0.0500
G01 F80.00
G01 X5.6743 Y3.5194
G01 X5.7521 Y3.2512
G00 Z1.0000
G00 X5.7995 Y3.0878
G01 F50.00
G01 Z-0.0500
G01 F80.00
G01 X5.9045 Y2.7258
G01 X6.1359 Y1.9951
G01 X5.9891 Y1.9951
G01 X5.8000 Y2.5920
G01 X5.8000 Y2.1285
G01 X5.8422 Y1.9951
G00 Z1.0000
G00 X5.5613 Y3.4066
G01 F50.00
G01 Z-0.0500
G01 F80.00
G01 X5.5394 Y3.4821
G01 X5.4877 Y3.6782
G00 Z1.0000
G00 X4.4873 Y3.6289
G01 F50.00
G01 Z-0.0500
G01 F80.00
G01 X4.4323 Y3.8377
G00 Z1.0000
G00 X4.2583 Y3.9486
G01 F50.00
G01 Z-0.0500
G01 F80.00
G01 X4.4022 Y3.4025
G00 Z1.0000
G00 X4.2783 Y3.3233
G01 F50.00
G01 Z-0.0500
G01 F80.00
G01 X4.1057 Y3.9783
G01 X3.9068 Y4.8158
G01 X3.7285 Y5.6578
G01 X3.5710 Y6.5040
G01 X3.4791 Y7.0749
G01 X3.3373 Y7.0749
G01 X3.4330 Y6.4801
G01 X3.5912 Y5.6305
G01 X3.7702 Y4.7851
G01 X3.9698 Y3.9443
G01 X4.1814 Y3.1416
G00 Z1.0000
G00 X4.1750 Y2.6581
G01 F50.00
G01 Z-0.0500
G01 F80.00
G01 X4.0552 Y3.0714
G01 X3.8340 Y3.9103
G01 X3.6336 Y4.7544
G01 X3.4539 Y5.6032
G01 X3.2951 Y6.4561
G01 X3.1955 Y7.0749
G01 X3.0537 Y7.0749
G01 X3.1571 Y6.4322
G01 X3.3166 Y5.5759
G01 X3.4970 Y4.7237
G01 X3.6982 Y3.8763
G01 X3.9202 Y3.0340
G01 X4.1628 Y2.1974
G01 X4.1750 Y2.1591
G01 X4.1750 Y1.6955
G01 X4.0289 Y2.1568
G01 X3.7853 Y2.9967
G01 X3.5624 Y3.8423
G01 X3.3604 Y4.6931
G01 X3.1793 Y5.5486
G01 X3.0192 Y6.4083
G01 X2.9119 Y7.0749
G01 X2.7751 Y7.0444
G01 X2.8813 Y6.3843
G01 X3.0420 Y5.5213
G01 X3.2238 Y4.6624
G01 X3.4266 Y3.8082
G01 X3.6504 Y2.9593
G01 X3.8949 Y2.1162
G01 X4.1600 Y1.2793
G01 X4.1750 Y1.2357
G00 Z1.0000
G00 X1.2000 Y1.3567
G01 F50.00
G01 Z-0.0500
G01 F80.00
G01 X0.9518 Y2.2125
G01 X0.7105 Y3.1279
G01 X0.4918 Y4.0489
G01 X0.2958 Y4.9750
G01 X0.1750 Y5.6234
G01 X0.1750 Y6.4603
G01 X0.2604 Y5.9296
G01 X0.4331 Y5.0023
G01 X0.6284 Y4.0796
G01 X0.8463 Y3.1619
G01 X1.0867 Y2.2499
G01 X1.2000 Y1.8593
G01 X1.2000 Y2.3694
G01 X0.9822 Y3.1959
G01 X0.7650 Y4.1103
G01 X0.5704 Y5.0296
G01 X0.3984 Y5.9535
G01 X0.2491 Y6.8813
G01 X0.1750 Y7.4265
G01 X0.3749 Y6.9949
G01 X0.2616 Y7.8297
G01 X0.1750 Y8.6098
G01 X0.3749 Y8.0774
G01 X0.2977 Y8.7740
G01 X0.2176 Y9.7035
G01 X0.1750 Y10.3969
G01 X0.3749 Y9.5085
G01 X0.3573 Y9.7138
G01 X0.3003 Y10.6415
G01 X0.2661 Y11.5703
G01 X0.2547 Y12.4997
G01 X0.2661 Y13.4290
G01 X0.3003 Y14.3578
G01 X0.3573 Y15.2855
G01 X0.3749 Y15.4908
G00 Z1.0000
G00 X1.2224 Y15.5419
G01 F50.00
G01 Z-0.0500
G01 F80.00
G01 X1.1975 Y15.2531
G00 Z1.0000
G00 X1.5000 Y15.5250
G01 F50.00
G01 Z-0.0500
G01 F80.00
G01 X1.4902 Y15.5245
G01 X1.4805 Y15.5231
G01 X1.4710 Y15.5207
G01 X1.4617 Y15.5174
G01 X1.4529 Y15.5132
G01 X1.4444 Y15.5081
G01 X1.4366 Y15.5023
G01 X1.4293 Y15.4957
G01 X1.4243 Y15.4903
G01 X1.4182 Y15.4826
G01 X1.4130 Y15.4743
G01 X1.4086 Y15.4655
G01 X1.4050 Y15.4564
G01 X1.4024 Y15.4469
G01 X1.4008 Y15.4372
G01 X1.4000 Y15.4275
G01 X1.4000 Y11.9250
G01 X1.4005 Y11.9152
G01 X1.4019 Y11.9055
G01 X1.4043 Y11.8960
G01 X1.4076 Y11.8867
G01 X1.4130 Y11.8757
G01 X1.4169 Y11.8694
G01 X1.4212 Y11.8635
G01 X1.4293 Y11.8543
G01 X1.4347 Y11.8493
G01 X1.4404 Y11.8447
G01 X1.4465 Y11.8405
G01 X1.4529 Y11.8368
G01 X1.4640 Y11.8317
G01 X1.4710 Y11.8293
G01 X1.4781 Y11.8274
G01 X1.4902 Y11.8255
G01 X1.5000 Y11.8250
G01 X1.9998 Y11.8250
G01 X1.9998 Y10.9000
G01 X2.0020 Y10.8534
G01 X2.0094 Y10.8024
G01 X2.0200 Y10.7595
G01 X2.0229 Y10.7501
G01 X2.0379 Y10.7086
G01 X2.0567 Y10.6686
G01 X2.0613 Y10.6599
G01 X2.0855 Y10.6201
G01 X2.1133 Y10.5827
G01 X2.1463 Y10.5463
G01 X4.4873 Y8.2053
G01 X4.4873 Y6.6729
G01 X4.4567 Y6.6683
G01 X4.4234 Y6.6599
G01 X4.3911 Y6.6484
G01 X4.3600 Y6.6337
G01 X4.3306 Y6.6160
G01 X4.3030 Y6.5956
G01 X4.2775 Y6.5725
G01 X4.2577 Y6.5508
G01 X4.2529 Y6.5451
G01 X4.2368 Y6.5235
G01 X4.2314 Y6.5153
G01 X4.2152 Y6.4878
G01 X4.2036 Y6.4634
G01 X4.1999 Y6.4544
G01 X4.1901 Y6.4266
G01 X4.1817 Y6.3933
G01 X4.1767 Y6.3593
G01 X4.1750 Y6.3275
G01 X4.1750 Y4.1750
G01 X4.1770 Y4.1383
G01 X4.1817 Y4.1067
G01 X4.1901 Y4.0734
G01 X4.2016 Y4.0411
G01 X4.2141 Y4.0144
G01 X4.2175 Y4.0079
G01 X4.2314 Y3.9847
G01 X4.2368 Y3.9765
G01 X4.2544 Y3.9530
G01 X4.2775 Y3.9275
G01 X4.3030 Y3.9044
G01 X4.3265 Y3.8868
G01 X4.3347 Y3.8814
G01 X4.3579 Y3.8675
G01 X4.3644 Y3.8641
G01 X4.3911 Y3.8516
G01 X4.4234 Y3.8401
G01 X4.4567 Y3.8317
G01 X4.4873 Y3.8271
G01 X4.4873 Y3.4229
G01 X4.4567 Y3.4183
G01 X4.4234 Y3.4099
G01 X4.3911 Y3.3984
G01 X4.3644 Y3.3859
G01 X4.3579 Y3.3825
G01 X4.3347 Y3.3686
G01 X4.3265 Y3.3632
G01 X4.3030 Y3.3456
G01 X4.2775 Y3.3225
G01 X4.2544 Y3.2970
G01 X4.2368 Y3.2735
G01 X4.2314 Y3.2653
G01 X4.2175 Y3.2421
G01 X4.2141 Y3.2356
G01 X4.2016 Y3.2089
G01 X4.1901 Y3.1766
G01 X4.1817 Y3.1433
G01 X4.1767 Y3.1093
G01 X4.1750 Y3.0750
G01 X4.1750 Y0.9225
G01 X4.1763 Y0.8956
G01 X4.1773 Y0.8858
G01 X4.1817 Y0.8567
G01 X4.1888 Y0.8281
G01 X4.1916 Y0.8187
G01 X4.2016 Y0.7911
G01 X4.2141 Y0.7644
G01 X4.2187 Y0.7557
G01 X4.2326 Y0.7326
G01 X4.2368 Y0.7265
G01 X4.2544 Y0.7030
G01 X4.2741 Y0.6811
G01 X4.2811 Y0.6741
G01 X4.3030 Y0.6544
G01 X4.3306 Y0.6340
G01 X4.3600 Y0.6163
G01 X4.3866 Y0.6036
G01 X4.3956 Y0.5999
G01 X4.4234 Y0.5901
G01 X4.4519 Y0.5828
G01 X4.4616 Y0.5809
G01 X4.4883 Y0.5770
G01 X4.5250 Y0.5750
G01 X5.4500 Y0.5750
G01 X5.4794 Y0.5763
G01 X5.4892 Y0.5773
G01 X5.5183 Y0.5817
G01 X5.5492 Y0.5894
G01 X5.5839 Y0.6016
G01 X5.6150 Y0.6163
G01 X5.6444 Y0.6340
G01 X5.6682 Y0.6514
G01 X5.6758 Y0.6577
G01 X5.6957 Y0.6758
G01 X5.7009 Y0.6811
G01 X5.7206 Y0.7030
G01 X5.7382 Y0.7265
G01 X5.7436 Y0.7347
G01 X5.7587 Y0.7600
G01 X5.7734 Y0.7911
G01 X5.7849 Y0.8234
G01 X5.7922 Y0.8519
G01 X5.7941 Y0.8616
G01 X5.7985 Y0.8931
G01 X5.8000 Y0.9250
G01 X5.8000 Y1.1948
G01 X9.8500 Y1.1950
G01 X9.8696 Y1.1958
G01 X9.8794 Y1.1968
G01 X9.8988 Y1.1998
G01 X9.9178 Y1.2045
G01 X9.9272 Y1.2073
G01 X9.9457 Y1.2140
G01 X9.9635 Y1.2223
G01 X9.9721 Y1.2269
G01 X9.9868 Y1.2358
G01 X9.9929 Y1.2400
G01 X10.0086 Y1.2517
G01 X10.0232 Y1.2648
G01 X10.0285 Y1.2700
G01 X10.0417 Y1.2845
G01 X10.0550 Y1.3021
G01 X10.0592 Y1.3082
G01 X10.0693 Y1.3250
G01 X10.0800 Y1.3471
G01 X10.0892 Y1.3724
G01 X10.0947 Y1.3938
G01 X10.0988 Y1.4205
G01 X10.1000 Y1.4450
G01 X10.1000 Y1.7450
G01 X10.0989 Y1.7681
G01 X10.0957 Y1.7909
G01 X10.0905 Y1.8134
G01 X10.0831 Y1.8353
G01 X10.0758 Y1.8523
G01 X10.0716 Y1.8605
G01 X10.0637 Y1.8746
G01 X10.0600 Y1.8805
G01 X10.0495 Y1.8957
G01 X10.0348 Y1.9134
G01 X10.0184 Y1.9298
G01 X10.0043 Y1.9416
G01 X9.9969 Y1.9472
G01 X9.9836 Y1.9563
G01 X9.9776 Y1.9599
G01 X9.9614 Y1.9688
G01 X9.9403 Y1.9781
G01 X9.9184 Y1.9855
G01 X9.8959 Y1.9907
G01 X9.8731 Y1.9939
G01 X9.8500 Y1.9950
G01 X5.8000 Y1.9951
G01 X5.8000 Y3.0750
G01 X5.7983 Y3.1093
G01 X5.7937 Y3.1409
G01 X5.7862 Y3.1719
G01 X5.7834 Y3.1813
G01 X5.7734 Y3.2089
G01 X5.7587 Y3.2400
G01 X5.7410 Y3.2694
G01 X5.7236 Y3.2932
G01 X5.7190 Y3.2989
G01 X5.7009 Y3.3189
G01 X5.6939 Y3.3259
G01 X5.6720 Y3.3456
G01 X5.6444 Y3.3660
G01 X5.6150 Y3.3837
G01 X5.5884 Y3.3964
G01 X5.5794 Y3.4001
G01 X5.5539 Y3.4092
G01 X5.5469 Y3.4112
G01 X5.5183 Y3.4183
G01 X5.4877 Y3.4229
G01 X5.4877 Y3.8271
G01 X5.5183 Y3.8317
G01 X5.5469 Y3.8388
G01 X5.5563 Y3.8416
G01 X5.5839 Y3.8516
G01 X5.6150 Y3.8663
G01 X5.6403 Y3.8814
G01 X5.6485 Y3.8868
G01 X5.6720 Y3.9044
G01 X5.6939 Y3.9241
G01 X5.7009 Y3.9311
G01 X5.7206 Y3.9530
G01 X5.7410 Y3.9806
G01 X5.7563 Y4.0057
G01 X5.7609 Y4.0144
G01 X5.7734 Y4.0411
G01 X5.7849 Y4.0734
G01 X5.7922 Y4.1019
G01 X5.7941 Y4.1116
G01 X5.7983 Y4.1407
G01 X5.8000 Y4.1725
G01 X5.8000 Y4.8498
G01 X5.9447 Y4.8499
G01 X5.9575 Y4.8236
G01 X6.0003 Y4.7520
G01 X6.0045 Y4.7460
G01 X6.0528 Y4.6810
G01 X6.0575 Y4.6753
G01 X6.1136 Y4.6136
G01 X6.1772 Y4.5559
G01 X6.1829 Y4.5513
G01 X6.2500 Y4.5017
G01 X6.3257 Y4.4563
G01 X6.4056 Y4.4185
G01 X6.4864 Y4.3895
G01 X6.4935 Y4.3874
G01 X6.5744 Y4.3673
G01 X6.6569 Y4.3549
G01 X6.6667 Y4.3540
G01 X6.7451 Y4.3501
G01 X6.7549 Y4.3501
G01 X6.8382 Y4.3543
G01 X6.9256 Y4.3673
G01 X7.0113 Y4.3888
G01 X7.0898 Y4.4167
G01 X7.0989 Y4.4205
G01 X7.1699 Y4.4541
G01 X7.1785 Y4.4587
G01 X7.2500 Y4.5017
G01 X7.3171 Y4.5513
G01 X7.3247 Y4.5575
G01 X7.3864 Y4.6136
G01 X7.4457 Y4.6790
G01 X7.4983 Y4.7500
G01 X7.5413 Y4.8215
G01 X7.5459 Y4.8301
G01 X7.5815 Y4.9056
G01 X7.6112 Y4.9887
G01 X7.6327 Y5.0744
G01 X7.6457 Y5.1618
G01 X7.6500 Y5.2500
G01 X7.6457 Y5.3382
G01 X7.6327 Y5.4256
G01 X7.6126 Y5.5065
G01 X7.6105 Y5.5136
G01 X7.5815 Y5.5944
G01 X7.5459 Y5.6699
G01 X7.5413 Y5.6785
G01 X7.4983 Y5.7500
G01 X7.4487 Y5.8171
G01 X7.4425 Y5.8247
G01 X7.3864 Y5.8864
G01 X7.3210 Y5.9457
G01 X7.2500 Y5.9983
G01 X7.1785 Y6.0413
G01 X7.1699 Y6.0459
G01 X7.0944 Y6.0815
G01 X7.0113 Y6.1112
G01 X6.9304 Y6.1316
G01 X6.9207 Y6.1335
G01 X6.8358 Y6.1459
G01 X6.7500 Y6.1500
G01 X6.6667 Y6.1460
G01 X6.6569 Y6.1451
G01 X6.5744 Y6.1327
G01 X6.4935 Y6.1126
G01 X6.4841 Y6.1097
G01 X6.4056 Y6.0815
G01 X6.3301 Y6.0459
G01 X6.3215 Y6.0413
G01 X6.2541 Y6.0009
G01 X6.2460 Y5.9955
G01 X6.1790 Y5.9457
G01 X6.1172 Y5.8898
G01 X6.1119 Y5.8846
G01 X6.0543 Y5.8210
G01 X6.0031 Y5.7520
G01 X5.9991 Y5.7459
G01 X5.9575 Y5.6764
G01 X5.9447 Y5.6502
G01 X5.8000 Y5.6501
G01 X5.8000 Y6.3275
G01 X5.7983 Y6.3593
G01 X5.7941 Y6.3884
G01 X5.7922 Y6.3981
G01 X5.7849 Y6.4266
G01 X5.7734 Y6.4589
G01 X5.7609 Y6.4856
G01 X5.7563 Y6.4943
G01 X5.7410 Y6.5194
G01 X5.7206 Y6.5470
G01 X5.7009 Y6.5689
G01 X5.6939 Y6.5759
G01 X5.6720 Y6.5956
G01 X5.6485 Y6.6132
G01 X5.6403 Y6.6186
G01 X5.6150 Y6.6337
G01 X5.5839 Y6.6484
G01 X5.5563 Y6.6584
G01 X5.5469 Y6.6612
G01 X5.5183 Y6.6683
G01 X5.4877 Y6.6729
G01 X5.4877 Y8.4150
G01 X5.4857 Y8.4566
G01 X5.4847 Y8.4664
G01 X5.4781 Y8.5101
G01 X5.4675 Y8.5530
G01 X5.4646 Y8.5624
G01 X5.4496 Y8.6039
G01 X5.4298 Y8.6461
G01 X5.4060 Y8.6862
G01 X5.4006 Y8.6944
G01 X5.3742 Y8.7298
G01 X5.3412 Y8.7662
G01 X3.0002 Y11.1072
G01 X3.0002 Y11.8250
G01 X3.5000 Y11.8250
G01 X3.5074 Y11.8253
G01 X3.5147 Y11.8261
G01 X3.5219 Y11.8274
G01 X3.5314 Y11.8300
G01 X3.5383 Y11.8326
G01 X3.5450 Y11.8357
G01 X3.5535 Y11.8405
G01 X3.5596 Y11.8447
G01 X3.5653 Y11.8493
G01 X3.5707 Y11.8543
G01 X3.5757 Y11.8597
G01 X3.5803 Y11.8654
G01 X3.5858 Y11.8736
G01 X3.5893 Y11.8800
G01 X3.5924 Y11.8867
G01 X3.5957 Y11.8960
G01 X3.5976 Y11.9031
G01 X3.5992 Y11.9128
G01 X3.6000 Y11.9250
G01 X3.6000 Y15.4250
G01 X3.5992 Y15.4372
G01 X3.5981 Y15.4445
G01 X3.5964 Y15.4517
G01 X3.5942 Y15.4587
G01 X3.5914 Y15.4655
G01 X3.5858 Y15.4764
G01 X3.5788 Y15.4865
G01 X3.5707 Y15.4957
G01 X3.5615 Y15.5038
G01 X3.5556 Y15.5081
G01 X3.5493 Y15.5120
G01 X3.5383 Y15.5174
G01 X3.5267 Y15.5214
G01 X3.5147 Y15.5239
G01 X3.5025 Y15.5250
G01 X1.5000 Y15.5250
G00 Z1.0000
G00 X1.5019 Y15.5250
G01 F50.00
G01 Z-0.0500
G01 F80.00
G01 X1.5194 Y15.7275
G01 X1.6599 Y15.7275
G01 X1.6424 Y15.5250
G00 Z1.0000
G00 X1.7830 Y15.5250
G01 F50.00
G01 Z-0.0500
G01 F80.00
G01 X1.8004 Y15.7275
G01 X1.9409 Y15.7275
G01 X1.9235 Y15.5250
G00 Z1.0000
G00 X2.0640 Y15.5250
G01 F50.00
G01 Z-0.0500
G01 F80.00
G01 X2.0814 Y15.7275
G01 X2.2219 Y15.7275
G01 X2.2045 Y15.5250
G00 Z1.0000
G00 X2.3450 Y15.5250
G01 F50.00
G01 Z-0.0500
G01 F80.00
G01 X2.3624 Y15.7275
G01 X2.5029 Y15.7275
G01 X2.4855 Y15.5250
G01 X2.6260 Y15.5250
G01 X2.6434 Y15.7275
G01 X2.7839 Y15.7275
G01 X2.7665 Y15.5250
G00 Z1.0000
G00 X2.9070 Y15.5250
G01 F50.00
G01 Z-0.0500
G01 F80.00
G01 X2.9245 Y15.7275
G01 X3.0650 Y15.7275
G01 X3.0475 Y15.5250
G00 Z1.0000
G00 X3.1880 Y15.5250
G01 F50.00
G01 Z-0.0500
G01 F80.00
G01 X3.2055 Y15.7275
G01 X3.3460 Y15.7275
G01 X3.3285 Y15.5250
G00 Z1.0000
G00 X3.4690 Y15.5250
G01 F50.00
G01 Z-0.0500
G01 F80.00
G01 X3.4865 Y15.7275
G01 X3.6245 Y15.6985
G01 X3.6000 Y15.4141
G01 X3.7551 Y15.5839
G01 X3.7082 Y15.0384
G01 X3.6562 Y14.1930
G01 X3.6250 Y13.3466
G01 X3.6147 Y12.4997
G01 X3.6251 Y11.6518
G01 X3.4861 Y11.6225
G01 X3.4851 Y11.6493
G01 X3.4829 Y11.8250
G01 X3.3429 Y11.8250
G01 X3.3451 Y11.6459
G01 X3.3465 Y11.6077
G00 Z1.0000
G00 X3.2116 Y11.4671
G01 F50.00
G01 Z-0.0500
G01 F80.00
G01 X3.2052 Y11.6424
G01 X3.2029 Y11.8250
G01 X3.0629 Y11.8250
G01 X3.0652 Y11.6390
G01 X3.0880 Y11.0194
G00 Z1.0000
G00 X3.2335 Y10.8739
G01 F50.00
G01 Z-0.0500
G01 F80.00
G01 X3.2220 Y11.1868
G00 Z1.0000
G00 X3.3681 Y11.0217
G01 F50.00
G01 Z-0.0500
G01 F80.00
G01 X3.3766 Y10.7926
G01 X3.3806 Y10.7268
G01 X3.5136 Y10.8763
G01 X3.5164 Y10.7995
G01 X3.5300 Y10.5774
G01 X3.6610 Y10.7289
G01 X3.6795 Y10.4279
G01 X3.8104 Y10.5794
G01 X3.8289 Y10.2785
G01 X3.9598 Y10.4300
G01 X3.9783 Y10.1291
G01 X4.1093 Y10.2806
G01 X4.1270 Y9.9918
G01 X4.1281 Y9.9793
G01 X4.2587 Y10.1311
G01 X4.2666 Y10.0021
G01 X4.2818 Y9.8255
G01 X4.4090 Y9.9809
G01 X4.4356 Y9.6718
G01 X4.5627 Y9.8271
G01 X4.5893 Y9.5180
G01 X4.7165 Y9.6734
G01 X4.7431 Y9.3643
G01 X4.8702 Y9.5196
G01 X4.8954 Y9.2269
G01 X4.8973 Y9.2101
G01 X5.0240 Y9.3659
G01 X5.0348 Y9.2406
G01 X5.0557 Y9.0517
G01 X5.1789 Y9.2110
G01 X5.2141 Y8.8933
G01 X5.3373 Y9.0526
G01 X5.3729 Y8.7313
G01 X5.4954 Y8.8969
G01 X5.5415 Y8.4809
G01 X5.6500 Y7.6825
G01 X5.6874 Y7.4497
G01 X5.4877 Y7.8372
G01 X5.5115 Y7.6619
G01 X5.6400 Y6.8630
G01 X5.6934 Y6.5763
G00 Z1.0000
G00 X5.5347 Y6.6643
G01 F50.00
G01 Z-0.0500
G01 F80.00
G01 X5.5021 Y6.8391
G01 X5.4877 Y6.9286
G01 X5.8046 Y6.7438
G01 X5.9255 Y6.0948
G01 X5.9993 Y5.7462
G01 X5.8765 Y5.6502
G01 X5.8000 Y6.0116
G00 Z1.0000
G00 X6.1129 Y5.8856
G01 F50.00
G01 Z-0.0500
G01 F80.00
G01 X6.0628 Y6.1221
G01 X6.0204 Y6.3495
G00 Z1.0000
G00 X6.1831 Y6.2405
G01 F50.00
G01 Z-0.0500
G01 F80.00
G01 X6.2001 Y6.1495
G01 X6.2345 Y5.9870
G00 Z1.0000
G00 X6.3619 Y6.0610
G01 F50.00
G01 Z-0.0500
G01 F80.00
G01 X6.3374 Y6.1768
G01 X6.3213 Y6.2630
G01 X6.4545 Y6.3127
G01 X6.4747 Y6.2041
G01 X6.4941 Y6.1127
G00 Z1.0000
G00 X6.6311 Y6.1412
G01 F50.00
G01 Z-0.0500
G01 F80.00
G01 X6.6120 Y6.2314
G01 X6.5918 Y6.3400
G01 X6.7323 Y6.3499
G01 X6.7493 Y6.2587
G01 X6.7726 Y6.1490
G00 Z1.0000
G00 X6.9189 Y6.1338
G01 F50.00
G01 Z-0.0500
G01 F80.00
G01 X6.8866 Y6.2860
G01 X6.8754 Y6.3465
G01 X7.0232 Y6.3171
G01 X7.0712 Y6.0899
G00 Z1.0000
G00 X7.2313 Y6.0097
G01 F50.00
G01 Z-0.0500
G01 F80.00
G01 X7.1776 Y6.2634
G01 X7.3384 Y6.1797
G01 X7.4048 Y5.8663
G01 X7.5072 Y6.0584
G01 X7.5949 Y5.6440
G01 X7.7724 Y4.8968
G01 X7.9500 Y4.2229
G01 X7.9500 Y3.9850
G01 X7.9500 Y3.9825
G01 X7.9515 Y3.9581
G01 X7.9544 Y3.9386
G01 X7.9559 Y3.9314
G01 X7.9615 Y3.9101
G01 X7.9700 Y3.8871
G01 X7.9807 Y3.8650
G01 X7.9908 Y3.8482
G01 X7.9950 Y3.8421
G01 X8.0083 Y3.8245
G01 X8.0215 Y3.8100
G01 X8.0268 Y3.8048
G01 X8.0414 Y3.7917
G01 X8.0571 Y3.7800
G01 X8.0632 Y3.7758
G01 X8.0779 Y3.7669
G01 X8.0865 Y3.7623
G01 X8.1043 Y3.7540
G01 X8.1228 Y3.7473
G01 X8.1322 Y3.7445
G01 X8.1512 Y3.7398
G01 X8.1706 Y3.7368
G01 X8.1804 Y3.7358
G01 X8.2000 Y3.7350
G01 X9.8500 Y3.7350
G01 X9.8696 Y3.7358
G01 X9.8794 Y3.7368
G01 X9.8988 Y3.7398
G01 X9.9202 Y3.7451
G01 X9.9457 Y3.7540
G01 X9.9635 Y3.7623
G01 X9.9721 Y3.7669
G01 X9.9889 Y3.7771
G01 X10.0047 Y3.7887
G01 X10.0123 Y3.7950
G01 X10.0268 Y3.8082
G01 X10.0400 Y3.8227
G01 X10.0463 Y3.8303
G01 X10.0579 Y3.8461
G01 X10.0681 Y3.8629
G01 X10.0727 Y3.8715
G01 X10.0810 Y3.8893
G01 X10.0892 Y3.9124
G01 X10.0941 Y3.9314
G01 X10.0960 Y3.9411
G01 X10.0988 Y3.9605
G01 X10.1000 Y3.9825
G01 X10.1000 Y4.2850
G01 X10.0988 Y4.3095
G01 X10.0960 Y4.3289
G01 X10.0941 Y4.3386
G01 X10.0899 Y4.3552
G01 X10.0877 Y4.3622
G01 X10.0810 Y4.3807
G01 X10.0705 Y4.4028
G01 X10.0579 Y4.4239
G01 X10.0463 Y4.4397
G01 X10.0417 Y4.4455
G01 X10.0302 Y4.4582
G01 X10.0232 Y4.4652
G01 X10.0086 Y4.4783
G01 X9.9889 Y4.4929
G01 X9.9678 Y4.5055
G01 X9.9502 Y4.5140
G01 X9.9411 Y4.5177
G01 X9.9249 Y4.5235
G01 X9.9178 Y4.5255
G01 X9.8988 Y4.5302
G01 X9.8745 Y4.5338
G01 X9.8500 Y4.5350
G01 X8.2000 Y4.5350
G01 X8.1755 Y4.5338
G01 X8.1561 Y4.5310
G01 X8.1464 Y4.5291
G01 X8.1274 Y4.5242
G01 X8.1089 Y4.5177
G01 X8.0998 Y4.5140
G01 X8.0822 Y4.5055
G01 X8.0653 Y4.4955
G01 X8.0571 Y4.4900
G01 X8.0414 Y4.4783
G01 X8.0268 Y4.4652
G01 X8.0198 Y4.4582
G01 X8.0067 Y4.4436
G01 X7.9950 Y4.4279
G01 X7.9895 Y4.4197
G01 X7.9795 Y4.4028
G01 X7.9681 Y4.3784
G01 X7.9608 Y4.3576
G01 X7.9548 Y4.3338
G01 X7.9512 Y4.3095
G01 X7.9501 Y4.2899
G01 X7.9500 Y3.9850
G00 Z1.0000
G00 X8.0809 Y3.7652
G01 F50.00
G01 Z-0.0500
G01 F80.00
G01 X8.1820 Y3.4166
G01 X8.2300 Y3.2650
G00 Z1.0000
G00 X8.0911 Y3.2399
G01 F50.00
G01 Z-0.0500
G01 F80.00
G01 X8.0480 Y3.3760
G01 X7.8332 Y4.1169
G01 X7.6366 Y4.8628
G01 X7.6085 Y4.9808
G00 Z1.0000
G00 X7.5145 Y4.7767
G01 F50.00
G01 Z-0.0500
G01 F80.00
G01 X7.6982 Y4.0795
G01 X7.9140 Y3.3354
G01 X7.9787 Y3.1313
G00 Z1.0000
G00 X7.9500 Y2.7583
G01 F50.00
G01 Z-0.0500
G01 F80.00
G01 X7.7801 Y3.2947
G01 X7.5633 Y4.0422
G01 X7.4068 Y4.6360
G01 X8.0301 Y4.4682
G01 X7.9082 Y4.9308
G01 X7.7315 Y5.6746
G01 X7.6565 Y6.0289
G00 Z1.0000
G00 X7.7857 Y6.0946
G01 F50.00
G01 Z-0.0500
G01 F80.00
G01 X7.8681 Y5.7053
G01 X7.9500 Y5.3606
G01 X7.9500 Y5.2550
G01 X7.9510 Y5.2329
G01 X7.9548 Y5.2062
G01 X7.9615 Y5.1801
G01 X7.9690 Y5.1593
G01 X7.9773 Y5.1415
G01 X7.9807 Y5.1350
G01 X7.9908 Y5.1182
G01 X8.0067 Y5.0964
G01 X8.0198 Y5.0818
G01 X8.0268 Y5.0748
G01 X8.0414 Y5.0617
G01 X8.0571 Y5.0500
G01 X8.0653 Y5.0445
G01 X8.0822 Y5.0345
G01 X8.0998 Y5.0260
G01 X8.1089 Y5.0223
G01 X8.1274 Y5.0158
G01 X8.1488 Y5.0103
G01 X8.1755 Y5.0062
G01 X8.2000 Y5.0050
G01 X9.8500 Y5.0050
G01 X9.8696 Y5.0058
G01 X9.8794 Y5.0068
G01 X9.8988 Y5.0098
G01 X9.9226 Y5.0158
G01 X9.9457 Y5.0240
G01 X9.9635 Y5.0323
G01 X9.9721 Y5.0369
G01 X9.9889 Y5.0471
G01 X10.0047 Y5.0587
G01 X10.0123 Y5.0650
G01 X10.0268 Y5.0782
G01 X10.0400 Y5.0927
G01 X10.0463 Y5.1003
G01 X10.0579 Y5.1161
G01 X10.0681 Y5.1329
G01 X10.0727 Y5.1415
G01 X10.0810 Y5.1593
G01 X10.0892 Y5.1824
G01 X10.0941 Y5.2014
G01 X10.0960 Y5.2111
G01 X10.0988 Y5.2305
G01 X10.1000 Y5.2525
G01 X10.1000 Y5.5550
G01 X10.0988 Y5.5795
G01 X10.0960 Y5.5989
G01 X10.0941 Y5.6086
G01 X10.0899 Y5.6252
G01 X10.0877 Y5.6322
G01 X10.0810 Y5.6507
G01 X10.0705 Y5.6728
G01 X10.0579 Y5.6939
G01 X10.0463 Y5.7097
G01 X10.0417 Y5.7155
G01 X10.0302 Y5.7282
G01 X10.0232 Y5.7352
G01 X10.0086 Y5.7483
G01 X9.9889 Y5.7629
G01 X9.9678 Y5.7755
G01 X9.9502 Y5.7840
G01 X9.9411 Y5.7877
G01 X9.9249 Y5.7935
G01 X9.9178 Y5.7955
G01 X9.8988 Y5.8002
G01 X9.8745 Y5.8038
G01 X9.8500 Y5.8050
G01 X8.2000 Y5.8050
G01 X8.1755 Y5.8038
G01 X8.1561 Y5.8010
G01 X8.1464 Y5.7991
G01 X8.1274 Y5.7942
G01 X8.1089 Y5.7877
G01 X8.0998 Y5.7840
G01 X8.0822 Y5.7755
G01 X8.0653 Y5.7655
G01 X8.0571 Y5.7600
G01 X8.0414 Y5.7483
G01 X8.0268 Y5.7352
G01 X8.0198 Y5.7282
G01 X8.0067 Y5.7136
G01 X7.9950 Y5.6979
G01 X7.9895 Y5.6897
G01 X7.9795 Y5.6728
G01 X7.9681 Y5.6484
G01 X7.9608 Y5.6276
G01 X7.9548 Y5.6038
G01 X7.9512 Y5.5795
G01 X7.9501 Y5.5599
G01 X7.9500 Y5.2550
G00 Z1.0000
G00 X8.0149 Y5.0872
G01 F50.00
G01 Z-0.0500
G01 F80.00
G01 X8.0440 Y4.9648
G01 X8.1582 Y4.5314
G00 Z1.0000
G00 X8.3020 Y4.5350
G01 F50.00
G01 Z-0.0500
G01 F80.00
G01 X8.1781 Y5.0060
G00 Z1.0000
G00 X8.3229 Y5.0050
G01 F50.00
G01 Z-0.0500
G01 F80.00
G01 X8.4468 Y4.5350
G01 X8.5916 Y4.5350
G01 X8.4677 Y5.0050
G01 X8.6125 Y5.0050
G01 X8.7364 Y4.5350
G01 X8.8811 Y4.5350
G01 X8.7572 Y5.0050
G01 X8.9020 Y5.0050
G01 X9.0259 Y4.5350
G01 X9.1707 Y4.5350
G01 X9.0468 Y5.0050
G01 X9.1916 Y5.0050
G01 X9.3154 Y4.5350
G01 X9.4610 Y4.5350
G01 X9.4523 Y4.5649
G01 X9.3363 Y5.0050
G01 X9.4811 Y5.0050
G01 X9.5872 Y4.6023
G01 X9.6068 Y4.5350
G01 X9.7525 Y4.5350
G01 X9.7222 Y4.6396
G01 X9.6259 Y5.0050
G01 X9.7706 Y5.0050
G01 X9.8571 Y4.6770
G01 X9.8997 Y4.5300
G00 Z1.0000
G00 X9.9132 Y5.0133
G01 F50.00
G01 Z-0.0500
G01 F80.00
G01 X9.9920 Y4.7143
G01 X10.1916 Y4.0262
G01 X10.4079 Y3.3433
G01 X10.6410 Y2.6658
G01 X10.8906 Y1.9943
G01 X11.1566 Y1.3291
G01 X11.4389 Y0.6707
G01 X11.6659 Y0.1750
G01 X11.8199 Y0.1750
G01 X11.5669 Y0.7274
G01 X11.2859 Y1.3827
G01 X11.0212 Y2.0447
G01 X10.7728 Y2.7130
G01 X10.5409 Y3.3872
G01 X10.3255 Y4.0669
G01 X10.1270 Y4.7516
G01 X10.0377 Y5.0901
G00 Z1.0000
G00 X10.1000 Y5.4032
G01 F50.00
G01 Z-0.0500
G01 F80.00
G01 X10.2619 Y4.7890
G01 X10.4595 Y4.1075
G01 X10.6738 Y3.4311
G01 X10.9046 Y2.7602
G01 X10.9999 Y2.5039
G01 X10.9999 Y2.9137
G01 X10.8067 Y3.4750
G01 X10.5935 Y4.1482
G01 X10.3968 Y4.8263
G01 X10.2169 Y5.5091
G01 X10.0647 Y6.1499
G01 X10.2085 Y6.1499
G01 X10.3527 Y5.5431
G01 X10.5317 Y4.8637
G01 X10.7274 Y4.1888
G01 X10.9397 Y3.5189
G01 X10.9999 Y3.3440
G01 X10.9998 Y3.7925
G01 X10.8614 Y4.2294
G01 X10.6667 Y4.9010
G01 X10.4885 Y5.5771
G01 X10.3439 Y6.1857
G00 Z1.0000
G00 X10.4481 Y6.3608
G01 F50.00
G01 Z-0.0500
G01 F80.00
G01 X10.4635 Y6.2881
G01 X10.6243 Y5.6112
G01 X10.8016 Y4.9383
G01 X10.9954 Y4.2701
G01 X10.9998 Y4.2560
G01 X10.9998 Y4.7573
G01 X10.9365 Y4.9757
G01 X10.7601 Y5.6452
G01 X10.6001 Y6.3188
G01 X10.4567 Y6.9962
G01 X10.3795 Y7.4106
G01 X10.5459 Y7.2817
G01 X10.4848 Y7.6101
G01 X10.6008 Y7.7563
G01 X10.6058 Y7.7247
G01 X10.6486 Y7.4951
G00 Z1.0000
G00 X10.7645 Y7.6373
G01 F50.00
G01 Z-0.0500
G01 F80.00
G01 X10.7438 Y7.7486
G01 X10.7241 Y7.8712
G01 X10.8521 Y7.9568
G01 X10.8817 Y7.7726
G01 X10.8879 Y7.7395
G00 Z1.0000
G00 X11.0169 Y7.8134
G01 F50.00
G01 Z-0.0500
G01 F80.00
G01 X10.9840 Y8.0182
G01 X11.1182 Y8.0654
G01 X11.1505 Y7.8643
G00 Z1.0000
G00 X11.2878 Y7.8922
G01 F50.00
G01 Z-0.0500
G01 F80.00
G01 X11.2556 Y8.0928
G01 X11.3962 Y8.0999
G01 X11.4286 Y7.8987
G00 Z1.0000
G00 X11.5731 Y7.8832
G01 F50.00
G01 Z-0.0500
G01 F80.00
G01 X11.5390 Y8.0938
G01 X11.6855 Y8.0647
G01 X11.7094 Y7.9162
G01 X11.7237 Y7.8390
G00 Z1.0000
G00 X11.8808 Y7.7600
G01 F50.00
G01 Z-0.0500
G01 F80.00
G01 X11.8473 Y7.9401
G01 X11.8361 Y8.0099
G01 X11.9921 Y7.9273
G01 X12.0487 Y7.6230
G01 X12.1588 Y7.7968
G01 X12.2417 Y7.3512
G01 X12.2599 Y7.2653
G00 Z1.0000
G00 X12.2920 Y7.1137
G01 F50.00
G01 Z-0.0500
G01 F80.00
G01 X12.3759 Y6.7176
G01 X12.4115 Y6.5676
G01 X12.2407 Y6.6809
G01 X12.3897 Y6.0534
G01 X12.5557 Y5.4238
G01 X12.7370 Y4.7984
G01 X12.8204 Y4.5351
G01 X12.9673 Y4.5351
G01 X12.8710 Y4.8390
G01 X12.6906 Y5.4611
G01 X12.5255 Y6.0874
G01 X12.5080 Y6.1611
G00 Z1.0000
G00 X12.6546 Y6.1499
G01 F50.00
G01 Z-0.0500
G01 F80.00
G01 X12.6613 Y6.1214
G01 X12.8255 Y5.4984
G01 X12.9006 Y5.2394
G00 Z1.0000
G00 X12.9311 Y5.1342
G01 F50.00
G01 Z-0.0500
G01 F80.00
G01 X13.0050 Y4.8797
G01 X13.1141 Y4.5351
G01 X13.2610 Y4.5351
G01 X13.1389 Y4.9203
G01 X13.1136 Y5.0079
G00 Z1.0000
G00 X13.2601 Y5.0050
G01 F50.00
G01 Z-0.0500
G01 F80.00
G01 X13.2729 Y4.9610
G01 X13.4078 Y4.5351
G01 X13.5547 Y4.5351
G01 X13.4059 Y5.0050
G01 X13.5526 Y5.0050
G01 X13.7015 Y4.5351
G01 X13.8483 Y4.5351
G01 X13.6995 Y5.0050
G01 X13.8463 Y5.0050
G01 X13.9952 Y4.5350
G01 X14.1431 Y4.5350
G01 X14.1301 Y4.5729
G01 X13.9932 Y5.0050
G01 X14.1400 Y5.0050
G01 X14.2630 Y4.6168
G01 X14.2912 Y4.5350
G01 X14.4392 Y4.5350
G01 X14.3959 Y4.6607
G01 X14.2869 Y5.0050
G01 X14.4337 Y5.0050
G01 X14.5289 Y4.7047
G01 X14.5872 Y4.5350
G01 X14.7353 Y4.5350
G01 X14.6618 Y4.7486
G01 X14.5806 Y5.0050
G01 X14.7274 Y5.0050
G01 X14.7947 Y4.7925
G01 X14.8890 Y4.5185
G00 Z1.0000
G00 X15.0500 Y4.0633
G01 F50.00
G01 Z-0.0500
G01 F80.00
G01 X15.2010 Y3.6570
G01 X15.3410 Y3.3069
G01 X15.2070 Y3.2652
G01 X15.0704 Y3.6066
G01 X14.9901 Y3.8227
G00 Z1.0000
G00 X14.8696 Y3.7449
G01 F50.00
G01 Z-0.0500
G01 F80.00
G01 X14.9398 Y3.5563
G01 X15.0562 Y3.2652
G01 X14.9054 Y3.2651
G01 X14.8092 Y3.5059
G01 X14.7240 Y3.7350
G01 X14.5746 Y3.7350
G01 X14.6785 Y3.4555
G01 X14.7547 Y3.2651
G01 X14.6039 Y3.2651
G01 X14.5479 Y3.4051
G01 X14.4253 Y3.7350
G01 X14.2759 Y3.7350
G01 X14.4173 Y3.3547
G01 X14.4531 Y3.2651
G01 X14.3024 Y3.2651
G01 X14.2867 Y3.3043
G01 X14.1266 Y3.7350
G01 X13.9773 Y3.7349
G01 X14.1519 Y3.2651
G01 X14.0026 Y3.2651
G01 X13.8280 Y3.7349
G01 X13.6786 Y3.7349
G01 X13.8533 Y3.2650
G01 X13.7039 Y3.2650
G01 X13.5409 Y3.7035
G01 X13.5301 Y3.7349
G01 X13.3821 Y3.7349
G01 X13.4091 Y3.6563
G01 X13.5546 Y3.2650
G01 X13.4052 Y3.2650
G01 X13.2773 Y3.6091
G01 X13.2341 Y3.7349
G01 X13.0860 Y3.7349
G01 X13.1455 Y3.5620
G01 X13.2559 Y3.2650
G00 Z1.0000
G00 X13.1079 Y3.2613
G01 F50.00
G01 Z-0.0500
G01 F80.00
G01 X13.0137 Y3.5148
G01 X12.9380 Y3.7349
G01 X12.7899 Y3.7349
G01 X12.8819 Y3.4676
G01 X12.9815 Y3.1995
G00 Z1.0000
G00 X12.9000 Y3.0170
G01 F50.00
G01 Z-0.0500
G01 F80.00
G01 X12.7500 Y3.4205
G01 X12.6419 Y3.7349
G01 X12.4938 Y3.7349
G01 X12.6182 Y3.3733
G01 X12.8499 Y2.7501
G01 X13.0968 Y2.1328
G01 X13.1557 Y1.9951
G01 X13.0034 Y1.9951
G01 X12.9674 Y2.0792
G01 X12.7193 Y2.6997
G01 X12.4864 Y3.3261
G01 X12.3458 Y3.7349
G00 Z1.0000
G00 X12.1956 Y3.7411
G01 F50.00
G01 Z-0.0500
G01 F80.00
G01 X12.3546 Y3.2790
G01 X12.5886 Y2.6493
G01 X12.8381 Y2.0256
G01 X12.8511 Y1.9951
G01 X12.6995 Y1.9951
G01 X12.4580 Y2.5989
G01 X12.2228 Y3.2318
G01 X12.0210 Y3.8182
G00 Z1.0000
G00 X11.8064 Y4.0277
G01 F50.00
G01 Z-0.0500
G01 F80.00
G01 X11.8702 Y3.8263
G01 X12.0910 Y3.1846
G01 X12.3274 Y2.5486
G01 X12.5487 Y1.9951
G01 X12.3979 Y1.9951
G01 X12.1968 Y2.4982
G01 X11.9591 Y3.1375
G01 X11.8001 Y3.5996
G01 X11.8001 Y3.1693
G01 X11.8273 Y3.0903
G01 X12.0662 Y2.4478
G01 X12.1648 Y2.2011
G01 X11.9160 Y2.4499
G01 X11.8002 Y2.7616
G00 Z1.0000
G00 X11.1604 Y2.0737
G01 F50.00
G01 Z-0.0500
G01 F80.00
G01 X11.4153 Y1.4363
G01 X11.6948 Y0.7841
G01 X11.9738 Y0.1750
G01 X12.1285 Y0.1750
G01 X12.1169 Y0.1989
G01 X11.8228 Y0.8409
G01 X11.5446 Y1.4898
G01 X11.4116 Y1.8225
G00 Z1.0000
G00 X11.6628 Y1.5713
G01 F50.00
G01 Z-0.0500
G01 F80.00
G01 X11.6740 Y1.5434
G01 X11.9508 Y0.8976
G01 X12.2434 Y0.2587
G01 X12.2843 Y0.1750
G01 X12.4401 Y0.1750
G01 X12.3700 Y0.3186
G01 X12.0788 Y0.9543
G01 X11.9278 Y1.3067
G00 Z1.0000
G00 X12.1245 Y1.2031
G01 F50.00
G01 Z-0.0500
G01 F80.00
G01 X12.2068 Y1.0111
G01 X12.4966 Y0.3785
G01 X12.5958 Y0.1750
G01 X12.7516 Y0.1750
G01 X12.6231 Y0.4383
G01 X12.3348 Y1.0678
G01 X12.2803 Y1.1949
G01 X12.4326 Y1.1949
G01 X12.4628 Y1.1245
G01 X12.7497 Y0.4982
G01 X12.9074 Y0.1750
G01 X13.0632 Y0.1750
G01 X12.8762 Y0.5580
G01 X12.5908 Y1.1813
G01 X12.5849 Y1.1949
G01 X12.7385 Y1.1949
G01 X13.0028 Y0.6179
G01 X13.2189 Y0.1750
G01 X13.3747 Y0.1750
G01 X13.1293 Y0.6778
G01 X12.8925 Y1.1949
G01 X13.0465 Y1.1949
G01 X13.2559 Y0.7376
G01 X13.5305 Y0.1750
G01 X13.6868 Y0.1750
G01 X13.6771 Y0.1938
G01 X13.3825 Y0.7975
G01 X13.2004 Y1.1949
G01 X13.3544 Y1.1949
G01 X13.5090 Y0.8573
G01 X13.8022 Y0.2567
G01 X13.8445 Y0.1750
G01 X14.0022 Y0.1750
G01 X13.9272 Y0.3197
G01 X13.6356 Y0.9172
G01 X13.5084 Y1.1949
G01 X13.6624 Y1.1949
G01 X13.7621 Y0.9770
G01 X14.0523 Y0.3826
G01 X14.1600 Y0.1750
G01 X14.3177 Y0.1750
G01 X14.1773 Y0.4456
G01 X13.8887 Y1.0369
G01 X13.8163 Y1.1949
G01 X13.9703 Y1.1949
G01 X14.0153 Y1.0968
G01 X14.3024 Y0.5085
G01 X14.4754 Y0.1750
G01 X14.6331 Y0.1750
G01 X14.4274 Y0.5715
G01 X14.1418 Y1.1566
G01 X14.1243 Y1.1949
G01 X14.2789 Y1.1949
G01 X14.5525 Y0.6344
G01 X14.7908 Y0.1750
G01 X14.9485 Y0.1750
G01 X14.6775 Y0.6974
G01 X14.4347 Y1.1949
G01 X14.5905 Y1.1949
G01 X14.8026 Y0.7603
G01 X15.0977 Y0.1915
G01 X15.1067 Y0.1750
G01 X15.2665 Y0.1750
G01 X15.2212 Y0.2575
G01 X14.9276 Y0.8232
G01 X14.7462 Y1.1949
G01 X14.9020 Y1.1949
G01 X15.0527 Y0.8862
G01 X15.3446 Y0.3235
G01 X15.4263 Y0.1750
G01 X15.5861 Y0.1750
G01 X15.4681 Y0.3895
G01 X15.1777 Y0.9491
G01 X15.0578 Y1.1949
G01 X15.2136 Y1.1949
G01 X15.3028 Y1.0121
G01 X15.5916 Y0.4555
G01 X15.7459 Y0.1750
G01 X15.9057 Y0.1750
G01 X15.7150 Y0.5215
G01 X15.4278 Y1.0750
G01 X15.3693 Y1.1949
G01 X15.5251 Y1.1949
G01 X15.5529 Y1.1380
G01 X15.8385 Y0.5875
G01 X16.0655 Y0.1750
G01 X16.2253 Y0.1750
G01 X15.9620 Y0.6535
G01 X15.6811 Y1.1949
G01 X15.8388 Y1.1949
G01 X16.0854 Y0.7194
G01 X16.3853 Y0.1750
G01 X16.5473 Y0.1750
G01 X16.5030 Y0.2511
G01 X16.2089 Y0.7854
G01 X15.9965 Y1.1949
G01 X16.1542 Y1.1949
G01 X16.3324 Y0.8514
G01 X16.6248 Y0.3201
G01 X16.7094 Y0.1750
G01 X16.8714 Y0.1750
G01 X16.7466 Y0.3891
G01 X16.5657 Y0.7178
G00 Z1.0000
G00 X16.7353 Y0.7000
G01 F50.00
G01 Z-0.0500
G01 F80.00
G01 X16.8684 Y0.4581
G01 X17.0334 Y0.1750
G01 X17.1955 Y0.1750
G01 X16.9902 Y0.5272
G01 X16.8951 Y0.7000
G01 X17.0549 Y0.7000
G01 X17.1120 Y0.5962
G01 X17.3575 Y0.1750
G01 X17.5195 Y0.1750
G01 X17.2339 Y0.6652
G01 X17.2147 Y0.7000
G01 X17.3756 Y0.7000
G01 X17.6507 Y0.2280
G01 X17.6833 Y0.1750
G01 X17.8477 Y0.1750
G01 X17.7708 Y0.3000
G01 X17.5376 Y0.7000
G01 X17.6996 Y0.7000
G01 X17.8908 Y0.3720
G01 X18.0122 Y0.1750
G01 X18.1766 Y0.1750
G01 X18.0109 Y0.4439
G01 X17.8617 Y0.7000
G01 X18.0237 Y0.7000
G01 X18.1310 Y0.5159
G01 X18.3410 Y0.1750
G01 X18.5055 Y0.1750
G01 X18.2511 Y0.5879
G01 X18.1857 Y0.7000
G01 X18.3478 Y0.7000
G01 X18.3712 Y0.6599
G01 X18.6700 Y0.1750
G01 X18.8370 Y0.1750
G01 X18.7860 Y0.2536
G01 X18.5109 Y0.7000
G01 X18.6753 Y0.7000
G01 X18.9042 Y0.3285
G01 X19.0040 Y0.1750
G01 X19.1710 Y0.1750
G01 X19.0225 Y0.4034
G01 X18.8394 Y0.7006
G00 Z1.0000
G00 X18.9813 Y0.7371
G01 F50.00
G01 Z-0.0500
G01 F80.00
G01 X19.1408 Y0.4783
G01 X19.3381 Y0.1750
G01 X19.5051 Y0.1750
G01 X19.3593 Y0.3990
G00 Z1.0000
G00 X19.5420 Y0.3749
G01 F50.00
G01 Z-0.0500
G01 F80.00
G01 X19.6721 Y0.1750
G01 X19.8417 Y0.1750
G01 X19.7907 Y0.2493
G01 X19.7090 Y0.3749
G01 X19.8760 Y0.3749
G01 X19.9072 Y0.3271
G01 X20.0115 Y0.1750
G01 X20.1813 Y0.1750
G01 X20.0441 Y0.3749
G01 X20.2139 Y0.3749
G01 X20.3510 Y0.1750
G01 X20.5208 Y0.1750
G01 X20.3836 Y0.3749
G01 X20.5534 Y0.3749
G01 X20.6692 Y0.2061
G01 X20.6917 Y0.1750
G01 X20.8644 Y0.1750
G01 X20.7837 Y0.2868
G01 X20.7232 Y0.3749
G01 X20.8929 Y0.3749
G01 X21.0372 Y0.1750
G01 X21.2099 Y0.1750
G01 X21.0654 Y0.3749
G00 Z1.0000
G00 X21.2057 Y0.4198
G01 F50.00
G01 Z-0.0500
G01 F80.00
G01 X21.3826 Y0.1750
G01 X21.5562 Y0.1750
G01 X21.5384 Y0.1985
G01 X21.2895 Y0.5428
G01 X21.5000 Y0.4906
G01 X21.3560 Y0.6898
G01 X21.2975 Y0.7750
G01 X21.5000 Y0.7296
G01 X21.4704 Y0.7704
G01 X21.2975 Y1.0225
G01 X21.5000 Y0.9748
G01 X21.3040 Y1.2605
G01 X21.2975 Y1.2705
G01 X21.5000 Y1.2223
G01 X21.4204 Y1.3382
G01 X21.3060 Y1.5141
G00 Z1.0000
G00 X21.3696 Y1.6731
G01 F50.00
G01 Z-0.0500
G01 F80.00
G01 X21.5019 Y1.4696
G00 Z1.0000
G00 X21.5749 Y1.6143
G01 F50.00
G01 Z-0.0500
G01 F80.00
G01 X21.3881 Y1.9013
G01 X21.3751 Y1.9225
G01 X21.5749 Y1.8710
G01 X21.5064 Y1.9762
G01 X21.3751 Y2.1894
G01 X21.5749 Y2.1319
G01 X21.3751 Y2.4562
G01 X21.5749 Y2.3988
G01 X21.4933 Y2.5312
G01 X21.3751 Y2.7341
G01 X21.5749 Y2.6692
G01 X21.3751 Y3.0121
G01 X21.5749 Y2.9472
G01 X21.4973 Y3.0804
G01 X21.3751 Y3.3024
G01 X21.5749 Y3.2297
G01 X21.3946 Y3.5573
G01 X21.3751 Y3.5949
G01 X21.5749 Y3.5200
G01 X21.5181 Y3.6232
G01 X21.3751 Y3.8989
G01 X21.5749 Y3.8177
G01 X21.4303 Y4.0964
G01 X21.3751 Y4.2096
G01 X21.5749 Y4.1217
G01 X21.5553 Y4.1594
G01 X21.3556 Y4.5685
G01 X21.3069 Y4.6749
G01 X21.1530 Y4.6749
G01 X21.2291 Y4.5086
G01 X21.2599 Y4.4455
G00 Z1.0000
G00 X21.0905 Y4.4751
G01 F50.00
G01 Z-0.0500
G01 F80.00
G01 X20.9990 Y4.6749
G00 Z1.0000
G00 X20.8268 Y4.7147
G01 F50.00
G01 Z-0.0500
G01 F80.00
G01 X20.9349 Y4.4786
G01 X20.7608 Y4.5226
G01 X20.6541 Y4.7555
G01 X20.5794 Y4.9297
G01 X20.5248 Y4.7017
G01 X20.3400 Y5.1330
G01 X20.3159 Y5.1932
G01 X20.2583 Y4.9683
G01 X20.2106 Y5.0794
G01 X20.0646 Y5.4445
G01 X20.0017 Y5.2249
G01 X19.9033 Y5.4709
G01 X19.8235 Y5.6856
G01 X19.5879 Y5.9212
G01 X19.6045 Y5.8730
G01 X19.7727 Y5.4205
G01 X19.8097 Y5.3278
G00 Z1.0000
G00 X19.6751 Y5.2874
G01 F50.00
G01 Z-0.0500
G01 F80.00
G01 X19.6421 Y5.3701
G01 X19.4727 Y5.8259
G01 X19.3622 Y6.1469
G01 X19.0590 Y6.1675
G01 X19.0486 Y6.1978
G01 X18.9268 Y6.5823
G01 X18.8429 Y6.3837
G01 X18.7657 Y6.6272
G01 X18.7183 Y6.7908
G00 Z1.0000
G00 X18.7037 Y6.8054
G01 F50.00
G01 Z-0.0500
G01 F80.00
G01 X20.7171 Y4.7921
G01 X20.7481 Y4.7641
G01 X20.7777 Y4.7423
G01 X20.8071 Y4.7245
G01 X20.8158 Y4.7199
G01 X20.8469 Y4.7053
G01 X20.8792 Y4.6936
G01 X20.8886 Y4.6908
G01 X20.9219 Y4.6825
G01 X20.9583 Y4.6770
G01 X21.0000 Y4.6749
G01 X21.5000 Y4.6749
G01 X21.5000 Y4.5475
G01 X21.5005 Y4.5402
G01 X21.5015 Y4.5329
G01 X21.5030 Y4.5257
G01 X21.5050 Y4.5186
G01 X21.5096 Y4.5072
G01 X21.5155 Y4.4965
G01 X21.5227 Y4.4866
G01 X21.5310 Y4.4776
G01 X21.5404 Y4.4697
G01 X21.5507 Y4.4630
G01 X21.5617 Y4.4576
G01 X21.5749 Y4.4532
G01 X21.5749 Y1.5468
G01 X21.5663 Y1.5442
G01 X21.5595 Y1.5414
G01 X21.5529 Y1.5382
G01 X21.5465 Y1.5345
G01 X21.5404 Y1.5303
G01 X21.5328 Y1.5241
G01 X21.5276 Y1.5190
G01 X21.5227 Y1.5134
G01 X21.5169 Y1.5056
G01 X21.5130 Y1.4993
G01 X21.5096 Y1.4928
G01 X21.5067 Y1.4860
G01 X21.5043 Y1.4790
G01 X21.5024 Y1.4719
G01 X21.5011 Y1.4647
G01 X21.5003 Y1.4574
G01 X21.5000 Y1.4500
G01 X21.5000 Y0.4000
G01 X21.5003 Y0.3926
G01 X21.5015 Y0.3829
G01 X21.5030 Y0.3757
G01 X21.5058 Y0.3663
G01 X21.5086 Y0.3595
G01 X21.5130 Y0.3507
G01 X21.5169 Y0.3444
G01 X21.5227 Y0.3366
G01 X21.5276 Y0.3310
G01 X21.5328 Y0.3259
G01 X21.5385 Y0.3212
G01 X21.5465 Y0.3155
G01 X21.5529 Y0.3118
G01 X21.5595 Y0.3086
G01 X21.5663 Y0.3058
G01 X21.5733 Y0.3036
G01 X21.5829 Y0.3015
G01 X21.5902 Y0.3005
G01 X21.6000 Y0.3000
G01 X22.2525 Y0.3000
G01 X22.2647 Y0.3011
G01 X22.2767 Y0.3036
G01 X22.2883 Y0.3076
G01 X22.2993 Y0.3130
G01 X22.3096 Y0.3197
G01 X22.3190 Y0.3276
G01 X22.3273 Y0.3366
G01 X22.3345 Y0.3465
G01 X22.3404 Y0.3572
G01 X22.3450 Y0.3686
G01 X22.3470 Y0.3757
G01 X22.3485 Y0.3829
G01 X22.3499 Y0.3951
G01 X22.3500 Y1.4500
G01 X22.3495 Y1.4598
G01 X22.3485 Y1.4671
G01 X22.3464 Y1.4767
G01 X22.3442 Y1.4837
G01 X22.3414 Y1.4905
G01 X22.3370 Y1.4993
G01 X22.3331 Y1.5056
G01 X22.3288 Y1.5115
G01 X22.3241 Y1.5172
G01 X22.3190 Y1.5224
G01 X22.3134 Y1.5273
G01 X22.3056 Y1.5331
G01 X22.2971 Y1.5382
G01 X22.2905 Y1.5414
G01 X22.2837 Y1.5442
G01 X22.2751 Y1.5468
G01 X22.2751 Y4.4532
G01 X22.2837 Y4.4558
G01 X22.2905 Y4.4586
G01 X22.2971 Y4.4618
G01 X22.3035 Y4.4655
G01 X22.3115 Y4.4712
G01 X22.3172 Y4.4759
G01 X22.3224 Y4.4810
G01 X22.3273 Y4.4866
G01 X22.3318 Y4.4924
G01 X22.3358 Y4.4986
G01 X22.3393 Y4.5050
G01 X22.3433 Y4.5140
G01 X22.3457 Y4.5210
G01 X22.3481 Y4.5305
G01 X22.3492 Y4.5378
G01 X22.3499 Y4.5451
G01 X22.3500 Y5.6000
G01 X22.3492 Y5.6122
G01 X22.3470 Y5.6243
G01 X22.3450 Y5.6314
G01 X22.3424 Y5.6383
G01 X22.3370 Y5.6493
G01 X22.3303 Y5.6596
G01 X22.3224 Y5.6690
G01 X22.3134 Y5.6773
G01 X22.3035 Y5.6845
G01 X22.2928 Y5.6904
G01 X22.2814 Y5.6950
G01 X22.2695 Y5.6981
G01 X22.2574 Y5.6997
G01 X22.2500 Y5.7000
G01 X21.6000 Y5.7000
G01 X21.5926 Y5.6997
G01 X21.5853 Y5.6989
G01 X21.5781 Y5.6976
G01 X21.5710 Y5.6957
G01 X21.5595 Y5.6914
G01 X21.5529 Y5.6882
G01 X21.5465 Y5.6845
G01 X21.5366 Y5.6773
G01 X21.5276 Y5.6690
G01 X21.5197 Y5.6596
G01 X21.5155 Y5.6535
G01 X21.5118 Y5.6471
G01 X21.5067 Y5.6360
G01 X21.5043 Y5.6290
G01 X21.5024 Y5.6219
G01 X21.5008 Y5.6122
G01 X21.5001 Y5.6049
G01 X21.5000 Y5.4752
G01 X21.1657 Y5.4751
G01 X19.5027 Y7.1382
G01 X19.5483 Y7.2000
G01 X19.5913 Y7.2715
G01 X19.5959 Y7.2801
G01 X19.6315 Y7.3556
G01 X19.6597 Y7.4341
G01 X19.6626 Y7.4435
G01 X19.6827 Y7.5244
G01 X19.6951 Y7.6069
G01 X19.6960 Y7.6167
G01 X19.7000 Y7.7000
G01 X19.6960 Y7.7833
G01 X19.6951 Y7.7931
G01 X19.6827 Y7.8756
G01 X19.6626 Y7.9565
G01 X19.6597 Y7.9659
G01 X19.6315 Y8.0444
G01 X19.5959 Y8.1199
G01 X19.5913 Y8.1285
G01 X19.5483 Y8.2000
G01 X19.4987 Y8.2671
G01 X19.4925 Y8.2747
G01 X19.4364 Y8.3364
G01 X19.3747 Y8.3925
G01 X19.3671 Y8.3987
G01 X19.3000 Y8.4483
G01 X19.2285 Y8.4913
G01 X19.2199 Y8.4959
G01 X19.1444 Y8.5315
G01 X19.0659 Y8.5597
G01 X19.0565 Y8.5626
G01 X18.9756 Y8.5827
G01 X18.8882 Y8.5957
G01 X18.8000 Y8.6000
G01 X18.7118 Y8.5957
G01 X18.6244 Y8.5827
G01 X18.5387 Y8.5612
G01 X18.4556 Y8.5315
G01 X18.3757 Y8.4937
G01 X18.3000 Y8.4483
G01 X18.2290 Y8.3957
G01 X18.1636 Y8.3364
G01 X18.1043 Y8.2710
G01 X18.0517 Y8.2000
G01 X18.0063 Y8.1243
G01 X17.9685 Y8.0444
G01 X17.9388 Y7.9613
G01 X17.9173 Y7.8756
G01 X17.9043 Y7.7882
G01 X17.9000 Y7.7000
G01 X17.9043 Y7.6118
G01 X17.9173 Y7.5244
G01 X17.9388 Y7.4387
G01 X17.9685 Y7.3556
G01 X18.0063 Y7.2757
G01 X18.0517 Y7.2000
G01 X18.1043 Y7.1290
G01 X18.1636 Y7.0636
G01 X18.2290 Y7.0043
G01 X18.3000 Y6.9517
G01 X18.3757 Y6.9063
G01 X18.4556 Y6.8685
G01 X18.5387 Y6.8388
G01 X18.6244 Y6.8173
G01 X18.7037 Y6.8054
G00 Z1.0000
G00 X18.5602 Y6.8332
G01 F50.00
G01 Z-0.0500
G01 F80.00
G01 X18.6303 Y6.5917
G00 Z1.0000
G00 X18.4686 Y6.6467
G01 F50.00
G01 Z-0.0500
G01 F80.00
G01 X18.3961 Y6.8965
G01 X18.3029 Y6.7153
G01 X18.2227 Y6.9920
G01 X18.2165 Y7.0155
G01 X18.1243 Y6.8286
G01 X18.0877 Y6.9547
G01 X17.9993 Y7.2901
G01 X17.9220 Y7.0341
G01 X17.8219 Y7.4141
G01 X17.7129 Y7.8730
G01 X17.9004 Y7.6894
G01 X17.8398 Y7.9445
G01 X17.7961 Y8.1508
G01 X17.9642 Y8.0328
G01 X17.9005 Y8.3337
G01 X18.0147 Y8.4702
G01 X18.0674 Y8.2214
G00 Z1.0000
G00 X18.1825 Y8.3537
G01 F50.00
G01 Z-0.0500
G01 F80.00
G01 X18.1461 Y8.5257
G01 X18.1361 Y8.5793
G01 X18.2627 Y8.6639
G01 X18.2834 Y8.5530
G01 X18.3049 Y8.4514
G00 Z1.0000
G00 X18.4332 Y8.5210
G01 F50.00
G01 Z-0.0500
G01 F80.00
G01 X18.4207 Y8.5803
G01 X18.3942 Y8.7225
G01 X18.5282 Y8.7674
G01 X18.5580 Y8.6076
G01 X18.5663 Y8.5683
G00 Z1.0000
G00 X18.7038 Y8.5946
G01 F50.00
G01 Z-0.0500
G01 F80.00
G01 X18.6953 Y8.6349
G01 X18.6655 Y8.7947
G01 X18.8070 Y8.7999
G01 X18.8326 Y8.6622
G01 X18.8462 Y8.5978
G00 Z1.0000
G00 X18.9935 Y8.5784
G01 F50.00
G01 Z-0.0500
G01 F80.00
G01 X18.9699 Y8.6895
G01 X18.9509 Y8.7915
G01 X19.0988 Y8.7620
G01 X19.1072 Y8.7168
G01 X19.1467 Y8.5305
G00 Z1.0000
G00 X19.3085 Y8.4422
G01 F50.00
G01 Z-0.0500
G01 F80.00
G01 X19.2533 Y8.7028
G01 X19.4157 Y8.6115
G01 X19.4790 Y8.3126
G01 X19.4864 Y8.2814
G01 X19.5896 Y8.4659
G01 X19.6156 Y8.3433
G01 X19.7232 Y7.8903
G01 X19.8418 Y7.4401
G01 X19.8584 Y7.3829
G01 X19.6789 Y7.5088
G01 X19.7069 Y7.4028
G01 X19.8375 Y6.9523
G01 X19.9066 Y6.7343
G01 X19.9905 Y6.9329
G01 X20.1121 Y6.5491
G01 X20.1228 Y6.5181
G01 X20.2054 Y6.7180
G01 X20.2450 Y6.5930
G01 X20.3484 Y6.2925
G01 X20.4259 Y6.4975
G01 X20.5272 Y6.2032
G01 X20.5801 Y6.0608
G01 X20.6516 Y6.2718
G01 X20.6590 Y6.2503
G01 X20.8179 Y5.8230
G01 X20.8884 Y6.0351
G01 X20.9483 Y5.8740
G01 X21.0691 Y5.5718
G01 X21.2595 Y5.4752
G01 X21.2454 Y5.5080
G01 X21.1271 Y5.8036
G00 Z1.0000
G00 X21.2909 Y5.7712
G01 F50.00
G01 Z-0.0500
G01 F80.00
G01 X21.3747 Y5.5616
G01 X21.4118 Y5.4752
G01 X21.5021 Y5.6202
G01 X21.4155 Y5.8366
G01 X21.5426 Y5.8957
G01 X21.6209 Y5.7000
G01 X21.7723 Y5.7000
G01 X21.7627 Y5.7223
G01 X21.6907 Y5.9025
G01 X21.8415 Y5.9025
G01 X21.8921 Y5.7759
G01 X21.9246 Y5.7000
G01 X22.0769 Y5.7000
G01 X22.0214 Y5.8295
G01 X21.9922 Y5.9025
G01 X22.1430 Y5.9025
G01 X22.1508 Y5.8831
G01 X22.2292 Y5.7000
G01 X22.2972 Y5.8967
G01 X22.4460 Y5.5498
G01 X22.5525 Y5.3172
G01 X22.3500 Y5.4231
G01 X22.4947 Y5.1072
G01 X22.5525 Y4.9888
G01 X22.3500 Y5.0869
G01 X22.3681 Y5.0474
G01 X22.5525 Y4.6696
G01 X22.3500 Y4.7653
G01 X22.4307 Y4.6000
G01 X22.5224 Y4.4233
G01 X22.3300 Y4.4900
G01 X22.4749 Y4.2107
G01 X22.2751 Y4.2919
G01 X22.3824 Y4.0852
G01 X22.4749 Y3.9170
G01 X22.2751 Y3.9897
G01 X22.4749 Y3.6270
G01 X22.2751 Y3.6994
G01 X22.3500 Y3.5634
G01 X22.4749 Y3.3490
G01 X22.2751 Y3.4138
G01 X22.4539 Y3.1070
G01 X22.4749 Y3.0729
G01 X22.2751 Y3.1358
G01 X22.3339 Y3.0350
G01 X22.4749 Y2.8061
G01 X22.2751 Y2.8635
G01 X22.4526 Y2.5754
G01 X22.4749 Y2.5411
G01 X22.2751 Y2.5966
G01 X22.3343 Y2.5005
G01 X22.4749 Y2.2844
G01 X22.2751 Y2.3349
G01 X22.4681 Y2.0383
G01 X22.4749 Y2.0283
G01 X22.2751 Y2.0781
G01 X22.3517 Y1.9605
G01 X22.4749 Y1.7808
G01 X22.2751 Y1.8246
G01 X22.5006 Y1.4960
G01 X22.5525 Y1.4242
G00 Z1.0000
G00 X22.3477 Y1.4714
G01 F50.00
G01 Z-0.0500
G01 F80.00
G01 X22.3861 Y1.4153
G01 X22.5525 Y1.1852
G01 X22.3500 Y1.2264
G01 X22.5525 Y0.9464
G01 X22.3500 Y0.9874
G01 X22.4380 Y0.8656
G01 X22.5525 Y0.7152
G01 X22.3500 Y0.7501
G01 X22.6179 Y0.3980
G01 X22.7964 Y0.1750
G01 X22.6171 Y0.1750
G01 X22.5075 Y0.3119
G01 X22.3500 Y0.5189
G00 Z1.0000
G00 X22.3194 Y0.3280
G01 F50.00
G01 Z-0.0500
G01 F80.00
G01 X22.3971 Y0.2258
G01 X22.4378 Y0.1750
G01 X22.2598 Y0.1750
G01 X22.1648 Y0.3000
G01 X22.0839 Y0.1750
G01 X21.9889 Y0.3000
G01 X21.9080 Y0.1750
G01 X21.8130 Y0.3000
G01 X21.7321 Y0.1750
G01 X21.6509 Y0.2819
G01 X21.6378 Y0.3000
G00 Z1.0000
G00 X22.8157 Y0.3749
G01 F50.00
G01 Z-0.0500
G01 F80.00
G01 X22.9757 Y0.1750
G01 X23.1559 Y0.1750
G01 X23.1360 Y0.1988
G01 X22.9950 Y0.3749
G00 Z1.0000
G00 X23.1554 Y0.3986
G01 F50.00
G01 Z-0.0500
G01 F80.00
G01 X23.2442 Y0.2876
G01 X23.3389 Y0.1750
G01 X23.5218 Y0.1750
G01 X23.3524 Y0.3764
G01 X23.2626 Y0.4887
G01 X23.4128 Y0.5249
G01 X23.4606 Y0.4652
G01 X23.7048 Y0.1750
G01 X23.7826 Y0.3000
G01 X23.8664 Y0.2004
G01 X23.8888 Y0.1750
G01 X23.9656 Y0.3000
G01 X24.0757 Y0.1750
G01 X24.1521 Y0.3000
G01 X24.2626 Y0.1750
G01 X24.3389 Y0.3000
G01 X24.4494 Y0.1750
G01 X24.4846 Y0.3466
G01 X24.5875 Y0.2303
G01 X24.6388 Y0.1750
G01 X24.8299 Y0.1750
G01 X24.6912 Y0.3243
G01 X24.5138 Y0.5249
G01 X24.7007 Y0.5249
G01 X24.7949 Y0.4183
G01 X25.0209 Y0.1750
G01 X25.2128 Y0.1750
G01 X25.1968 Y0.1914
G01 X25.0113 Y0.3911
G00 Z1.0000
G00 X25.2174 Y0.3749
G01 F50.00
G01 Z-0.0500
G01 F80.00
G01 X25.2982 Y0.2879
G01 X25.4083 Y0.1750
G01 X25.6039 Y0.1750
G01 X25.4089 Y0.3749
G01 X25.6045 Y0.3749
G01 X25.7995 Y0.1750
G01 X25.8001 Y0.3749
G01 X25.8988 Y0.2738
G01 X26.0000 Y0.1750
G01 X25.9957 Y0.3749
G01 X26.2004 Y0.1750
G01 X26.1960 Y0.3749
G01 X26.4011 Y0.1750
G01 X26.3964 Y0.3749
G01 X26.4921 Y0.2816
G01 X26.6068 Y0.1750
G00 Z1.0000
G00 X26.5958 Y0.3764
G01 F50.00
G01 Z-0.0500
G01 F80.00
G01 X26.8125 Y0.1750
G01 X27.0199 Y0.1750
G01 X26.9835 Y0.2073
G01 X26.7312 Y0.4416
G00 Z1.0000
G00 X26.7955 Y0.5729
G01 F50.00
G01 Z-0.0500
G01 F80.00
G01 X27.0018 Y0.3814
G00 Z1.0000
G00 X27.0893 Y0.3006
G01 F50.00
G01 Z-0.0500
G01 F80.00
G01 X27.2313 Y0.1750
G01 X27.3013 Y0.3000
G01 X27.4426 Y0.1750
G01 X27.5126 Y0.3000
G01 X27.5628 Y0.2556
G01 X27.6586 Y0.1750
G01 X27.7275 Y0.3000
G01 X27.8760 Y0.1750
G00 Z1.0000
G00 X27.8482 Y0.3814
G01 F50.00
G01 Z-0.0500
G01 F80.00
G01 X28.0441 Y0.2165
G01 X28.0960 Y0.1750
G01 X28.3200 Y0.1750
G01 X28.1330 Y0.3247
G01 X27.8500 Y0.5628
G00 Z1.0000
G00 X27.8500 Y0.7491
G01 F50.00
G01 Z-0.0500
G01 F80.00
G01 X27.9286 Y0.6796
G01 X28.0543 Y0.5738
G00 Z1.0000
G00 X28.0525 Y0.7584
G01 F50.00
G01 Z-0.0500
G01 F80.00
G01 X28.0201 Y0.7856
G01 X27.8500 Y0.9360
G01 X27.8500 Y1.1229
G01 X28.0525 Y0.9438
G01 X28.0525 Y1.1307
G01 X27.9237 Y1.2446
G01 X27.8500 Y1.3130
G01 X28.0525 Y1.3176
G01 X28.0177 Y1.3483
G01 X27.7751 Y1.5737
G01 X27.7751 Y1.7679
G01 X27.8436 Y1.7011
G01 X28.0436 Y1.5153
G00 Z1.0000
G00 X27.9749 Y1.7702
G01 F50.00
G01 Z-0.0500
G01 F80.00
G01 X27.9401 Y1.8025
G01 X27.7751 Y1.9635
G01 X27.7751 Y2.1593
G01 X27.9749 Y1.9642
G01 X27.9749 Y2.1597
G01 X27.8787 Y2.2537
G01 X27.7751 Y2.3598
G01 X27.9749 Y2.3555
G01 X27.7751 Y2.5602
G01 X27.9749 Y2.5559
G01 X27.8331 Y2.7013
G01 X27.7751 Y2.7637
G01 X27.9749 Y2.7564
G01 X27.9345 Y2.7978
G01 X27.7751 Y2.9694
G01 X27.9749 Y2.9600
G01 X27.8032 Y3.1448
G01 X27.7751 Y3.1766
G01 X27.9749 Y3.1656
G01 X27.9069 Y3.2389
G01 X27.7751 Y3.3879
G01 X27.9749 Y3.3733
G01 X27.7887 Y3.5838
G01 X27.7751 Y3.6000
G01 X27.9749 Y3.5846
G01 X27.8948 Y3.6753
G01 X27.7751 Y3.8175
G01 X27.9749 Y3.7974
G01 X27.7895 Y4.0178
G01 X27.7751 Y4.0358
G01 X27.9749 Y4.0149
G01 X27.8977 Y4.1066
G01 X27.7751 Y4.2598
G01 X27.9749 Y4.2342
G01 X27.8052 Y4.4463
G01 X27.7944 Y4.4604
G00 Z1.0000
G00 X27.8500 Y4.6186
G01 F50.00
G01 Z-0.0500
G01 F80.00
G01 X27.9156 Y4.5324
G01 X28.0146 Y4.4087
G01 X28.0525 Y4.5854
G01 X28.0259 Y4.6185
G01 X27.8500 Y4.8498
G01 X28.0525 Y4.8148
G01 X27.9480 Y4.9521
G01 X27.8500 Y5.0877
G01 X28.0525 Y5.0466
G01 X27.8803 Y5.2848
G01 X27.8500 Y5.3290
G01 X28.0525 Y5.2855
G01 X27.9948 Y5.3654
G01 X27.8500 Y5.5764
G01 X28.0525 Y5.5287
G01 X27.9391 Y5.6939
G01 X27.7751 Y5.9460
G01 X27.9749 Y5.8956
G01 X27.8935 Y6.0208
G01 X27.7376 Y6.2739
G01 X27.5879 Y6.5307
G01 X27.4446 Y6.7910
G01 X27.3077 Y7.0549
G01 X27.2232 Y7.2280
G01 X27.1185 Y7.1233
G01 X27.1827 Y6.9919
G01 X27.3211 Y6.7250
G01 X27.3836 Y6.6116
G01 X27.7539 Y6.5238
G01 X27.8576 Y6.3458
G01 X27.9687 Y6.1656
G00 Z1.0000
G00 X27.0749 Y5.7482
G01 F50.00
G01 Z-0.0500
G01 F80.00
G01 X27.0171 Y5.8420
G01 X26.8570 Y6.1166
G01 X26.8188 Y6.1860
G01 X26.4742 Y6.2315
G01 X26.4568 Y6.2631
G01 X26.3450 Y6.4787
G00 Z1.0000
G00 X26.2130 Y6.4291
G01 F50.00
G01 Z-0.0500
G01 F80.00
G01 X26.3079 Y6.2462
G00 Z1.0000
G00 X26.1619 Y6.2236
G01 F50.00
G01 Z-0.0500
G01 F80.00
G01 X26.0574 Y6.4250
G01 X25.9016 Y6.4250
G01 X25.9321 Y6.3625
G01 X26.0047 Y6.2225
G01 X25.8470 Y6.2225
G01 X25.8071 Y6.2995
G01 X25.7458 Y6.4250
G01 X25.5901 Y6.4250
G01 X25.6820 Y6.2366
G01 X25.6893 Y6.2225
G01 X25.5298 Y6.2293
G01 X25.4093 Y6.4761
G01 X25.3481 Y6.2823
G01 X25.2790 Y6.4241
G01 X25.1337 Y6.7412
G01 X24.9963 Y7.0617
G01 X24.8668 Y7.3855
G01 X24.7453 Y7.7124
G01 X24.6319 Y8.0422
G01 X24.5265 Y8.3747
G01 X24.5251 Y8.3795
G01 X24.6337 Y8.5079
G01 X24.6605 Y8.4153
G01 X24.7648 Y8.0861
G01 X24.8771 Y7.7596
G01 X24.9974 Y7.4359
G01 X25.1257 Y7.1153
G01 X25.2500 Y6.8252
G01 X25.2500 Y6.7625
G01 X25.2500 Y6.7600
G01 X25.2519 Y6.7270
G01 X25.2560 Y6.6991
G01 X25.2576 Y6.6919
G01 X25.2645 Y6.6645
G01 X25.2739 Y6.6379
G01 X25.2777 Y6.6289
G01 X25.2899 Y6.6034
G01 X25.3069 Y6.5750
G01 X25.3266 Y6.5484
G01 X25.3471 Y6.5256
G01 X25.3734 Y6.5016
G01 X25.3960 Y6.4847
G01 X25.4021 Y6.4805
G01 X25.4241 Y6.4673
G01 X25.4328 Y6.4626
G01 X25.4583 Y6.4507
G01 X25.4895 Y6.4395
G01 X25.5217 Y6.4315
G01 X25.5520 Y6.4269
G01 X25.5875 Y6.4250
G01 X26.1674 Y6.4251
G01 X26.1931 Y6.4264
G01 X26.2005 Y6.4272
G01 X26.2283 Y6.4315
G01 X26.2557 Y6.4382
G01 X26.2651 Y6.4411
G01 X26.2917 Y6.4507
G01 X26.3216 Y6.4649
G01 X26.3500 Y6.4819
G01 X26.3785 Y6.5032
G01 X26.3994 Y6.5221
G01 X26.4045 Y6.5274
G01 X26.4234 Y6.5484
G01 X26.4376 Y6.5673
G01 X27.0749 Y5.9300
G01 X27.0749 Y5.6968
G01 X27.0663 Y5.6942
G01 X27.0595 Y5.6914
G01 X27.0507 Y5.6870
G01 X27.0444 Y5.6831
G01 X27.0366 Y5.6773
G01 X27.0310 Y5.6724
G01 X27.0259 Y5.6672
G01 X27.0212 Y5.6615
G01 X27.0169 Y5.6556
G01 X27.0118 Y5.6471
G01 X27.0086 Y5.6405
G01 X27.0058 Y5.6337
G01 X27.0030 Y5.6243
G01 X27.0015 Y5.6171
G01 X27.0005 Y5.6098
G01 X27.0000 Y5.6025
G01 X27.0000 Y4.5500
G01 X27.0003 Y4.5426
G01 X27.0011 Y4.5353
G01 X27.0024 Y4.5281
G01 X27.0043 Y4.5210
G01 X27.0067 Y4.5140
G01 X27.0096 Y4.5072
G01 X27.0130 Y4.5007
G01 X27.0169 Y4.4944
G01 X27.0227 Y4.4866
G01 X27.0276 Y4.4810
G01 X27.0347 Y4.4743
G01 X27.0404 Y4.4697
G01 X27.0465 Y4.4655
G01 X27.0529 Y4.4618
G01 X27.0595 Y4.4586
G01 X27.0663 Y4.4558
G01 X27.0749 Y4.4532
G01 X27.0749 Y1.5468
G01 X27.0663 Y1.5442
G01 X27.0595 Y1.5414
G01 X27.0529 Y1.5382
G01 X27.0465 Y1.5345
G01 X27.0404 Y1.5303
G01 X27.0328 Y1.5241
G01 X27.0276 Y1.5190
G01 X27.0227 Y1.5134
G01 X27.0169 Y1.5056
G01 X27.0130 Y1.4993
G01 X27.0096 Y1.4928
G01 X27.0067 Y1.4860
G01 X27.0043 Y1.4790
G01 X27.0024 Y1.4719
G01 X27.0011 Y1.4647
G01 X27.0003 Y1.4574
G01 X27.0000 Y1.4500
G01 X27.0000 Y0.4000
G01 X27.0008 Y0.3878
G01 X27.0024 Y0.3781
G01 X27.0043 Y0.3710
G01 X27.0076 Y0.3617
G01 X27.0107 Y0.3550
G01 X27.0155 Y0.3465
G01 X27.0197 Y0.3404
G01 X27.0243 Y0.3347
G01 X27.0310 Y0.3276
G01 X27.0385 Y0.3212
G01 X27.0444 Y0.3169
G01 X27.0507 Y0.3130
G01 X27.0595 Y0.3086
G01 X27.0663 Y0.3058
G01 X27.0733 Y0.3036
G01 X27.0829 Y0.3015
G01 X27.0902 Y0.3005
G01 X27.1000 Y0.3000
G01 X27.7500 Y0.3000
G01 X27.7622 Y0.3008
G01 X27.7695 Y0.3019
G01 X27.7767 Y0.3036
G01 X27.7837 Y0.3058
G01 X27.7905 Y0.3086
G01 X27.7971 Y0.3118
G01 X27.8056 Y0.3169
G01 X27.8115 Y0.3212
G01 X27.8190 Y0.3276
G01 X27.8241 Y0.3328
G01 X27.8288 Y0.3385
G01 X27.8331 Y0.3444
G01 X27.8370 Y0.3507
G01 X27.8404 Y0.3572
G01 X27.8442 Y0.3663
G01 X27.8464 Y0.3733
G01 X27.8485 Y0.3829
G01 X27.8495 Y0.3902
G01 X27.8500 Y0.3975
G01 X27.8500 Y1.4500
G01 X27.8497 Y1.4574
G01 X27.8489 Y1.4647
G01 X27.8476 Y1.4719
G01 X27.8457 Y1.4790
G01 X27.8433 Y1.4860
G01 X27.8404 Y1.4928
G01 X27.8370 Y1.4993
G01 X27.8331 Y1.5056
G01 X27.8273 Y1.5134
G01 X27.8207 Y1.5207
G01 X27.8153 Y1.5257
G01 X27.8096 Y1.5303
G01 X27.8035 Y1.5345
G01 X27.7971 Y1.5382
G01 X27.7905 Y1.5414
G01 X27.7837 Y1.5442
G01 X27.7751 Y1.5468
G01 X27.7751 Y4.4532
G01 X27.7837 Y4.4558
G01 X27.7905 Y4.4586
G01 X27.7971 Y4.4618
G01 X27.8035 Y4.4655
G01 X27.8115 Y4.4712
G01 X27.8172 Y4.4759
G01 X27.8224 Y4.4810
G01 X27.8273 Y4.4866
G01 X27.8318 Y4.4924
G01 X27.8358 Y4.4986
G01 X27.8393 Y4.5050
G01 X27.8424 Y4.5117
G01 X27.8450 Y4.5186
G01 X27.8470 Y4.5257
G01 X27.8485 Y4.5329
G01 X27.8497 Y4.5426
G01 X27.8500 Y4.5500
G01 X27.8500 Y5.6000
G01 X27.8492 Y5.6122
G01 X27.8481 Y5.6195
G01 X27.8464 Y5.6267
G01 X27.8442 Y5.6337
G01 X27.8414 Y5.6405
G01 X27.8382 Y5.6471
G01 X27.8345 Y5.6535
G01 X27.8303 Y5.6596
G01 X27.8257 Y5.6653
G01 X27.8207 Y5.6707
G01 X27.8153 Y5.6757
G01 X27.8096 Y5.6803
G01 X27.8035 Y5.6845
G01 X27.7971 Y5.6882
G01 X27.7905 Y5.6914
G01 X27.7837 Y5.6942
G01 X27.7751 Y5.6968
G01 X27.7751 Y6.0750
G01 X27.7734 Y6.1093
G01 X27.7684 Y6.1433
G01 X27.7614 Y6.1719
G01 X27.7585 Y6.1813
G01 X27.7485 Y6.2090
G01 X27.7360 Y6.2357
G01 X27.7326 Y6.2422
G01 X27.7187 Y6.2654
G01 X27.7133 Y6.2735
G01 X27.6957 Y6.2971
G01 X27.6726 Y6.3226
G01 X26.9952 Y7.0000
G01 X28.1067 Y8.1115
G01 X28.1163 Y8.1075
G01 X28.1281 Y8.1041
G01 X28.1402 Y8.1021
G01 X28.1500 Y8.1016
G01 X29.6500 Y8.1016
G01 X29.6574 Y8.1019
G01 X29.6671 Y8.1031
G01 X29.6743 Y8.1046
G01 X29.6837 Y8.1075
G01 X29.6905 Y8.1102
G01 X29.6993 Y8.1146
G01 X29.7056 Y8.1185
G01 X29.7134 Y8.1243
G01 X29.7207 Y8.1309
G01 X29.7288 Y8.1401
G01 X29.7345 Y8.1481
G01 X29.7393 Y8.1567
G01 X29.7433 Y8.1657
G01 X29.7470 Y8.1773
G01 X29.7489 Y8.1870
G01 X29.7500 Y8.1992
G01 X29.7500 Y9.2016
G01 X29.7492 Y9.2139
G01 X29.7476 Y9.2236
G01 X29.7442 Y9.2353
G01 X29.7404 Y9.2444
G01 X29.7345 Y9.2551
G01 X29.7303 Y9.2612
G01 X29.7257 Y9.2670
G01 X29.7207 Y9.2724
G01 X29.7153 Y9.2774
G01 X29.7056 Y9.2848
G01 X29.6993 Y9.2886
G01 X29.6928 Y9.2920
G01 X29.6860 Y9.2949
G01 X29.6790 Y9.2973
G01 X29.6671 Y9.3002
G01 X29.6598 Y9.3012
G01 X29.6525 Y9.3016
G01 X28.1500 Y9.3016
G01 X28.1378 Y9.3009
G01 X28.1305 Y9.2997
G01 X28.1233 Y9.2980
G01 X28.1117 Y9.2940
G01 X28.1050 Y9.2910
G01 X28.0986 Y9.2874
G01 X28.0904 Y9.2820
G01 X28.0828 Y9.2757
G01 X28.0743 Y9.2670
G01 X28.0682 Y9.2592
G01 X28.0630 Y9.2509
G01 X28.0576 Y9.2399
G01 X28.0543 Y9.2307
G01 X28.0515 Y9.2187
G01 X28.0505 Y9.2114
G01 X28.0500 Y9.2016
G01 X28.0500 Y9.0169
G01 X28.0344 Y9.0092
G01 X28.0051 Y8.9914
G01 X27.9795 Y8.9723
G01 X27.9541 Y8.9492
G01 X26.4376 Y7.4327
G01 X26.4234 Y7.4516
G01 X26.4045 Y7.4726
G01 X26.3994 Y7.4779
G01 X26.3785 Y7.4968
G01 X26.3500 Y7.5181
G01 X26.3216 Y7.5351
G01 X26.2917 Y7.5493
G01 X26.2651 Y7.5589
G01 X26.2557 Y7.5618
G01 X26.2283 Y7.5685
G01 X26.2005 Y7.5728
G01 X26.1931 Y7.5736
G01 X26.1674 Y7.5749
G01 X25.5875 Y7.5750
G01 X25.5520 Y7.5731
G01 X25.5217 Y7.5685
G01 X25.4895 Y7.5605
G01 X25.4583 Y7.5493
G01 X25.4328 Y7.5374
G01 X25.4241 Y7.5327
G01 X25.4021 Y7.5195
G01 X25.3960 Y7.5153
G01 X25.3734 Y7.4984
G01 X25.3506 Y7.4779
G01 X25.3266 Y7.4516
G01 X25.3097 Y7.4290
G01 X25.3055 Y7.4229
G01 X25.2923 Y7.4009
G01 X25.2876 Y7.3922
G01 X25.2757 Y7.3667
G01 X25.2645 Y7.3355
G01 X25.2565 Y7.3033
G01 X25.2522 Y7.2755
G01 X25.2513 Y7.2657
G01 X25.2500 Y7.2375
G01 X25.2500 Y6.7625
G01 X25.0999 Y6.4788
G01 X25.0057 Y6.6844
G01 X24.8670 Y7.0081
G01 X24.7362 Y7.3352
G01 X24.6135 Y7.6653
G01 X24.5252 Y7.9221
G01 X24.7347 Y8.6621
G01 X24.7945 Y8.4560
G01 X24.8977 Y8.1301
G01 X25.0089 Y7.8068
G01 X25.1281 Y7.4863
G01 X25.2500 Y7.1814
G00 Z1.0000
G00 X25.3047 Y7.4216
G01 F50.00
G01 Z-0.0500
G01 F80.00
G01 X25.2587 Y7.5367
G01 X25.1408 Y7.8539
G01 X25.0307 Y8.1740
G01 X24.9284 Y8.4966
G01 X24.8342 Y8.8217
G01 X24.7500 Y9.1411
G00 Z1.0000
G00 X24.6772 Y9.4466
G01 F50.00
G01 Z-0.0500
G01 F80.00
G01 X24.6697 Y9.4782
G01 X24.5996 Y9.8094
G01 X24.5377 Y10.1421
G01 X24.4906 Y10.4344
G00 Z1.0000
G00 X24.3504 Y10.4250
G01 F50.00
G01 Z-0.0500
G01 F80.00
G01 X24.3997 Y10.1182
G01 X24.4623 Y9.7820
G01 X24.5091 Y9.5609
G00 Z1.0000
G00 X24.3631 Y9.5750
G01 F50.00
G01 Z-0.0500
G01 F80.00
G01 X24.3250 Y9.7547
G01 X24.2618 Y10.0942
G01 X24.2086 Y10.4250
G01 X24.0670 Y10.4250
G01 X24.1239 Y10.0703
G01 X24.1877 Y9.7274
G01 X24.2200 Y9.5750
G01 X24.0769 Y9.5750
G01 X24.0504 Y9.7001
G01 X23.9859 Y10.0463
G01 X23.9300 Y10.3941
G01 X23.9258 Y10.4250
G00 Z1.0000
G00 X23.7839 Y10.4296
G01 F50.00
G01 Z-0.0500
G01 F80.00
G01 X23.7915 Y10.3735
G01 X23.8480 Y10.0224
G01 X23.9131 Y9.6728
G01 X23.9338 Y9.5750
G00 Z1.0000
G00 X23.7914 Y9.5716
G01 F50.00
G01 Z-0.0500
G01 F80.00
G01 X23.7758 Y9.6455
G01 X23.7100 Y9.9985
G01 X23.6530 Y10.3530
G01 X23.6339 Y10.4937
G01 X23.4782 Y10.5999
G01 X23.5145 Y10.3324
G01 X23.5721 Y9.9745
G01 X23.6385 Y9.6182
G01 X23.6585 Y9.5234
G00 Z1.0000
G00 X23.5416 Y9.3997
G01 F50.00
G01 Z-0.0500
G01 F80.00
G01 X23.5011 Y9.5909
G01 X23.4907 Y9.6467
G00 Z1.0000
G00 X23.3702 Y9.5335
G01 F50.00
G01 Z-0.0500
G01 F80.00
G01 X23.4196 Y9.3001
G01 X23.2765 Y9.3001
G01 X23.2342 Y9.4999
G00 Z1.0000
G00 X23.0908 Y9.5014
G01 F50.00
G01 Z-0.0500
G01 F80.00
G01 X23.1334 Y9.3001
G00 Z1.0000
G00 X22.9944 Y9.2807
G01 F50.00
G01 Z-0.0500
G01 F80.00
G01 X22.9527 Y9.4778
G01 X22.8222 Y9.4184
G01 X22.8697 Y9.1941
G00 Z1.0000
G00 X22.7516 Y9.0760
G01 F50.00
G01 Z-0.0500
G01 F80.00
G01 X22.7022 Y9.3092
G01 X22.5841 Y9.1911
G01 X22.6207 Y9.0181
G01 X22.6347 Y8.9592
G00 Z1.0000
G00 X22.5185 Y8.8429
G01 F50.00
G01 Z-0.0500
G01 F80.00
G01 X22.4841 Y8.9875
G01 X22.4660 Y9.0730
G01 X22.3480 Y8.9550
G01 X22.4022 Y8.7266
G00 Z1.0000
G00 X22.2871 Y8.6115
G01 F50.00
G01 Z-0.0500
G01 F80.00
G01 X22.2421 Y8.6324
G01 X22.1659 Y8.6597
G01 X22.1589 Y8.6619
G01 X22.0756 Y8.6827
G01 X21.9931 Y8.6951
G01 X21.9858 Y8.6959
G01 X21.9000 Y8.7000
G01 X21.8118 Y8.6957
G01 X21.7244 Y8.6827
G01 X21.6411 Y8.6619
G01 X21.6341 Y8.6597
G01 X21.5556 Y8.6315
G01 X21.4757 Y8.5937
G01 X21.4000 Y8.5483
G01 X21.3329 Y8.4987
G01 X21.3253 Y8.4925
G01 X21.2672 Y8.4398
G01 X21.2602 Y8.4328
G01 X21.2043 Y8.3710
G01 X21.1545 Y8.3040
G01 X21.1503 Y8.2980
G01 X21.1063 Y8.2243
G01 X21.0685 Y8.1444
G01 X21.0388 Y8.0613
G01 X21.0184 Y7.9804
G01 X21.0165 Y7.9707
G01 X21.0043 Y7.8882
G01 X21.0001 Y7.8049
G01 X21.0001 Y7.7951
G01 X21.0040 Y7.7167
G01 X21.0049 Y7.7069
G01 X21.0173 Y7.6244
G01 X21.0388 Y7.5387
G01 X21.0685 Y7.4556
G01 X21.1063 Y7.3757
G01 X21.1517 Y7.3000
G01 X21.2043 Y7.2290
G01 X21.2636 Y7.1636
G01 X21.3272 Y7.1059
G01 X21.3329 Y7.1013
G01 X21.4000 Y7.0517
G01 X21.4715 Y7.0087
G01 X21.4801 Y7.0041
G01 X21.5511 Y6.9705
G01 X21.5602 Y6.9667
G01 X21.6387 Y6.9388
G01 X21.7244 Y6.9173
G01 X21.8118 Y6.9043
G01 X21.8951 Y6.9001
G01 X21.9049 Y6.9001
G01 X21.9833 Y6.9040
G01 X21.9931 Y6.9049
G01 X22.0756 Y6.9173
G01 X22.1613 Y6.9388
G01 X22.2444 Y6.9685
G01 X22.3199 Y7.0041
G01 X22.3285 Y7.0087
G01 X22.3959 Y7.0491
G01 X22.4040 Y7.0545
G01 X22.4710 Y7.1043
G01 X22.5364 Y7.1636
G01 X22.5957 Y7.2290
G01 X22.6455 Y7.2960
G01 X22.6509 Y7.3041
G01 X22.6913 Y7.3715
G01 X22.6959 Y7.3801
G01 X22.7315 Y7.4556
G01 X22.7597 Y7.5341
G01 X22.7619 Y7.5411
G01 X22.7827 Y7.6244
G01 X22.7957 Y7.7118
G01 X22.8000 Y7.8000
G01 X22.7959 Y7.8858
G01 X22.7951 Y7.8931
G01 X22.7827 Y7.9756
G01 X22.7619 Y8.0589
G01 X22.7597 Y8.0659
G01 X22.7324 Y8.1421
G01 X22.7115 Y8.1871
G01 X23.2243 Y8.6999
G01 X23.5059 Y8.6999
G01 X23.5076 Y8.6919
G01 X23.5145 Y8.6645
G01 X23.5239 Y8.6379
G01 X23.5277 Y8.6289
G01 X23.5399 Y8.6034
G01 X23.5543 Y8.5791
G01 X23.5597 Y8.5710
G01 X23.5782 Y8.5465
G01 X23.5989 Y8.5239
G01 X23.6197 Y8.5048
G01 X23.6253 Y8.5001
G01 X23.6480 Y8.4833
G01 X23.6741 Y8.4673
G01 X23.6806 Y8.4637
G01 X23.7061 Y8.4517
G01 X23.7248 Y8.4447
G01 X23.7249 Y7.5553
G01 X23.7061 Y7.5483
G01 X23.6806 Y7.5363
G01 X23.6741 Y7.5327
G01 X23.6480 Y7.5167
G01 X23.6234 Y7.4984
G01 X23.6024 Y7.4795
G01 X23.5955 Y7.4726
G01 X23.5751 Y7.4497
G01 X23.5569 Y7.4250
G01 X23.5423 Y7.4009
G01 X23.5376 Y7.3922
G01 X23.5257 Y7.3667
G01 X23.5145 Y7.3355
G01 X23.5076 Y7.3081
G01 X23.5056 Y7.2985
G01 X23.5016 Y7.2706
G01 X23.5000 Y7.2375
G01 X23.5000 Y6.7625
G01 X23.5013 Y6.7343
G01 X23.5022 Y6.7245
G01 X23.5065 Y6.6967
G01 X23.5145 Y6.6645
G01 X23.5257 Y6.6333
G01 X23.5399 Y6.6034
G01 X23.5569 Y6.5750
G01 X23.5736 Y6.5523
G01 X23.5798 Y6.5447
G01 X23.5989 Y6.5239
G01 X23.6197 Y6.5048
G01 X23.6273 Y6.4986
G01 X23.6500 Y6.4819
G01 X23.6741 Y6.4673
G01 X23.6828 Y6.4626
G01 X23.7083 Y6.4507
G01 X23.7349 Y6.4411
G01 X23.7443 Y6.4382
G01 X23.7717 Y6.4315
G01 X23.7995 Y6.4272
G01 X23.8093 Y6.4263
G01 X23.8375 Y6.4250
G01 X24.4125 Y6.4250
G01 X24.4407 Y6.4263
G01 X24.4505 Y6.4272
G01 X24.4783 Y6.4315
G01 X24.5105 Y6.4395
G01 X24.5417 Y6.4507
G01 X24.5716 Y6.4649
G01 X24.6000 Y6.4819
G01 X24.6266 Y6.5016
G01 X24.6511 Y6.5239
G01 X24.6718 Y6.5465
G01 X24.6903 Y6.5710
G01 X24.6957 Y6.5791
G01 X24.7101 Y6.6034
G01 X24.7243 Y6.6333
G01 X24.7355 Y6.6645
G01 X24.7424 Y6.6919
G01 X24.7444 Y6.7015
G01 X24.7484 Y6.7294
G01 X24.7500 Y6.7625
G01 X24.7500 Y7.2375
G01 X24.7487 Y7.2657
G01 X24.7478 Y7.2755
G01 X24.7435 Y7.3033
G01 X24.7368 Y7.3307
G01 X24.7339 Y7.3401
G01 X24.7243 Y7.3667
G01 X24.7124 Y7.3922
G01 X24.7077 Y7.4009
G01 X24.6931 Y7.4250
G01 X24.6749 Y7.4497
G01 X24.6545 Y7.4726
G01 X24.6476 Y7.4795
G01 X24.6266 Y7.4984
G01 X24.6020 Y7.5167
G01 X24.5759 Y7.5327
G01 X24.5694 Y7.5363
G01 X24.5439 Y7.5483
G01 X24.5252 Y7.5553
G01 X24.5251 Y8.4447
G01 X24.5439 Y8.4517
G01 X24.5694 Y8.4637
G01 X24.5759 Y8.4673
G01 X24.6020 Y8.4833
G01 X24.6266 Y8.5016
G01 X24.6476 Y8.5205
G01 X24.6545 Y8.5274
G01 X24.6749 Y8.5503
G01 X24.6931 Y8.5750
G01 X24.7077 Y8.5991
G01 X24.7124 Y8.6078
G01 X24.7243 Y8.6333
G01 X24.7355 Y8.6645
G01 X24.7424 Y8.6919
G01 X24.7444 Y8.7015
G01 X24.7481 Y8.7270
G01 X24.7487 Y8.7343
G01 X24.7500 Y8.7625
G01 X24.7500 Y9.2375
G01 X24.7484 Y9.2706
G01 X24.7444 Y9.2985
G01 X24.7430 Y9.3057
G01 X24.7362 Y9.3331
G01 X24.7261 Y9.3621
G01 X24.7223 Y9.3711
G01 X24.7113 Y9.3944
G01 X24.7077 Y9.4009
G01 X24.6931 Y9.4250
G01 X24.6734 Y9.4516
G01 X24.6511 Y9.4761
G01 X24.6285 Y9.4968
G01 X24.6040 Y9.5153
G01 X24.5959 Y9.5207
G01 X24.5716 Y9.5351
G01 X24.5417 Y9.5493
G01 X24.5105 Y9.5605
G01 X24.4831 Y9.5674
G01 X24.4735 Y9.5694
G01 X24.4456 Y9.5734
G01 X24.4125 Y9.5750
G01 X23.8375 Y9.5750
G01 X23.8020 Y9.5731
G01 X23.7717 Y9.5685
G01 X23.7443 Y9.5618
G01 X23.7372 Y9.5597
G01 X23.7129 Y9.5511
G01 X23.7039 Y9.5473
G01 X23.6784 Y9.5351
G01 X23.6500 Y9.5181
G01 X23.6234 Y9.4984
G01 X23.6024 Y9.4795
G01 X23.5971 Y9.4744
G01 X23.5798 Y9.4553
G01 X23.5736 Y9.4477
G01 X23.5569 Y9.4250
G01 X23.5399 Y9.3966
G01 X23.5257 Y9.3667
G01 X23.5161 Y9.3401
G01 X23.5132 Y9.3307
G01 X23.5076 Y9.3081
G01 X23.5059 Y9.3001
G01 X23.0951 Y9.3000
G01 X23.0706 Y9.2987
G01 X23.0415 Y9.2943
G01 X23.0129 Y9.2872
G01 X22.9874 Y9.2782
G01 X22.9585 Y9.2647
G01 X22.9333 Y9.2495
G01 X22.9096 Y9.2320
G01 X22.8896 Y9.2139
G01 X22.2871 Y8.6115
G00 Z1.0000
G00 X22.2855 Y8.6122
G01 F50.00
G01 Z-0.0500
G01 F80.00
G01 X22.2224 Y8.8781
G00 Z1.0000
G00 X22.0765 Y8.8864
G01 F50.00
G01 Z-0.0500
G01 F80.00
G01 X22.1280 Y8.6697
G00 Z1.0000
G00 X21.9778 Y8.6963
G01 F50.00
G01 Z-0.0500
G01 F80.00
G01 X21.9378 Y8.8648
G01 X21.9303 Y8.8999
G01 X21.7874 Y8.8991
G01 X21.8012 Y8.8341
G01 X21.8337 Y8.6969
G00 Z1.0000
G00 X21.6949 Y8.6754
G01 F50.00
G01 Z-0.0500
G01 F80.00
G01 X21.6646 Y8.8034
G01 X21.6501 Y8.8718
G01 X21.5156 Y8.8313
G01 X21.5280 Y8.7727
G01 X21.5610 Y8.6336
G00 Z1.0000
G00 X21.4327 Y8.5681
G01 F50.00
G01 Z-0.0500
G01 F80.00
G01 X21.3914 Y8.7421
G01 X21.3840 Y8.7768
G01 X21.2588 Y8.6944
G01 X21.3100 Y8.4786
G00 Z1.0000
G00 X21.1947 Y8.3583
G01 F50.00
G01 Z-0.0500
G01 F80.00
G01 X21.1387 Y8.5942
G01 X21.0244 Y8.4695
G01 X21.0812 Y8.2305
G01 X21.0912 Y8.1926
G01 X20.9193 Y8.3065
G01 X20.9454 Y8.1965
G01 X21.0123 Y7.9427
G01 X20.8330 Y8.0738
G01 X20.9212 Y7.7388
G01 X21.0433 Y7.3181
G01 X21.1438 Y7.0006
G01 X21.2259 Y7.2050
G01 X21.3085 Y6.9443
G01 X21.3407 Y6.8508
G01 X21.5172 Y6.7680
G01 X21.4414 Y6.9883
G01 X21.4264 Y7.0357
G00 Z1.0000
G00 X21.6020 Y6.9518
G01 F50.00
G01 Z-0.0500
G01 F80.00
G01 X21.6811 Y6.7221
G01 X21.8367 Y6.7001
G01 X21.7640 Y6.9113
G00 Z1.0000
G00 X21.9157 Y6.9007
G01 F50.00
G01 Z-0.0500
G01 F80.00
G01 X21.9772 Y6.7220
G01 X21.9853 Y6.7001
G01 X22.1260 Y6.7235
G01 X22.1090 Y6.7692
G01 X22.0589 Y6.9147
G00 Z1.0000
G00 X22.1946 Y6.9506
G01 F50.00
G01 Z-0.0500
G01 F80.00
G01 X22.2408 Y6.8163
G01 X22.2620 Y6.7594
G01 X22.3914 Y6.8130
G01 X22.3726 Y6.8635
G01 X22.3236 Y7.0059
G00 Z1.0000
G00 X22.4446 Y7.0846
G01 F50.00
G01 Z-0.0500
G01 F80.00
G01 X22.5044 Y6.9106
G01 X22.5133 Y6.8869
G01 X22.6304 Y6.9748
G01 X22.5575 Y7.1867
G00 Z1.0000
G00 X22.6600 Y7.3192
G01 F50.00
G01 Z-0.0500
G01 F80.00
G01 X22.7405 Y7.0850
G01 X22.8398 Y7.2267
G01 X22.7708 Y7.4274
G01 X22.7477 Y7.5004
G00 Z1.0000
G00 X22.9447 Y7.3522
G01 F50.00
G01 Z-0.0500
G01 F80.00
G01 X22.9037 Y7.4713
G01 X22.8000 Y7.7988
G00 Z1.0000
G00 X22.8052 Y8.2808
G01 F50.00
G01 Z-0.0500
G01 F80.00
G01 X22.8102 Y8.2616
G01 X22.9189 Y7.8870
G01 X23.0366 Y7.5152
G01 X23.0798 Y7.3899
G00 Z1.0000
G00 X23.2665 Y7.2775
G01 F50.00
G01 Z-0.0500
G01 F80.00
G01 X23.1696 Y7.5592
G01 X23.0528 Y7.9277
G01 X22.9452 Y8.2989
G01 X22.9198 Y8.3954
G01 X23.0343 Y8.5099
G01 X23.0801 Y8.3363
G01 X23.1868 Y7.9683
G01 X23.3025 Y7.6031
G01 X23.4271 Y7.2408
G01 X23.5000 Y7.0448
G01 X23.2953 Y7.1937
G01 X23.4300 Y6.8313
G01 X23.5735 Y6.4724
G01 X23.7258 Y6.1171
G01 X23.8868 Y5.7657
G01 X23.9189 Y5.7000
G00 Z1.0000
G00 X23.7631 Y5.7000
G01 F50.00
G01 Z-0.0500
G01 F80.00
G01 X23.5979 Y6.0604
G01 X23.5520 Y6.1674
G00 Z1.0000
G00 X23.4654 Y6.0142
G01 F50.00
G01 Z-0.0500
G01 F80.00
G01 X23.4699 Y6.0036
G01 X23.6337 Y5.6459
G01 X23.6506 Y5.6112
G00 Z1.0000
G00 X23.5613 Y5.4751
G01 F50.00
G01 Z-0.0500
G01 F80.00
G01 X23.5071 Y5.5861
G01 X23.3584 Y5.9108
G01 X23.2749 Y5.7570
G01 X23.3806 Y5.5262
G01 X23.4056 Y5.4751
G00 Z1.0000
G00 X24.0746 Y5.7000
G01 F50.00
G01 Z-0.0500
G01 F80.00
G01 X24.0134 Y5.8255
G01 X23.8538 Y6.1738
G01 X23.7400 Y6.4394
G00 Z1.0000
G00 X23.8985 Y6.4250
G01 F50.00
G01 Z-0.0500
G01 F80.00
G01 X23.9818 Y6.2306
G01 X24.1399 Y5.8854
G01 X24.2304 Y5.7000
G00 Z1.0000
G00 X24.3862 Y5.7000
G01 F50.00
G01 Z-0.0500
G01 F80.00
G01 X24.2665 Y5.9452
G01 X24.1098 Y6.2873
G01 X24.0508 Y6.4250
G01 X24.2031 Y6.4250
G01 X24.2378 Y6.3440
G01 X24.3931 Y6.0051
G01 X24.5566 Y5.6701
G01 X24.6577 Y5.4751
G01 X24.5000 Y5.4751
G01 X24.5000 Y5.4751
G01 X24.8155 Y5.4751
G01 X24.6816 Y5.7330
G01 X24.5196 Y6.0649
G01 X24.3658 Y6.4008
G01 X24.3554 Y6.4250
G00 Z1.0000
G00 X24.5029 Y6.4375
G01 F50.00
G01 Z-0.0500
G01 F80.00
G01 X24.6477 Y6.1217
G00 Z1.0000
G00 X24.7101 Y5.9939
G01 F50.00
G01 Z-0.0500
G01 F80.00
G01 X24.8067 Y5.7959
G01 X24.9003 Y5.6154
G00 Z1.0000
G00 X24.7133 Y6.3144
G01 F50.00
G01 Z-0.0500
G01 F80.00
G01 X24.6273 Y6.5022
G00 Z1.0000
G00 X24.7237 Y6.6318
G01 F50.00
G01 Z-0.0500
G01 F80.00
G01 X24.7498 Y6.5710
G01 X24.8212 Y6.4151
G00 Z1.0000
G00 X24.9391 Y6.4938
G01 F50.00
G01 Z-0.0500
G01 F80.00
G01 X24.8778 Y6.6277
G01 X24.7500 Y6.9257
G00 Z1.0000
G00 X25.4136 Y7.5264
G01 F50.00
G01 Z-0.0500
G01 F80.00
G01 X25.3893 Y7.5871
G01 X25.2726 Y7.9011
G01 X25.1636 Y8.2179
G01 X25.0624 Y8.5373
G01 X24.9691 Y8.8590
G01 X24.8837 Y9.1830
G01 X24.8063 Y9.5089
G01 X24.7369 Y9.8367
G01 X24.6756 Y10.1660
G01 X24.6222 Y10.4982
G00 Z1.0000
G00 X24.7390 Y10.6782
G01 F50.00
G01 Z-0.0500
G01 F80.00
G01 X24.7609 Y10.5173
G01 X24.8135 Y10.1900
G01 X24.8742 Y9.8640
G01 X24.9429 Y9.5396
G01 X25.0195 Y9.2170
G01 X25.1040 Y8.8964
G01 X25.1964 Y8.5779
G01 X25.2965 Y8.2618
G01 X25.4044 Y7.9483
G01 X25.5199 Y7.6375
G01 X25.5460 Y7.5722
G00 Z1.0000
G00 X25.6957 Y7.5750
G01 F50.00
G01 Z-0.0500
G01 F80.00
G01 X25.6505 Y7.6879
G01 X25.5362 Y7.9954
G01 X25.4295 Y8.3057
G01 X25.3651 Y8.5090
G00 Z1.0000
G00 X25.5372 Y8.4291
G01 F50.00
G01 Z-0.0500
G01 F80.00
G01 X25.5624 Y8.3496
G01 X25.6680 Y8.0426
G01 X25.7812 Y7.7382
G01 X25.8464 Y7.5750
G01 X25.9972 Y7.5750
G01 X25.9118 Y7.7886
G01 X25.7998 Y8.0898
G01 X25.6953 Y8.3936
G01 X25.6854 Y8.4250
G01 X25.8326 Y8.4250
G01 X25.9317 Y8.1369
G01 X26.0424 Y7.8390
G01 X26.1480 Y7.5750
G00 Z1.0000
G00 X26.3151 Y7.5384
G01 F50.00
G01 Z-0.0500
G01 F80.00
G01 X26.2898 Y7.5975
G01 X26.1730 Y7.8894
G01 X26.0635 Y8.1841
G01 X25.9806 Y8.4250
G01 X26.1286 Y8.4250
G01 X26.1953 Y8.2313
G01 X26.3036 Y7.9398
G01 X26.4191 Y7.6511
G01 X26.4901 Y7.4853
G00 Z1.0000
G00 X26.5968 Y7.5919
G01 F50.00
G01 Z-0.0500
G01 F80.00
G01 X26.5484 Y7.7046
G01 X26.4343 Y7.9902
G01 X26.3271 Y8.2784
G01 X26.2705 Y8.4430
G00 Z1.0000
G00 X26.3932 Y8.5165
G01 F50.00
G01 Z-0.0500
G01 F80.00
G01 X26.4589 Y8.3256
G01 X26.5649 Y8.0406
G01 X26.6778 Y7.7582
G01 X26.7034 Y7.6985
G00 Z1.0000
G00 X26.8100 Y7.8051
G01 F50.00
G01 Z-0.0500
G01 F80.00
G01 X26.6955 Y8.0909
G01 X26.5907 Y8.3727
G01 X26.4954 Y8.6499
G00 Z1.0000
G00 X26.6342 Y8.6766
G01 F50.00
G01 Z-0.0500
G01 F80.00
G01 X26.7226 Y8.4199
G01 X26.8261 Y8.1413
G01 X26.9175 Y7.9127
G00 Z1.0000
G00 X27.0252 Y8.0204
G01 F50.00
G01 Z-0.0500
G01 F80.00
G01 X26.9567 Y8.1917
G01 X26.8544 Y8.4671
G01 X26.7588 Y8.7449
G01 X26.7543 Y8.7591
G00 Z1.0000
G00 X26.8658 Y8.8706
G01 F50.00
G01 Z-0.0500
G01 F80.00
G01 X26.8917 Y8.7888
G01 X26.9862 Y8.5142
G01 X27.0873 Y8.2421
G01 X27.1329 Y8.1281
G00 Z1.0000
G00 X27.2406 Y8.2358
G01 F50.00
G01 Z-0.0500
G01 F80.00
G01 X27.2180 Y8.2925
G01 X27.1180 Y8.5614
G01 X27.0247 Y8.8327
G01 X26.9773 Y8.9822
G00 Z1.0000
G00 X27.0888 Y9.0937
G01 F50.00
G01 Z-0.0500
G01 F80.00
G01 X27.1576 Y8.8766
G01 X27.2498 Y8.6086
G01 X27.3483 Y8.3435
G00 Z1.0000
G00 X27.4572 Y8.4524
G01 F50.00
G01 Z-0.0500
G01 F80.00
G01 X27.3816 Y8.6557
G01 X27.2905 Y8.9205
G01 X27.2060 Y9.1875
G01 X27.2007 Y9.2056
G00 Z1.0000
G00 X27.3137 Y9.3186
G01 F50.00
G01 Z-0.0500
G01 F80.00
G01 X27.3399 Y9.2281
G01 X27.4235 Y8.9645
G01 X27.5134 Y8.7029
G01 X27.5661 Y8.5613
G00 Z1.0000
G00 X27.6750 Y8.6701
G01 F50.00
G01 Z-0.0500
G01 F80.00
G01 X27.6453 Y8.7501
G01 X27.5564 Y9.0084
G01 X27.4739 Y9.2688
G01 X27.4267 Y9.4316
G00 Z1.0000
G00 X27.5397 Y9.5445
G01 F50.00
G01 Z-0.0500
G01 F80.00
G01 X27.6079 Y9.3094
G01 X27.6893 Y9.0523
G01 X27.7771 Y8.7972
G01 X27.7839 Y8.7790
G00 Z1.0000
G00 X27.8936 Y8.8888
G01 F50.00
G01 Z-0.0500
G01 F80.00
G01 X27.8223 Y9.0962
G01 X27.7418 Y9.3501
G01 X27.6677 Y9.6058
G01 X27.6538 Y9.6586
G00 Z1.0000
G00 X27.7683 Y9.7732
G01 F50.00
G01 Z-0.0500
G01 F80.00
G01 X27.8026 Y9.6432
G01 X27.8758 Y9.3907
G01 X27.9552 Y9.1401
G01 X28.0061 Y8.9921
G00 Z1.0000
G00 X28.0656 Y9.2552
G01 F50.00
G01 Z-0.0500
G01 F80.00
G01 X28.0098 Y9.4313
G01 X27.9375 Y9.6805
G01 X27.8829 Y9.8878
G00 Z1.0000
G00 X27.9983 Y10.0031
G01 F50.00
G01 Z-0.0500
G01 F80.00
G01 X28.0072 Y9.9654
G01 X28.0725 Y9.7178
G01 X28.1438 Y9.4720
G01 X28.1977 Y9.3016
G00 Z1.0000
G00 X28.3446 Y9.3016
G01 F50.00
G01 Z-0.0500
G01 F80.00
G01 X28.2777 Y9.5126
G01 X28.2074 Y9.7552
G01 X28.1430 Y9.9994
G01 X28.1177 Y10.1060
G00 Z1.0000
G00 X28.2629 Y10.1006
G01 F50.00
G01 Z-0.0500
G01 F80.00
G01 X28.2788 Y10.0334
G01 X28.3423 Y9.7925
G01 X28.4117 Y9.5533
G01 X28.4869 Y9.3158
G01 X28.4918 Y9.3016
G00 Z1.0000
G00 X28.6398 Y9.3016
G01 F50.00
G01 Z-0.0500
G01 F80.00
G01 X28.6199 Y9.3597
G01 X28.5457 Y9.5939
G01 X28.4773 Y9.8299
G01 X28.4146 Y10.0674
G01 X28.4068 Y10.1006
G00 Z1.0000
G00 X28.5507 Y10.1006
G01 F50.00
G01 Z-0.0500
G01 F80.00
G01 X28.6122 Y9.8672
G01 X28.6796 Y9.6345
G01 X28.7528 Y9.4036
G01 X28.7879 Y9.3016
G00 Z1.0000
G00 X28.9359 Y9.3016
G01 F50.00
G01 Z-0.0500
G01 F80.00
G01 X28.8857 Y9.4475
G01 X28.8136 Y9.6752
G01 X28.7471 Y9.9045
G01 X28.6954 Y10.1006
G00 Z1.0000
G00 X28.8402 Y10.1006
G01 F50.00
G01 Z-0.0500
G01 F80.00
G01 X28.8820 Y9.9419
G01 X28.9476 Y9.7158
G01 X29.0187 Y9.4914
G01 X29.0840 Y9.3016
G00 Z1.0000
G00 X29.2324 Y9.3016
G01 F50.00
G01 Z-0.0500
G01 F80.00
G01 X29.2271 Y9.3160
G01 X29.1516 Y9.5354
G01 X29.0816 Y9.7565
G01 X29.0170 Y9.9792
G01 X28.9850 Y10.1006
G01 X29.1297 Y10.1006
G01 X29.1519 Y10.0166
G01 X29.2155 Y9.7971
G01 X29.2845 Y9.5793
G01 X29.3589 Y9.3632
G01 X29.3818 Y9.3016
G00 Z1.0000
G00 X29.5311 Y9.3016
G01 F50.00
G01 Z-0.0500
G01 F80.00
G01 X29.4907 Y9.4104
G01 X29.4175 Y9.6232
G01 X29.3495 Y9.8377
G01 X29.2868 Y10.0539
G01 X29.2745 Y10.1006
G00 Z1.0000
G00 X29.4193 Y10.1006
G01 F50.00
G01 Z-0.0500
G01 F80.00
G01 X29.4835 Y9.8784
G01 X29.5504 Y9.6671
G01 X29.6225 Y9.4575
G01 X29.6825 Y9.2962
G00 Z1.0000
G00 X29.7500 Y9.1241
G01 F50.00
G01 Z-0.0500
G01 F80.00
G01 X29.7820 Y9.0440
G01 X29.8693 Y8.8403
G01 X29.9525 Y8.6588
G01 X29.7500 Y8.7647
G01 X29.8351 Y8.5790
G01 X29.9338 Y8.3767
G01 X29.9525 Y8.3407
G01 X29.7500 Y8.4341
G01 X29.8087 Y8.3138
G01 X29.9140 Y8.1109
G01 X29.9280 Y8.0855
G01 X29.8345 Y7.9650
G01 X29.7905 Y8.0450
G01 X29.7358 Y8.1503
G00 Z1.0000
G00 X29.6034 Y8.1016
G01 F50.00
G01 Z-0.0500
G01 F80.00
G01 X29.6670 Y7.9790
G01 X29.7072 Y7.9059
G01 X29.5512 Y7.8992
G01 X29.5436 Y7.9130
G01 X29.4457 Y8.1016
G01 X29.2892 Y8.1016
G01 X29.3085 Y8.0620
G01 X29.3930 Y7.8992
G01 X29.2353 Y7.8992
G01 X29.1835 Y7.9990
G01 X29.1334 Y8.1016
G00 Z1.0000
G00 X28.9776 Y8.1016
G01 F50.00
G01 Z-0.0500
G01 F80.00
G01 X29.0584 Y7.9361
G01 X29.0776 Y7.8992
G01 X28.9207 Y7.8992
G01 X28.8219 Y8.1016
G00 Z1.0000
G00 X28.6679 Y8.1016
G01 F50.00
G01 Z-0.0500
G01 F80.00
G01 X28.6960 Y8.0403
G01 X28.7649 Y7.8992
G01 X28.6091 Y7.8992
G01 X28.5695 Y7.9804
G01 X28.5139 Y8.1016
G00 Z1.0000
G00 X28.3600 Y8.1016
G01 F50.00
G01 Z-0.0500
G01 F80.00
G01 X28.4429 Y7.9205
G01 X28.4534 Y7.8992
G01 X28.2987 Y7.8992
G01 X28.2060 Y8.1016
G01 X28.0666 Y8.0714
G01 X28.0775 Y8.0460
G01 X28.1585 Y7.8692
G00 Z1.0000
G00 X28.0493 Y7.7715
G01 F50.00
G01 Z-0.0500
G01 F80.00
G01 X27.9605 Y7.9653
G01 X27.8549 Y7.8597
G01 X27.9367 Y7.6811
G01 X27.9440 Y7.6662
G01 X27.8393 Y7.5615
G01 X27.8101 Y7.6212
G01 X27.7493 Y7.7541
G01 X27.6437 Y7.6485
G01 X27.6836 Y7.5614
G01 X27.7346 Y7.4569
G00 Z1.0000
G00 X27.6299 Y7.3522
G01 F50.00
G01 Z-0.0500
G01 F80.00
G01 X27.5570 Y7.5015
G01 X27.5381 Y7.5429
G01 X27.4325 Y7.4374
G01 X27.5252 Y7.2475
G00 Z1.0000
G00 X27.4212 Y7.1414
G01 F50.00
G01 Z-0.0500
G01 F80.00
G01 X27.3279 Y7.3327
G01 X27.0138 Y7.0187
G01 X27.0494 Y6.9457
G00 Z1.0000
G00 X26.4773 Y6.5275
G01 F50.00
G01 Z-0.0500
G01 F80.00
G01 X26.5803 Y6.3291
G01 X26.7352 Y6.0476
G01 X26.8970 Y5.7700
G01 X27.0000 Y5.6028
G01 X26.8039 Y5.6542
G01 X26.9472 Y5.4216
G01 X27.0000 Y5.3405
G01 X26.7975 Y5.3978
G01 X26.8290 Y5.3467
G01 X27.0000 Y5.0838
G01 X26.7975 Y5.1384
G01 X26.8915 Y4.9939
G01 X27.0000 Y4.8357
G01 X26.7975 Y4.8834
G01 X26.9646 Y4.6399
G01 X27.0000 Y4.5909
G01 X26.7975 Y4.6360
G01 X26.8502 Y4.5593
G01 X27.0484 Y4.2850
G01 X27.0749 Y4.2502
G01 X26.8748 Y4.2862
G01 X26.9360 Y4.2016
G01 X27.0749 Y4.0190
G01 X26.8751 Y4.0504
G01 X27.0326 Y3.8433
G01 X27.0749 Y3.7905
G01 X26.8751 Y3.8192
G01 X26.9222 Y3.7572
G01 X27.0749 Y3.5665
G01 X26.8751 Y3.5921
G01 X27.0320 Y3.3961
G01 X27.0749 Y3.3451
G01 X26.8751 Y3.3681
G01 X26.9237 Y3.3073
G01 X27.0749 Y3.1277
G01 X26.8751 Y3.1477
G01 X27.0467 Y2.9437
G01 X27.0749 Y2.9119
G01 X26.8751 Y2.9303
G01 X26.9407 Y2.8523
G01 X27.0749 Y2.7005
G01 X26.8751 Y2.7152
G01 X27.0749 Y2.4892
G01 X26.8751 Y2.5038
G01 X26.9733 Y2.3927
G01 X27.0749 Y2.2834
G01 X26.8751 Y2.2928
G01 X27.0749 Y2.0777
G01 X26.8751 Y2.0871
G01 X27.0219 Y1.9290
G01 X27.0749 Y1.8747
G01 X26.8751 Y1.8814
G01 X26.9205 Y1.8325
G01 X27.0749 Y1.6743
G01 X27.0292 Y1.5206
G01 X26.8715 Y1.6823
G00 Z1.0000
G00 X26.8141 Y1.5407
G01 F50.00
G01 Z-0.0500
G01 F80.00
G01 X26.9877 Y1.3627
G01 X27.0000 Y1.3507
G01 X27.0000 Y1.1551
G01 X26.8887 Y1.2637
G01 X26.7975 Y1.3572
G01 X26.7975 Y1.1571
G01 X27.0000 Y0.9596
G00 Z1.0000
G00 X27.0000 Y0.7651
G01 F50.00
G01 Z-0.0500
G01 F80.00
G01 X26.9748 Y0.7886
G01 X26.7975 Y0.9615
G01 X26.7975 Y0.7660
G01 X26.8782 Y0.6872
G01 X27.0000 Y0.5741
G00 Z1.0000
G00 X28.2943 Y0.3749
G01 F50.00
G01 Z-0.0500
G01 F80.00
G01 X28.5209 Y0.1936
G01 X28.5452 Y0.1750
G01 X28.5183 Y0.3749
G01 X28.6070 Y0.3039
G01 X28.7764 Y0.1750
G01 X29.0084 Y0.1750
G01 X28.9926 Y0.1865
G01 X28.6881 Y0.4184
G00 Z1.0000
G00 X28.7902 Y0.5163
G01 F50.00
G01 Z-0.0500
G01 F80.00
G01 X29.0760 Y0.2989
G01 X29.2474 Y0.1750
G01 X29.3135 Y0.3000
G01 X29.4587 Y0.1950
G01 X29.4878 Y0.1750
G01 X29.5531 Y0.3000
G01 X29.7353 Y0.1750
G01 X29.8006 Y0.3000
G01 X29.9189 Y0.2188
G01 X29.9862 Y0.1750
G01 X29.9832 Y0.3445
G01 X29.9967 Y0.3352
G01 X30.2429 Y0.1750
G01 X30.5067 Y0.1750
G01 X30.3725 Y0.2577
G01 X30.0744 Y0.4517
G01 X30.0000 Y0.5027
G01 X30.2185 Y0.5249
G01 X30.4474 Y0.3760
G01 X30.7473 Y0.1912
G01 X30.7751 Y0.1750
G01 X30.7160 Y0.3749
G01 X30.8193 Y0.3113
G01 X31.0531 Y0.1750
G01 X30.9881 Y0.3749
G01 X31.1896 Y0.2575
G01 X31.3394 Y0.1750
G01 X31.2666 Y0.3749
G01 X31.5581 Y0.2145
G01 X31.6341 Y0.1750
G01 X31.5569 Y0.3749
G01 X31.6241 Y0.3380
G01 X31.9245 Y0.1821
G01 X31.9390 Y0.1750
G01 X31.8568 Y0.3749
G01 X31.9875 Y0.3071
G01 X32.2581 Y0.1750
G01 X32.1677 Y0.3749
G01 X32.3484 Y0.2868
G01 X32.5923 Y0.1750
G01 X32.4920 Y0.3749
G01 X32.7066 Y0.2767
G01 X32.9437 Y0.1750
G01 X32.8326 Y0.3749
G01 X33.0617 Y0.2767
G01 X33.3160 Y0.1750
G01 X33.1932 Y0.3749
G01 X33.4136 Y0.2868
G01 X33.7142 Y0.1750
G01 X33.5782 Y0.3749
G01 X33.7619 Y0.3067
G01 X34.0625 Y0.2033
G01 X34.1516 Y0.1750
G01 X33.9938 Y0.3749
G01 X34.1064 Y0.3362
G01 X34.4061 Y0.2412
G01 X34.6344 Y0.1750
G01 X34.4477 Y0.3749
G01 X34.7454 Y0.2886
G01 X35.0461 Y0.2094
G01 X35.1906 Y0.1750
G01 X34.9671 Y0.3749
G01 X35.0801 Y0.3452
G01 X35.3793 Y0.2741
G01 X35.6802 Y0.2104
G01 X35.8702 Y0.1750
G01 X35.5789 Y0.3749
G01 X35.7075 Y0.3477
G01 X36.0064 Y0.2921
G01 X36.3067 Y0.2438
G01 X36.6080 Y0.2028
G01 X36.8586 Y0.1750
G01 X36.3810 Y0.3749
G01 X36.6251 Y0.3418
G01 X36.9239 Y0.3086
G01 X37.2235 Y0.2828
G01 X37.5236 Y0.2644
G01 X37.8240 Y0.2533
G01 X38.1247 Y0.2497
G01 X38.4253 Y0.2533
G01 X38.7257 Y0.2644
G01 X39.0258 Y0.2828
G01 X39.3254 Y0.3086
G01 X39.6242 Y0.3418
G01 X39.8683 Y0.3749
G01 X39.3907 Y0.1750
G01 X39.6413 Y0.2028
G01 X39.9426 Y0.2438
G01 X40.2429 Y0.2921
G01 X40.5418 Y0.3477
G01 X40.6704 Y0.3749
G01 X40.3791 Y0.1750
G01 X40.5691 Y0.2104
G01 X40.8700 Y0.2741
G01 X41.1692 Y0.3452
G01 X41.2822 Y0.3749
G01 X41.0587 Y0.1750
G01 X41.2032 Y0.2094
G01 X41.5039 Y0.2886
G01 X41.8016 Y0.3749
G01 X41.6149 Y0.1750
G01 X41.8432 Y0.2412
G01 X42.1429 Y0.3362
G01 X42.2555 Y0.3749
G01 X42.0977 Y0.1750
G01 X42.1868 Y0.2033
G01 X42.4874 Y0.3067
G01 X42.6711 Y0.3749
G01 X42.5351 Y0.1750
G01 X42.8357 Y0.2868
G01 X43.0561 Y0.3749
G01 X42.9333 Y0.1750
G01 X43.1876 Y0.2767
G01 X43.4167 Y0.3749
G01 X43.3056 Y0.1750
G01 X43.5427 Y0.2767
G01 X43.7573 Y0.3749
G01 X43.6570 Y0.1750
G01 X43.9009 Y0.2868
G01 X44.0816 Y0.3749
G01 X43.9912 Y0.1750
G01 X44.2618 Y0.3071
G01 X44.3925 Y0.3749
G01 X44.3103 Y0.1750
G01 X44.3248 Y0.1821
G01 X44.6252 Y0.3380
G01 X44.8250 Y0.4479
G01 X44.8250 Y0.2881
G01 X44.6912 Y0.2145
G01 X44.6152 Y0.1750
G00 Z1.0000
G00 X44.5876 Y0.4770
G01 F50.00
G01 Z-0.0500
G01 F80.00
G01 X44.8250 Y0.6077
G01 X44.8250 Y0.7688
G01 X44.7837 Y0.7448
G01 X44.6251 Y0.6575
G00 Z1.0000
G00 X44.6251 Y0.8173
G01 F50.00
G01 Z-0.0500
G01 F80.00
G01 X44.7147 Y0.8666
G01 X44.8250 Y0.9309
G01 X44.8250 Y1.0929
G01 X44.6457 Y0.9884
G01 X44.6251 Y0.9770
G00 Z1.0000
G00 X44.6251 Y1.1384
G01 F50.00
G01 Z-0.0500
G01 F80.00
G01 X44.8250 Y1.2549
G01 X44.8250 Y1.4184
G01 X44.7823 Y1.3921
G01 X44.6251 Y1.3004
G00 Z1.0000
G00 X44.6251 Y1.4625
G01 F50.00
G01 Z-0.0500
G01 F80.00
G01 X44.7103 Y1.5121
G01 X44.8250 Y1.5828
G01 X44.8250 Y1.7472
G01 X44.6383 Y1.6322
G01 X44.6251 Y1.6245
G00 Z1.0000
G00 X44.6251 Y1.7885
G01 F50.00
G01 Z-0.0500
G01 F80.00
G01 X44.8250 Y1.9117
G01 X44.8250 Y2.0786
G01 X44.7533 Y2.0319
G01 X44.6251 Y1.9529
G01 X44.6251 Y2.1173
G01 X44.6784 Y2.1502
G01 X44.8250 Y2.2456
G01 X44.8250 Y2.4126
G01 X44.6251 Y2.2825
G00 Z1.0000
G00 X44.6251 Y2.4495
G01 F50.00
G01 Z-0.0500
G01 F80.00
G01 X44.7748 Y2.5470
G01 X44.8250 Y2.5814
G01 X44.8250 Y2.7511
G01 X44.6970 Y2.6634
G01 X44.6251 Y2.6165
G01 X44.6251 Y2.7837
G01 X44.8250 Y2.9209
G01 X44.8250 Y3.0925
G01 X44.7752 Y3.0565
G01 X44.6251 Y2.9535
G00 Z1.0000
G00 X44.6251 Y3.1233
G01 F50.00
G01 Z-0.0500
G01 F80.00
G01 X44.6946 Y3.1710
G01 X44.8250 Y3.2652
G01 X44.8250 Y3.4379
G01 X44.6251 Y3.2935
G00 Z1.0000
G00 X44.6251 Y3.4662
G01 F50.00
G01 Z-0.0500
G01 F80.00
G01 X44.7548 Y3.5600
G01 X44.8250 Y3.6133
G01 X44.8250 Y3.7892
G01 X44.6714 Y3.6724
G01 X44.6251 Y3.6389
G00 Z1.0000
G00 X44.6251 Y3.8131
G01 F50.00
G01 Z-0.0500
G01 F80.00
G01 X44.7999 Y3.9461
G01 X44.8250 Y3.9661
G01 X44.8250 Y4.1454
G01 X44.7138 Y4.0565
G01 X44.6251 Y3.9890
G00 Z1.0000
G00 X44.6251 Y4.1649
G01 F50.00
G01 Z-0.0500
G01 F80.00
G01 X44.8250 Y4.3247
G01 X44.8250 Y4.5075
G01 X44.7414 Y4.4372
G01 X44.6251 Y4.3441
G00 Z1.0000
G00 X44.6251 Y4.5234
G01 F50.00
G01 Z-0.0500
G01 F80.00
G01 X44.6526 Y4.5454
G01 X44.8250 Y4.6904
G01 X44.8250 Y4.8764
G01 X44.7544 Y4.8140
G01 X44.6251 Y4.7052
G00 Z1.0000
G00 X44.6251 Y4.8881
G01 F50.00
G01 Z-0.0500
G01 F80.00
G01 X44.6629 Y4.9200
G01 X44.8250 Y5.0633
G01 X44.8250 Y5.2534
G01 X44.7529 Y5.1865
G01 X44.6251 Y5.0734
G00 Z1.0000
G00 X44.6251 Y5.2603
G01 F50.00
G01 Z-0.0500
G01 F80.00
G01 X44.6589 Y5.2902
G01 X44.8250 Y5.4444
G01 X44.8250 Y5.6396
G01 X44.7373 Y5.5541
G01 X44.6251 Y5.4498
G01 X44.6251 Y5.6409
G01 X44.6408 Y5.6555
G01 X44.8068 Y5.8175
G01 X44.8250 Y5.8361
G01 X44.6251 Y5.8357
G01 X44.7078 Y5.9165
G01 X44.8250 Y6.0365
G01 X44.6251 Y6.0321
G01 X44.7660 Y6.1766
G01 X44.8250 Y6.2400
G01 X44.6251 Y6.2326
G01 X44.6646 Y6.2731
G01 X44.8154 Y6.4355
G01 X44.8250 Y6.4462
G01 X44.6251 Y6.4362
G01 X44.7117 Y6.5295
G01 X44.8250 Y6.6576
G01 X44.6251 Y6.6428
G01 X44.7502 Y6.7844
G01 X44.8250 Y6.8732
G01 X44.6251 Y6.8542
G01 X44.6442 Y6.8758
G01 X44.7803 Y7.0375
G01 X44.8250 Y7.0934
G01 X44.6251 Y7.0705
G01 X44.6720 Y7.1263
G01 X44.8019 Y7.2886
G01 X44.8250 Y7.3189
G01 X44.6251 Y7.2917
G01 X44.6916 Y7.3748
G01 X44.8154 Y7.5375
G01 X44.8250 Y7.5507
G01 X44.6251 Y7.5185
G01 X44.7029 Y7.6209
G01 X44.8250 Y7.7900
G01 X44.6251 Y7.7521
G01 X44.7062 Y7.8644
G01 X44.8180 Y8.0273
G01 X44.8250 Y8.0380
G01 X44.6251 Y7.9936
G01 X44.7016 Y8.1051
G01 X44.8074 Y8.2678
G01 X44.8250 Y8.2963
G01 X44.6251 Y8.2442
G01 X44.6892 Y8.3427
G01 X44.7892 Y8.5051
G01 X44.8250 Y8.5664
G01 X44.6251 Y8.5055
G01 X44.6691 Y8.5770
G01 X44.7634 Y8.7388
G01 X44.8250 Y8.8507
G01 X44.6251 Y8.7795
G01 X44.6416 Y8.8078
G01 X44.7302 Y8.9689
G01 X44.8149 Y9.1321
G01 X44.8250 Y9.1527
G01 X44.6251 Y9.0701
G01 X44.6898 Y9.1950
G01 X44.7690 Y9.3571
G01 X44.8250 Y9.4794
G01 X44.6251 Y9.3814
G01 X44.6424 Y9.4170
G01 X44.7161 Y9.5779
G01 X44.7858 Y9.7405
G01 X44.8250 Y9.8384
G01 X44.6251 Y9.7208
G01 X44.6565 Y9.7941
G01 X44.7209 Y9.9552
G01 X44.7814 Y10.1178
G01 X44.8250 Y10.2446
G01 X44.6251 Y10.0991
G01 X44.6496 Y10.1650
G01 X44.7049 Y10.3258
G01 X44.7562 Y10.4880
G01 X44.8036 Y10.6513
G01 X44.8250 Y10.7323
G01 X44.6251 Y10.5382
G01 X44.6687 Y10.6887
G01 X44.7112 Y10.8498
G01 X44.7497 Y11.0120
G01 X44.7842 Y11.1750
G01 X44.8147 Y11.3388
G01 X44.8250 Y11.4027
G01 X44.6251 Y11.0993
G01 X44.6469 Y11.2023
G01 X44.6767 Y11.3628
G01 X44.7027 Y11.5239
G01 X44.7246 Y11.6856
G01 X44.7426 Y11.8478
G01 X44.7566 Y12.0104
G01 X44.7666 Y12.1734
G01 X44.7726 Y12.3365
G01 X44.7747 Y12.4997
G01 X44.7726 Y12.6628
G01 X44.7666 Y12.8260
G01 X44.7566 Y12.9889
G01 X44.7426 Y13.1515
G01 X44.7246 Y13.3137
G01 X44.7027 Y13.4754
G01 X44.6767 Y13.6365
G01 X44.6469 Y13.7970
G01 X44.6251 Y13.9000
G01 X44.8250 Y13.5966
G01 X44.8147 Y13.6605
G01 X44.7842 Y13.8243
G01 X44.7497 Y13.9873
G01 X44.7112 Y14.1495
G01 X44.6687 Y14.3106
G01 X44.6223 Y14.4707
G01 X44.5719 Y14.6295
G01 X44.5177 Y14.7871
G01 X44.4597 Y14.9433
G01 X44.3978 Y15.0981
G01 X44.3321 Y15.2512
G01 X44.2627 Y15.4027
G01 X44.1896 Y15.5525
G01 X44.1129 Y15.7004
G01 X44.0325 Y15.8464
G01 X43.9486 Y15.9904
G01 X43.8612 Y16.1323
G01 X43.7703 Y16.2720
G01 X43.7002 Y16.3743
G01 X43.8999 Y16.3295
G01 X43.8867 Y16.3498
G01 X43.7905 Y16.4900
G01 X43.7001 Y16.6150
G00 Z1.0000
G00 X43.8057 Y16.7080
G01 F50.00
G01 Z-0.0500
G01 F80.00
G01 X43.9050 Y16.5706
G01 X43.9280 Y16.5371
G00 Z1.0000
G00 X44.0122 Y16.6612
G01 F50.00
G01 Z-0.0500
G01 F80.00
G01 X43.9158 Y16.7946
G01 X43.8705 Y16.8542
G01 X44.0682 Y16.8228
G01 X44.0282 Y16.8780
G01 X43.9190 Y17.0216
G01 X43.8750 Y17.0766
G01 X44.0775 Y17.0445
G01 X44.0294 Y17.1077
G01 X43.9145 Y17.2513
G01 X43.8750 Y17.2982
G01 X44.0775 Y17.2716
G01 X44.0227 Y17.3401
G01 X43.9022 Y17.4834
G01 X43.7781 Y17.6236
G01 X43.6507 Y17.7608
G01 X43.5199 Y17.8949
G01 X43.3858 Y18.0257
G01 X43.2486 Y18.1531
G01 X43.2380 Y18.1625
G01 X43.4442 Y18.1625
G01 X43.4824 Y18.1270
G01 X43.6189 Y17.9939
G01 X43.7520 Y17.8574
G01 X43.8818 Y17.7177
G01 X44.0082 Y17.5748
G01 X44.0378 Y17.5396
G00 Z1.0000
G00 X43.8223 Y17.9858
G01 F50.00
G01 Z-0.0500
G01 F80.00
G01 X43.7179 Y18.0929
G01 X43.6359 Y18.1729
G00 Z1.0000
G00 X43.7660 Y18.2415
G01 F50.00
G01 Z-0.0500
G01 F80.00
G01 X43.8169 Y18.1919
G01 X43.9070 Y18.0995
G01 X43.9970 Y18.2077
G01 X43.9159 Y18.2909
G01 X43.8492 Y18.3559
G00 Z1.0000
G00 X43.8750 Y18.5263
G01 F50.00
G01 Z-0.0500
G01 F80.00
G01 X44.0148 Y18.3898
G01 X44.0565 Y18.3472
G01 X44.0775 Y18.5243
G01 X43.9651 Y18.6340
G01 X43.8750 Y18.7177
G01 X43.8750 Y18.9073
G01 X43.9068 Y18.8792
G01 X44.0616 Y18.7354
G01 X44.0775 Y18.7199
G01 X44.0770 Y18.9121
G01 X44.0008 Y18.9830
G01 X43.8399 Y19.1252
G01 X43.6756 Y19.2635
G01 X43.5079 Y19.3977
G01 X43.4523 Y19.4400
G01 X43.4840 Y19.2375
G01 X43.4218 Y19.2873
G01 X43.2536 Y19.4153
G01 X43.2194 Y19.4400
G01 X43.2561 Y19.2375
G01 X43.1702 Y19.3028
G01 X43.0017 Y19.4246
G01 X42.9888 Y19.4335
G01 X42.8146 Y19.3832
G01 X42.9211 Y19.3101
G01 X43.0229 Y19.2366
G00 Z1.0000
G00 X42.8618 Y19.1803
G01 F50.00
G01 Z-0.0500
G01 F80.00
G01 X42.8405 Y19.1957
G01 X42.6905 Y19.2986
G00 Z1.0000
G00 X42.5109 Y19.2490
G01 F50.00
G01 Z-0.0500
G01 F80.00
G01 X42.5970 Y19.1930
G01 X42.7668 Y19.0762
G01 X42.5591 Y19.0492
G01 X42.5192 Y19.0766
G01 X42.3565 Y19.1824
G01 X42.2315 Y19.2595
G00 Z1.0000
G00 X42.1410 Y19.3136
G01 F50.00
G01 Z-0.0500
G01 F80.00
G01 X42.0235 Y19.3820
G01 X41.8534 Y19.4756
G01 X41.6811 Y19.5651
G01 X41.5066 Y19.6502
G01 X41.3301 Y19.7310
G01 X41.1517 Y19.8075
G01 X40.9714 Y19.8796
G01 X40.7894 Y19.9473
G01 X40.6059 Y20.0104
G01 X40.4208 Y20.0690
G01 X40.2343 Y20.1231
G01 X40.0512 Y20.1714
G01 X40.0475 Y20.3163
G01 X40.0806 Y20.3084
G01 X40.2500 Y20.2638
G00 Z1.0000
G00 X40.2500 Y20.1981
G01 F50.00
G01 Z-0.0500
G01 F80.00
G01 X40.2505 Y20.1883
G01 X40.2519 Y20.1786
G01 X40.2543 Y20.1690
G01 X40.2576 Y20.1598
G01 X40.2607 Y20.1531
G01 X40.2655 Y20.1446
G01 X40.2712 Y20.1365
G01 X40.2776 Y20.1291
G01 X40.2847 Y20.1223
G01 X40.2924 Y20.1163
G01 X40.3007 Y20.1111
G01 X40.3095 Y20.1066
G01 X40.3186 Y20.1031
G01 X40.3257 Y20.1011
G01 X40.3353 Y20.0991
G01 X40.3451 Y20.0982
G01 X41.8500 Y20.0981
G01 X41.8622 Y20.0988
G01 X41.8695 Y20.1000
G01 X41.8767 Y20.1017
G01 X41.8837 Y20.1039
G01 X41.8905 Y20.1066
G01 X41.8971 Y20.1099
G01 X41.9035 Y20.1136
G01 X41.9134 Y20.1208
G01 X41.9224 Y20.1291
G01 X41.9303 Y20.1385
G01 X41.9370 Y20.1488
G01 X41.9424 Y20.1598
G01 X41.9464 Y20.1714
G01 X41.9489 Y20.1834
G01 X41.9500 Y20.1956
G01 X41.9500 Y21.2005
G01 X41.9495 Y21.2079
G01 X41.9485 Y21.2152
G01 X41.9457 Y21.2271
G01 X41.9433 Y21.2340
G01 X41.9404 Y21.2408
G01 X41.9345 Y21.2516
G01 X41.9273 Y21.2615
G01 X41.9190 Y21.2705
G01 X41.9096 Y21.2784
G01 X41.8993 Y21.2851
G01 X41.8883 Y21.2904
G01 X41.8767 Y21.2944
G01 X41.8647 Y21.2970
G01 X41.8525 Y21.2980
G01 X40.3500 Y21.2981
G01 X40.3426 Y21.2978
G01 X40.3353 Y21.2970
G01 X40.3281 Y21.2956
G01 X40.3210 Y21.2938
G01 X40.3140 Y21.2914
G01 X40.3072 Y21.2885
G01 X40.2965 Y21.2825
G01 X40.2885 Y21.2769
G01 X40.2793 Y21.2688
G01 X40.2712 Y21.2596
G01 X40.2642 Y21.2495
G01 X40.2586 Y21.2386
G01 X40.2543 Y21.2271
G01 X40.2515 Y21.2152
G01 X40.2501 Y21.2030
G01 X40.2500 Y20.1981
G00 Z1.0000
G00 X40.2500 Y20.4085
G01 F50.00
G01 Z-0.0500
G01 F80.00
G01 X40.1147 Y20.4442
G01 X40.0475 Y20.4602
G01 X40.0475 Y20.6040
G01 X40.1487 Y20.5800
G01 X40.2500 Y20.5533
G00 Z1.0000
G00 X40.2500 Y20.6981
G01 F50.00
G01 Z-0.0500
G01 F80.00
G01 X40.1827 Y20.7158
G01 X40.0475 Y20.7479
G01 X40.0475 Y20.8918
G01 X40.2167 Y20.8516
G01 X40.2500 Y20.8428
G01 X40.2500 Y20.9876
G01 X40.0475 Y21.0357
G01 X40.0475 Y21.1789
G01 X40.0725 Y21.1736
G01 X40.2500 Y21.1315
G00 Z1.0000
G00 X40.2790 Y21.2685
G01 F50.00
G01 Z-0.0500
G01 F80.00
G01 X40.1031 Y21.3102
G01 X40.0732 Y21.3166
G01 X40.1699 Y21.4383
G01 X40.3528 Y21.3948
G01 X40.5704 Y21.3375
G01 X40.7063 Y21.2981
G01 X40.5010 Y21.5005
G01 X40.6077 Y21.4724
G01 X40.8272 Y21.4088
G01 X41.0450 Y21.3398
G01 X41.1662 Y21.2981
G01 X41.0010 Y21.5005
G01 X41.0889 Y21.4727
G01 X41.3083 Y21.3972
G01 X41.5257 Y21.3164
G01 X41.5716 Y21.2981
G01 X41.4321 Y21.5005
G01 X41.5760 Y21.4471
G01 X41.7946 Y21.3597
G01 X42.0109 Y21.2669
G01 X42.1509 Y21.2028
G01 X42.1525 Y21.0481
G01 X41.9500 Y21.1407
G01 X41.9500 Y20.9869
G01 X42.1052 Y20.9158
G01 X42.1525 Y20.8927
G01 X42.1525 Y20.7369
G01 X42.0453 Y20.7892
G01 X41.9500 Y20.8329
G01 X41.9500 Y20.6789
G01 X41.9855 Y20.6627
G01 X42.1525 Y20.5812
G01 X42.1525 Y20.4244
G01 X42.1217 Y20.4404
G01 X41.9500 Y20.5242
G00 Z1.0000
G00 X41.9500 Y20.3684
G01 F50.00
G01 Z-0.0500
G01 F80.00
G01 X42.0587 Y20.3154
G01 X42.1525 Y20.2667
G01 X42.1386 Y20.1162
G01 X41.9958 Y20.1903
G01 X41.9500 Y20.2127
G00 Z1.0000
G00 X41.8637 Y20.0990
G01 F50.00
G01 Z-0.0500
G01 F80.00
G01 X41.9329 Y20.0653
G01 X42.0704 Y19.9939
G01 X41.9316 Y19.9082
G01 X41.8699 Y19.9402
G01 X41.6862 Y20.0299
G01 X41.5373 Y20.0981
G00 Z1.0000
G00 X41.1792 Y20.0981
G01 F50.00
G01 Z-0.0500
G01 F80.00
G01 X41.2588 Y20.0662
G01 X41.4436 Y19.9870
G01 X41.6263 Y19.9033
G01 X41.8070 Y19.8152
G01 X41.8201 Y19.8083
G00 Z1.0000
G00 X41.7946 Y19.6639
G01 F50.00
G01 Z-0.0500
G01 F80.00
G01 X41.7440 Y19.6901
G01 X41.5665 Y19.7768
G01 X41.3868 Y19.8590
G01 X41.2053 Y19.9369
G01 X41.0218 Y20.0102
G01 X40.8366 Y20.0791
G01 X40.7814 Y20.0981
G00 Z1.0000
G00 X40.3912 Y19.7847
G01 F50.00
G01 Z-0.0500
G01 F80.00
G01 X40.5180 Y19.7446
G01 X40.6951 Y19.6836
G01 X40.8706 Y19.6184
G01 X41.0445 Y19.5489
G01 X41.2166 Y19.4751
G01 X41.3869 Y19.3971
G01 X41.5552 Y19.3150
G01 X41.5858 Y19.2991
G00 Z1.0000
G00 X41.2647 Y19.2991
G01 F50.00
G01 Z-0.0500
G01 F80.00
G01 X41.1599 Y19.3471
G01 X40.9909 Y19.4195
G01 X40.8203 Y19.4878
G01 X40.6480 Y19.5518
G01 X40.4741 Y19.6116
G01 X40.3992 Y19.6354
G00 Z1.0000
G00 X40.3148 Y19.5152
G01 F50.00
G01 Z-0.0500
G01 F80.00
G01 X40.4302 Y19.4787
G01 X40.6008 Y19.4200
G01 X40.7699 Y19.3571
G01 X40.9151 Y19.2991
G00 Z1.0000
G00 X40.5220 Y19.2991
G01 F50.00
G01 Z-0.0500
G01 F80.00
G01 X40.3863 Y19.3457
G01 X40.2176 Y19.3992
G01 X40.1463 Y19.4199
G01 X40.0664 Y19.2973
G01 X40.1770 Y19.2652
G01 X40.2585 Y19.2394
G00 Z1.0000
G00 X40.2500 Y19.0952
G01 F50.00
G01 Z-0.0500
G01 F80.00
G01 X40.1363 Y19.1312
G01 X40.0475 Y19.1570
G01 X40.0475 Y19.0112
G01 X40.0957 Y18.9973
G01 X40.2500 Y18.9484
G00 Z1.0000
G00 X40.2500 Y18.8005
G01 F50.00
G01 Z-0.0500
G01 F80.00
G01 X40.2106 Y18.8140
G01 X40.0475 Y18.8655
G01 X40.0475 Y18.7188
G01 X40.1667 Y18.6811
G01 X40.2500 Y18.6524
G01 X40.2500 Y18.5044
G01 X40.1228 Y18.5481
G01 X40.0475 Y18.5720
G01 X40.0475 Y18.4251
G01 X40.0789 Y18.4152
G01 X40.2235 Y18.3655
G01 X40.2500 Y18.3556
G01 X40.2500 Y18.2063
G01 X40.1763 Y18.2337
G01 X40.0475 Y18.2780
G01 X40.0587 Y18.1261
G01 X40.1291 Y18.1018
G01 X40.2660 Y18.0510
G01 X40.4016 Y17.9967
G01 X40.5358 Y17.9392
G01 X40.6686 Y17.8784
G01 X40.7998 Y17.8143
G01 X40.9295 Y17.7471
G01 X41.0574 Y17.6767
G01 X41.1836 Y17.6031
G01 X41.3079 Y17.5265
G01 X41.4303 Y17.4469
G01 X41.5507 Y17.3643
G01 X41.6430 Y17.2976
G00 Z1.0000
G00 X41.8818 Y17.2924
G01 F50.00
G01 Z-0.0500
G01 F80.00
G01 X41.8714 Y17.3007
G01 X41.7525 Y17.3912
G01 X41.6313 Y17.4787
G01 X41.5081 Y17.5633
G01 X41.3828 Y17.6448
G01 X41.2555 Y17.7232
G01 X41.1264 Y17.7985
G01 X40.9955 Y17.8706
G01 X40.8628 Y17.9394
G01 X40.7285 Y18.0049
G01 X40.5926 Y18.0672
G01 X40.5182 Y18.0991
G00 Z1.0000
G00 X40.2500 Y18.1991
G01 F50.00
G01 Z-0.0500
G01 F80.00
G01 X40.2503 Y18.1917
G01 X40.2515 Y18.1820
G01 X40.2536 Y18.1724
G01 X40.2567 Y18.1631
G01 X40.2607 Y18.1541
G01 X40.2655 Y18.1456
G01 X40.2712 Y18.1376
G01 X40.2759 Y18.1319
G01 X40.2828 Y18.1250
G01 X40.2885 Y18.1202
G01 X40.2965 Y18.1146
G01 X40.3050 Y18.1098
G01 X40.3140 Y18.1058
G01 X40.3233 Y18.1027
G01 X40.3329 Y18.1006
G01 X40.3426 Y18.0994
G01 X40.3500 Y18.0991
G01 X41.8549 Y18.0992
G01 X41.8622 Y18.0998
G01 X41.8695 Y18.1010
G01 X41.8767 Y18.1027
G01 X41.8837 Y18.1049
G01 X41.8905 Y18.1077
G01 X41.8971 Y18.1109
G01 X41.9035 Y18.1146
G01 X41.9096 Y18.1188
G01 X41.9153 Y18.1234
G01 X41.9207 Y18.1284
G01 X41.9288 Y18.1376
G01 X41.9331 Y18.1435
G01 X41.9370 Y18.1498
G01 X41.9404 Y18.1563
G01 X41.9433 Y18.1631
G01 X41.9457 Y18.1701
G01 X41.9481 Y18.1796
G01 X41.9492 Y18.1868
G01 X41.9500 Y18.1966
G01 X41.9500 Y18.3490
G01 X42.7540 Y18.3490
G01 X42.7626 Y18.3310
G01 X42.7761 Y18.3083
G01 X42.7801 Y18.3021
G01 X42.7958 Y18.2810
G01 X42.8184 Y18.2559
G01 X42.8435 Y18.2333
G01 X42.8646 Y18.2176
G01 X42.8708 Y18.2136
G01 X42.8935 Y18.2001
G01 X42.9173 Y18.1888
G01 X42.9263 Y18.1850
G01 X42.9512 Y18.1762
G01 X42.9816 Y18.1686
G01 X43.0125 Y18.1640
G01 X43.0438 Y18.1625
G01 X43.5562 Y18.1625
G01 X43.5875 Y18.1640
G01 X43.6208 Y18.1691
G01 X43.6488 Y18.1762
G01 X43.6737 Y18.1850
G01 X43.6827 Y18.1888
G01 X43.7065 Y18.2001
G01 X43.7292 Y18.2136
G01 X43.7374 Y18.2190
G01 X43.7585 Y18.2349
G01 X43.7781 Y18.2525
G01 X43.7850 Y18.2594
G01 X43.8026 Y18.2790
G01 X43.8185 Y18.3001
G01 X43.8239 Y18.3083
G01 X43.8374 Y18.3310
G01 X43.8487 Y18.3548
G01 X43.8525 Y18.3638
G01 X43.8613 Y18.3887
G01 X43.8689 Y18.4191
G01 X43.8729 Y18.4451
G01 X43.8738 Y18.4549
G01 X43.8750 Y18.4813
G01 X43.8750 Y18.9212
G01 X43.8735 Y18.9500
G01 X43.8684 Y18.9833
G01 X43.8613 Y19.0113
G01 X43.8525 Y19.0362
G01 X43.8498 Y19.0430
G01 X43.8396 Y19.0646
G01 X43.8349 Y19.0733
G01 X43.8213 Y19.0958
G01 X43.8026 Y19.1210
G01 X43.7816 Y19.1441
G01 X43.7622 Y19.1619
G01 X43.7546 Y19.1682
G01 X43.7354 Y19.1824
G01 X43.7292 Y19.1864
G01 X43.7065 Y19.1999
G01 X43.6782 Y19.2132
G01 X43.6488 Y19.2238
G01 X43.6232 Y19.2303
G01 X43.6136 Y19.2322
G01 X43.5875 Y19.2360
G01 X43.5562 Y19.2375
G01 X43.0438 Y19.2375
G01 X43.0125 Y19.2360
G01 X42.9792 Y19.2309
G01 X42.9536 Y19.2245
G01 X42.9466 Y19.2222
G01 X42.9218 Y19.2132
G01 X42.8979 Y19.2021
G01 X42.8892 Y19.1974
G01 X42.8667 Y19.1838
G01 X42.8415 Y19.1651
G01 X42.8184 Y19.1441
G01 X42.7958 Y19.1190
G01 X42.7801 Y19.0979
G01 X42.7761 Y19.0917
G01 X42.7626 Y19.0690
G01 X42.7531 Y19.0492
G01 X41.9500 Y19.0492
G01 X41.9500 Y19.2015
G01 X41.9495 Y19.2089
G01 X41.9485 Y19.2162
G01 X41.9470 Y19.2234
G01 X41.9450 Y19.2304
G01 X41.9404 Y19.2418
G01 X41.9370 Y19.2484
G01 X41.9331 Y19.2546
G01 X41.9288 Y19.2606
G01 X41.9241 Y19.2662
G01 X41.9153 Y19.2748
G01 X41.9096 Y19.2794
G01 X41.9035 Y19.2836
G01 X41.8971 Y19.2873
G01 X41.8905 Y19.2905
G01 X41.8790 Y19.2948
G01 X41.8719 Y19.2967
G01 X41.8647 Y19.2980
G01 X41.8574 Y19.2988
G01 X41.8500 Y19.2991
G01 X40.3500 Y19.2991
G01 X40.3402 Y19.2986
G01 X40.3281 Y19.2967
G01 X40.3210 Y19.2948
G01 X40.3140 Y19.2924
G01 X40.3072 Y19.2895
G01 X40.2986 Y19.2849
G01 X40.2924 Y19.2808
G01 X40.2847 Y19.2748
G01 X40.2793 Y19.2698
G01 X40.2743 Y19.2644
G01 X40.2682 Y19.2567
G01 X40.2642 Y19.2505
G01 X40.2607 Y19.2440
G01 X40.2576 Y19.2373
G01 X40.2543 Y19.2281
G01 X40.2524 Y19.2210
G01 X40.2511 Y19.2138
G01 X40.2503 Y19.2064
G01 X40.2500 Y19.1991
G01 X40.2500 Y18.1991
G00 Z1.0000
G00 X40.3268 Y17.8759
G01 F50.00
G01 Z-0.0500
G01 F80.00
G01 X40.3480 Y17.8674
G01 X40.4791 Y17.8112
G01 X40.6087 Y17.7518
G01 X40.7369 Y17.6893
G01 X40.8635 Y17.6236
G01 X40.9884 Y17.5549
G01 X41.1116 Y17.4831
G01 X41.2330 Y17.4082
G01 X41.3525 Y17.3305
