(G-CODE GENERATED BY FLATCAM v8.994 - www.flatcam.org - Version Date: 2020/11/7)

(Name: doorbell-F_Cu.gbr_ncc_cnc)
(Type: G-code from Geometry)
(Units: MM)

(Created on Mercredi, 04 août 2021 at 23:05)

(This preprocessor is the default preprocessor used by FlatCAM.)
(It is made to work with MACH3 compatible motion controllers.)

(TOOL DIAMETER: 0.2 mm)
(Feedrate_XY: 80.0 mm/min)
(Feedrate_Z: 50.0 mm/min)
(Feedrate rapids 1500.0 mm/min)

(Z_Cut: -0.05 mm)
(Z_Move: 0.5 mm)
(Z Start: None mm)
(Z End: 15.0 mm)
(X,Y End: None mm)
(Steps per circle: 64)
(Preprocessor Geometry: default)

(X range:   -0.9750 ...   45.9750  mm)
(Y range:   -0.9750 ...   25.9750  mm)

(Spindle Speed: 2000.0 RPM)
G21
G90
G94

G01 F80.00

M5
G00 Z15.0000
G00 X0.0000 Y0.0000
T2
M6    
(MSG, Change to Tool Dia = 0.2000)
M0
G00 Z15.0000

M03 S2000.0
G01 F80.00
G00 X-0.0727 Y-0.1591
G01 F50.00
G01 Z-0.0500
G01 F80.00
G01 X-0.2641 Y-0.1662
G01 X-0.5750 Y-0.1700
G01 X-0.8860 Y-0.1662
G01 X-0.9614 Y-0.1634
G01 X-0.9750 Y-0.0228
G01 X-0.8825 Y-0.0262
G01 X-0.5750 Y-0.0300
G01 X-0.2675 Y-0.0262
G01 X-0.1735 Y-0.0228
G00 Z0.5000
G00 X-0.1750 Y0.0000
G01 F50.00
G01 Z-0.0500
G01 F80.00
G01 X-0.1742 Y-0.0172
G01 X-0.1717 Y-0.0341
G01 X-0.1675 Y-0.0508
G01 X-0.1617 Y-0.0670
G01 X-0.1544 Y-0.0825
G01 X-0.1455 Y-0.0972
G01 X-0.1353 Y-0.1110
G01 X-0.1238 Y-0.1238
G01 X-0.1110 Y-0.1353
G01 X-0.0972 Y-0.1455
G01 X-0.0825 Y-0.1544
G01 X-0.0670 Y-0.1617
G01 X-0.0508 Y-0.1675
G01 X-0.0341 Y-0.1717
G01 X-0.0172 Y-0.1742
G01 X0.0000 Y-0.1750
G01 X45.0000 Y-0.1750
G01 X45.0196 Y-0.1739
G01 X45.0341 Y-0.1717
G01 X45.0461 Y-0.1688
G01 X45.0532 Y-0.1668
G01 X45.0670 Y-0.1617
G01 X45.0847 Y-0.1532
G01 X45.0972 Y-0.1455
G01 X45.1072 Y-0.1383
G01 X45.1129 Y-0.1337
G01 X45.1238 Y-0.1238
G01 X45.1368 Y-0.1091
G01 X45.1455 Y-0.0972
G01 X45.1519 Y-0.0868
G01 X45.1555 Y-0.0803
G01 X45.1617 Y-0.0670
G01 X45.1682 Y-0.0485
G01 X45.1717 Y-0.0341
G01 X45.1736 Y-0.0220
G01 X45.1744 Y-0.0147
G01 X45.1750 Y0.0000
G01 X45.1750 Y25.0000
G01 X45.1742 Y25.0172
G01 X45.1717 Y25.0341
G01 X45.1675 Y25.0508
G01 X45.1617 Y25.0670
G01 X45.1544 Y25.0825
G01 X45.1455 Y25.0972
G01 X45.1353 Y25.1110
G01 X45.1238 Y25.1238
G01 X45.1110 Y25.1353
G01 X45.0972 Y25.1455
G01 X45.0825 Y25.1544
G01 X45.0670 Y25.1617
G01 X45.0508 Y25.1675
G01 X45.0341 Y25.1717
G01 X45.0172 Y25.1742
G01 X45.0000 Y25.1750
G01 X0.0000 Y25.1750
G01 X-0.0196 Y25.1739
G01 X-0.0341 Y25.1717
G01 X-0.0461 Y25.1688
G01 X-0.0532 Y25.1668
G01 X-0.0670 Y25.1617
G01 X-0.0847 Y25.1532
G01 X-0.0972 Y25.1455
G01 X-0.1072 Y25.1383
G01 X-0.1129 Y25.1337
G01 X-0.1238 Y25.1238
G01 X-0.1368 Y25.1091
G01 X-0.1455 Y25.0972
G01 X-0.1519 Y25.0868
G01 X-0.1555 Y25.0803
G01 X-0.1617 Y25.0670
G01 X-0.1682 Y25.0485
G01 X-0.1717 Y25.0341
G01 X-0.1736 Y25.0220
G01 X-0.1744 Y25.0147
G01 X-0.1750 Y25.0000
G01 X-0.1750 Y0.0000
G01 X-0.1750 Y0.1173
G01 X-0.2710 Y0.1137
G01 X-0.5750 Y0.1100
G01 X-0.8791 Y0.1137
G01 X-0.9750 Y0.1173
G01 X-0.9750 Y0.2573
G01 X-0.8757 Y0.2537
G01 X-0.5750 Y0.2500
G01 X-0.2744 Y0.2537
G01 X-0.1750 Y0.2573
G01 X-0.1750 Y0.3974
G01 X-0.2778 Y0.3936
G01 X-0.5750 Y0.3900
G01 X-0.8722 Y0.3936
G01 X-0.9750 Y0.3974
G01 X-0.9750 Y0.5375
G01 X-0.8688 Y0.5336
G01 X-0.5750 Y0.5300
G01 X-0.2813 Y0.5336
G01 X-0.1750 Y0.5375
G01 X-0.1750 Y0.6776
G01 X-0.2847 Y0.6736
G01 X-0.5750 Y0.6700
G01 X-0.8654 Y0.6736
G01 X-0.9750 Y0.6776
G01 X-0.9750 Y0.8177
G01 X-0.8619 Y0.8135
G01 X-0.5750 Y0.8100
G01 X-0.2882 Y0.8135
G01 X-0.1750 Y0.8177
G01 X-0.1750 Y0.9578
G01 X-0.2916 Y0.9535
G01 X-0.5750 Y0.9500
G01 X-0.8585 Y0.9535
G01 X-0.9750 Y0.9578
G01 X-0.9750 Y1.0979
G01 X-0.8551 Y1.0934
G01 X-0.5750 Y1.0900
G01 X-0.2950 Y1.0934
G01 X-0.1750 Y1.0979
G01 X-0.1750 Y1.2379
G01 X-0.2985 Y1.2334
G01 X-0.5750 Y1.2300
G01 X-0.8516 Y1.2334
G01 X-0.9750 Y1.2379
G01 X-0.9750 Y1.3780
G01 X-0.8482 Y1.3734
G01 X-0.5750 Y1.3700
G01 X-0.3019 Y1.3734
G01 X-0.1750 Y1.3780
G01 X-0.1750 Y1.5181
G01 X-0.3053 Y1.5133
G01 X-0.5750 Y1.5100
G01 X-0.8447 Y1.5133
G01 X-0.9750 Y1.5181
G01 X-0.9750 Y1.6582
G01 X-0.8413 Y1.6533
G01 X-0.5750 Y1.6500
G01 X-0.3088 Y1.6533
G01 X-0.1750 Y1.6582
G01 X-0.1750 Y1.7983
G01 X-0.3122 Y1.7932
G01 X-0.5750 Y1.7900
G01 X-0.8379 Y1.7932
G01 X-0.9750 Y1.7983
G01 X-0.9750 Y1.9384
G01 X-0.8344 Y1.9332
G01 X-0.5750 Y1.9300
G01 X-0.3156 Y1.9332
G01 X-0.1750 Y1.9384
G01 X-0.1750 Y2.0784
G01 X-0.3191 Y2.0731
G01 X-0.5750 Y2.0700
G01 X-0.8310 Y2.0731
G01 X-0.9750 Y2.0784
G01 X-0.9750 Y2.2185
G01 X-0.8276 Y2.2131
G01 X-0.5750 Y2.2100
G01 X-0.3225 Y2.2131
G01 X-0.1750 Y2.2185
G01 X-0.1750 Y2.3586
G01 X-0.3259 Y2.3531
G01 X-0.5750 Y2.3500
G01 X-0.8241 Y2.3531
G01 X-0.9750 Y2.3586
G01 X-0.9750 Y2.4987
G01 X-0.8207 Y2.4930
G01 X-0.5750 Y2.4900
G01 X-0.3294 Y2.4930
G01 X-0.1750 Y2.4987
G01 X-0.1750 Y2.6388
G01 X-0.3328 Y2.6330
G01 X-0.5750 Y2.6300
G01 X-0.8173 Y2.6330
G01 X-0.9750 Y2.6388
G01 X-0.9750 Y2.7789
G01 X-0.8138 Y2.7729
G01 X-0.5750 Y2.7700
G01 X-0.3363 Y2.7729
G01 X-0.1750 Y2.7789
G01 X-0.1750 Y2.9190
G01 X-0.3397 Y2.9129
G01 X-0.5750 Y2.9100
G01 X-0.8104 Y2.9129
G01 X-0.9750 Y2.9190
G01 X-0.9750 Y3.0590
G01 X-0.8070 Y3.0528
G01 X-0.5750 Y3.0500
G01 X-0.3431 Y3.0528
G01 X-0.1750 Y3.0590
G01 X-0.1750 Y3.1991
G01 X-0.3466 Y3.1928
G01 X-0.5750 Y3.1900
G01 X-0.8035 Y3.1928
G01 X-0.9750 Y3.1991
G01 X-0.9750 Y3.3392
G01 X-0.8001 Y3.3328
G01 X-0.5750 Y3.3300
G01 X-0.3500 Y3.3328
G01 X-0.1750 Y3.3392
G01 X-0.1750 Y3.4793
G01 X-0.3534 Y3.4727
G01 X-0.5750 Y3.4700
G01 X-0.7966 Y3.4727
G01 X-0.9750 Y3.4793
G01 X-0.9750 Y3.6194
G01 X-0.7932 Y3.6127
G01 X-0.5750 Y3.6100
G01 X-0.3569 Y3.6127
G01 X-0.1750 Y3.6194
G01 X-0.1750 Y3.7595
G01 X-0.3603 Y3.7526
G01 X-0.5750 Y3.7500
G01 X-0.7898 Y3.7526
G01 X-0.9750 Y3.7595
G01 X-0.9750 Y3.8995
G01 X-0.7863 Y3.8926
G01 X-0.5750 Y3.8900
G01 X-0.3637 Y3.8926
G01 X-0.1750 Y3.8995
G01 X-0.1750 Y4.0396
G01 X-0.3672 Y4.0326
G01 X-0.5750 Y4.0300
G01 X-0.7829 Y4.0326
G01 X-0.9750 Y4.0396
G01 X-0.9750 Y4.1797
G01 X-0.7795 Y4.1725
G01 X-0.5750 Y4.1700
G01 X-0.3706 Y4.1725
G01 X-0.1750 Y4.1797
G01 X-0.1750 Y4.3198
G01 X-0.3740 Y4.3125
G01 X-0.5750 Y4.3100
G01 X-0.7760 Y4.3125
G01 X-0.9750 Y4.3198
G01 X-0.9750 Y4.4600
G01 X-0.7726 Y4.4524
G01 X-0.5750 Y4.4500
G01 X-0.3775 Y4.4524
G01 X-0.1800 Y4.4597
G01 X-0.1750 Y4.4600
G01 X-0.1750 Y4.6003
G01 X-0.1869 Y4.5995
G01 X-0.3809 Y4.5924
G01 X-0.5750 Y4.5900
G01 X-0.7692 Y4.5924
G01 X-0.9632 Y4.5995
G01 X-0.9750 Y4.6003
G01 X-0.9750 Y4.7405
G01 X-0.9563 Y4.7394
G01 X-0.7657 Y4.7323
G01 X-0.5750 Y4.7300
G01 X-0.3844 Y4.7323
G01 X-0.1938 Y4.7394
G01 X-0.1750 Y4.7405
G01 X-0.1750 Y4.8808
G01 X-0.2007 Y4.8792
G01 X-0.3878 Y4.8723
G01 X-0.5750 Y4.8700
G01 X-0.7623 Y4.8723
G01 X-0.9494 Y4.8792
G01 X-0.9750 Y4.8808
G01 X-0.9750 Y5.0210
G01 X-0.9426 Y5.0190
G01 X-0.7589 Y5.0123
G01 X-0.5750 Y5.0100
G01 X-0.3912 Y5.0123
G01 X-0.2075 Y5.0190
G01 X-0.1750 Y5.0210
G01 X-0.1750 Y5.1613
G01 X-0.2144 Y5.1589
G01 X-0.3947 Y5.1522
G01 X-0.5750 Y5.1500
G01 X-0.7554 Y5.1522
G01 X-0.9357 Y5.1589
G01 X-0.9750 Y5.1613
G01 X-0.9750 Y5.3015
G01 X-0.9288 Y5.2987
G01 X-0.7520 Y5.2922
G01 X-0.5750 Y5.2900
G01 X-0.3981 Y5.2922
G01 X-0.2213 Y5.2987
G01 X-0.1750 Y5.3015
G01 X-0.1750 Y5.4418
G01 X-0.2281 Y5.4385
G01 X-0.4015 Y5.4321
G01 X-0.5750 Y5.4300
G01 X-0.7485 Y5.4321
G01 X-0.9219 Y5.4385
G01 X-0.9750 Y5.4418
G01 X-0.9750 Y5.5820
G01 X-0.9151 Y5.5783
G01 X-0.7451 Y5.5721
G01 X-0.5750 Y5.5700
G01 X-0.4050 Y5.5721
G01 X-0.2350 Y5.5783
G01 X-0.1750 Y5.5820
G01 X-0.1750 Y5.7223
G01 X-0.2419 Y5.7182
G01 X-0.4084 Y5.7120
G01 X-0.5750 Y5.7100
G01 X-0.7417 Y5.7120
G01 X-0.9082 Y5.7182
G01 X-0.9750 Y5.7223
G01 X-0.9750 Y5.8625
G01 X-0.9013 Y5.8580
G01 X-0.7382 Y5.8520
G01 X-0.5750 Y5.8500
G01 X-0.4118 Y5.8520
G01 X-0.2487 Y5.8580
G01 X-0.1750 Y5.8625
G01 X-0.1750 Y6.0028
G01 X-0.2556 Y5.9978
G01 X-0.4153 Y5.9920
G01 X-0.5750 Y5.9900
G01 X-0.7348 Y5.9920
G01 X-0.8945 Y5.9978
G01 X-0.9750 Y6.0028
G01 X-0.9750 Y6.1430
G01 X-0.8876 Y6.1377
G01 X-0.7314 Y6.1319
G01 X-0.5750 Y6.1300
G01 X-0.4187 Y6.1319
G01 X-0.2625 Y6.1377
G01 X-0.1750 Y6.1430
G01 X-0.1750 Y6.2833
G01 X-0.2693 Y6.2775
G01 X-0.4221 Y6.2719
G01 X-0.5750 Y6.2700
G01 X-0.7279 Y6.2719
G01 X-0.8807 Y6.2775
G01 X-0.9750 Y6.2833
G01 X-0.9750 Y6.4236
G01 X-0.8739 Y6.4173
G01 X-0.7245 Y6.4118
G01 X-0.5750 Y6.4100
G01 X-0.4256 Y6.4118
G01 X-0.2762 Y6.4173
G01 X-0.1750 Y6.4236
G01 X-0.1750 Y6.5638
G01 X-0.2831 Y6.5572
G01 X-0.4290 Y6.5518
G01 X-0.5750 Y6.5500
G01 X-0.7211 Y6.5518
G01 X-0.8670 Y6.5572
G01 X-0.9750 Y6.5638
G01 X-0.9750 Y6.7041
G01 X-0.8601 Y6.6970
G01 X-0.7176 Y6.6917
G01 X-0.5750 Y6.6900
G01 X-0.4325 Y6.6917
G01 X-0.2900 Y6.6970
G01 X-0.1750 Y6.7041
G01 X-0.1750 Y6.8443
G01 X-0.2968 Y6.8368
G01 X-0.4359 Y6.8317
G01 X-0.5750 Y6.8300
G01 X-0.7142 Y6.8317
G01 X-0.8533 Y6.8368
G01 X-0.9750 Y6.8443
G01 X-0.9750 Y6.9846
G01 X-0.8464 Y6.9767
G01 X-0.7108 Y6.9717
G01 X-0.5750 Y6.9700
G01 X-0.4393 Y6.9717
G01 X-0.3037 Y6.9767
G01 X-0.1750 Y6.9846
G01 X-0.1750 Y7.1249
G01 X-0.1785 Y7.1246
G01 X-0.3106 Y7.1165
G01 X-0.4428 Y7.1116
G01 X-0.5750 Y7.1100
G01 X-0.7073 Y7.1116
G01 X-0.8395 Y7.1165
G01 X-0.9750 Y7.1249
G01 X-0.9750 Y7.2654
G01 X-0.9613 Y7.2642
G01 X-0.8326 Y7.2563
G01 X-0.7039 Y7.2516
G01 X-0.5750 Y7.2500
G01 X-0.4462 Y7.2516
G01 X-0.3174 Y7.2563
G01 X-0.1888 Y7.2642
G01 X-0.1750 Y7.2654
G01 X-0.1750 Y7.4059
G01 X-0.1991 Y7.4038
G01 X-0.3243 Y7.3962
G01 X-0.4496 Y7.3915
G01 X-0.5750 Y7.3900
G01 X-0.7004 Y7.3915
G01 X-0.8258 Y7.3962
G01 X-0.9510 Y7.4038
G01 X-0.9750 Y7.4059
G01 X-0.9750 Y7.5464
G01 X-0.9407 Y7.5435
G01 X-0.8189 Y7.5360
G01 X-0.6970 Y7.5315
G01 X-0.5750 Y7.5300
G01 X-0.4531 Y7.5315
G01 X-0.3312 Y7.5360
G01 X-0.2094 Y7.5435
G01 X-0.1750 Y7.5464
G01 X-0.1750 Y7.6869
G01 X-0.2197 Y7.6831
G01 X-0.3380 Y7.6758
G01 X-0.4565 Y7.6715
G01 X-0.5750 Y7.6700
G01 X-0.6936 Y7.6715
G01 X-0.8120 Y7.6758
G01 X-0.9304 Y7.6831
G01 X-0.9750 Y7.6869
G01 X-0.9750 Y7.8274
G01 X-0.9201 Y7.8227
G01 X-0.8052 Y7.8156
G01 X-0.6901 Y7.8114
G01 X-0.5750 Y7.8100
G01 X-0.4599 Y7.8114
G01 X-0.3449 Y7.8156
G01 X-0.2300 Y7.8227
G01 X-0.1750 Y7.8274
G01 X-0.1750 Y7.9680
G01 X-0.2403 Y7.9623
G01 X-0.3518 Y7.9555
G01 X-0.4634 Y7.9514
G01 X-0.5750 Y7.9500
G01 X-0.6867 Y7.9514
G01 X-0.7983 Y7.9555
G01 X-0.9098 Y7.9623
G01 X-0.9750 Y7.9680
G01 X-0.9750 Y8.1085
G01 X-0.8995 Y8.1019
G01 X-0.7914 Y8.0953
G01 X-0.6833 Y8.0913
G01 X-0.5750 Y8.0900
G01 X-0.4668 Y8.0913
G01 X-0.3586 Y8.0953
G01 X-0.2506 Y8.1019
G01 X-0.1750 Y8.1085
G01 X-0.1750 Y8.2490
G01 X-0.2609 Y8.2416
G01 X-0.3655 Y8.2351
G01 X-0.4702 Y8.2313
G01 X-0.5750 Y8.2300
G01 X-0.6798 Y8.2313
G01 X-0.7846 Y8.2351
G01 X-0.8892 Y8.2416
G01 X-0.9750 Y8.2490
G01 X-0.9750 Y8.3895
G01 X-0.8789 Y8.3812
G01 X-0.7777 Y8.3750
G01 X-0.6764 Y8.3712
G01 X-0.5750 Y8.3700
G01 X-0.4737 Y8.3712
G01 X-0.3724 Y8.3750
G01 X-0.2712 Y8.3812
G01 X-0.1750 Y8.3895
G01 X-0.1750 Y8.5302
G01 X-0.1839 Y8.5292
G01 X-0.2815 Y8.5208
G01 X-0.3793 Y8.5148
G01 X-0.4771 Y8.5112
G01 X-0.5750 Y8.5100
G01 X-0.6730 Y8.5112
G01 X-0.7708 Y8.5148
G01 X-0.8686 Y8.5208
G01 X-0.9750 Y8.5302
G01 X-0.9750 Y8.6710
G01 X-0.9524 Y8.6685
G01 X-0.8583 Y8.6604
G01 X-0.7639 Y8.6546
G01 X-0.6695 Y8.6512
G01 X-0.5750 Y8.6500
G01 X-0.4806 Y8.6512
G01 X-0.3861 Y8.6546
G01 X-0.2918 Y8.6604
G01 X-0.1977 Y8.6685
G01 X-0.1750 Y8.6710
G01 X-0.1750 Y8.8119
G01 X-0.2114 Y8.8079
G01 X-0.3021 Y8.8001
G01 X-0.3930 Y8.7945
G01 X-0.4840 Y8.7911
G01 X-0.5750 Y8.7900
G01 X-0.6661 Y8.7911
G01 X-0.7571 Y8.7945
G01 X-0.8480 Y8.8001
G01 X-0.9387 Y8.8079
G01 X-0.9750 Y8.8119
G01 X-0.9750 Y8.9527
G01 X-0.9250 Y8.9472
G01 X-0.8377 Y8.9397
G01 X-0.7502 Y8.9343
G01 X-0.6626 Y8.9311
G01 X-0.5750 Y8.9300
G01 X-0.4874 Y8.9311
G01 X-0.3999 Y8.9343
G01 X-0.3124 Y8.9397
G01 X-0.2251 Y8.9472
G01 X-0.1750 Y8.9527
G01 X-0.1750 Y9.0936
G01 X-0.2388 Y9.0865
G01 X-0.3227 Y9.0793
G01 X-0.4067 Y9.0741
G01 X-0.4909 Y9.0710
G01 X-0.5750 Y9.0700
G01 X-0.6592 Y9.0710
G01 X-0.7433 Y9.0741
G01 X-0.8274 Y9.0793
G01 X-0.9112 Y9.0865
G01 X-0.9750 Y9.0936
G01 X-0.9750 Y9.2344
G01 X-0.8975 Y9.2258
G01 X-0.8171 Y9.2189
G01 X-0.7365 Y9.2140
G01 X-0.6558 Y9.2110
G01 X-0.5750 Y9.2100
G01 X-0.4943 Y9.2110
G01 X-0.4136 Y9.2140
G01 X-0.3330 Y9.2189
G01 X-0.2526 Y9.2258
G01 X-0.1750 Y9.2344
G01 X-0.1750 Y9.3756
G01 X-0.1894 Y9.3737
G01 X-0.2663 Y9.3652
G01 X-0.3433 Y9.3585
G01 X-0.4205 Y9.3538
G01 X-0.4977 Y9.3509
G01 X-0.5750 Y9.3500
G01 X-0.6523 Y9.3509
G01 X-0.7296 Y9.3538
G01 X-0.8068 Y9.3585
G01 X-0.8838 Y9.3652
G01 X-0.9606 Y9.3737
G01 X-0.9750 Y9.3756
G01 X-0.9750 Y9.5169
G01 X-0.9435 Y9.5126
G01 X-0.8701 Y9.5045
G01 X-0.7965 Y9.4982
G01 X-0.7227 Y9.4936
G01 X-0.6489 Y9.4909
G01 X-0.5750 Y9.4900
G01 X-0.5012 Y9.4909
G01 X-0.4273 Y9.4936
G01 X-0.3536 Y9.4982
G01 X-0.2800 Y9.5045
G01 X-0.2066 Y9.5126
G01 X-0.1750 Y9.5169
G01 X-0.1750 Y9.6582
G01 X-0.2237 Y9.6516
G01 X-0.2937 Y9.6438
G01 X-0.3639 Y9.6378
G01 X-0.4342 Y9.6335
G01 X-0.5046 Y9.6309
G01 X-0.5750 Y9.6300
G01 X-0.6455 Y9.6309
G01 X-0.7159 Y9.6335
G01 X-0.7862 Y9.6378
G01 X-0.8563 Y9.6438
G01 X-0.9264 Y9.6516
G01 X-0.9750 Y9.6582
G01 X-0.9750 Y9.7995
G01 X-0.9092 Y9.7905
G01 X-0.8426 Y9.7831
G01 X-0.7759 Y9.7774
G01 X-0.7090 Y9.7733
G01 X-0.6420 Y9.7708
G01 X-0.5750 Y9.7700
G01 X-0.5080 Y9.7708
G01 X-0.4411 Y9.7733
G01 X-0.3742 Y9.7774
G01 X-0.3075 Y9.7831
G01 X-0.2409 Y9.7905
G01 X-0.1750 Y9.7995
G01 X-0.1750 Y9.9412
G01 X-0.1950 Y9.9380
G01 X-0.2580 Y9.9295
G01 X-0.3212 Y9.9225
G01 X-0.3845 Y9.9170
G01 X-0.4480 Y9.9131
G01 X-0.5115 Y9.9108
G01 X-0.5750 Y9.9100
G01 X-0.6386 Y9.9108
G01 X-0.7021 Y9.9131
G01 X-0.7656 Y9.9170
G01 X-0.8289 Y9.9225
G01 X-0.8921 Y9.9295
G01 X-0.9551 Y9.9380
G01 X-0.9750 Y9.9412
G01 X-0.9750 Y10.0830
G01 X-0.9345 Y10.0765
G01 X-0.8749 Y10.0684
G01 X-0.8152 Y10.0618
G01 X-0.7553 Y10.0566
G01 X-0.6953 Y10.0530
G01 X-0.6352 Y10.0507
G01 X-0.5750 Y10.0500
G01 X-0.5149 Y10.0507
G01 X-0.4548 Y10.0530
G01 X-0.3948 Y10.0566
G01 X-0.3349 Y10.0618
G01 X-0.2751 Y10.0684
G01 X-0.2155 Y10.0765
G01 X-0.1750 Y10.0830
G01 X-0.1750 Y10.2250
G01 X-0.1801 Y10.2240
G01 X-0.2361 Y10.2150
G01 X-0.2923 Y10.2074
G01 X-0.3486 Y10.2011
G01 X-0.4051 Y10.1963
G01 X-0.4617 Y10.1928
G01 X-0.5183 Y10.1907
G01 X-0.5750 Y10.1900
G01 X-0.6317 Y10.1907
G01 X-0.6884 Y10.1928
G01 X-0.7450 Y10.1963
G01 X-0.8015 Y10.2011
G01 X-0.8578 Y10.2074
G01 X-0.9140 Y10.2150
G01 X-0.9750 Y10.2250
G01 X-0.9750 Y10.3673
G01 X-0.9460 Y10.3619
G01 X-0.8934 Y10.3535
G01 X-0.8407 Y10.3463
G01 X-0.7877 Y10.3404
G01 X-0.7347 Y10.3359
G01 X-0.6815 Y10.3326
G01 X-0.6283 Y10.3307
G01 X-0.5750 Y10.3300
G01 X-0.5218 Y10.3307
G01 X-0.4686 Y10.3326
G01 X-0.4154 Y10.3359
G01 X-0.3623 Y10.3404
G01 X-0.3094 Y10.3463
G01 X-0.2566 Y10.3535
G01 X-0.2041 Y10.3619
G01 X-0.1750 Y10.3673
G01 X-0.1750 Y10.5098
G01 X-0.1790 Y10.5090
G01 X-0.2280 Y10.4999
G01 X-0.2772 Y10.4920
G01 X-0.3265 Y10.4853
G01 X-0.3761 Y10.4798
G01 X-0.4257 Y10.4755
G01 X-0.4754 Y10.4724
G01 X-0.5252 Y10.4706
G01 X-0.5750 Y10.4700
G01 X-0.6249 Y10.4706
G01 X-0.6746 Y10.4724
G01 X-0.7244 Y10.4755
G01 X-0.7740 Y10.4798
G01 X-0.8235 Y10.4853
G01 X-0.8729 Y10.4920
G01 X-0.9221 Y10.4999
G01 X-0.9750 Y10.5098
G01 X-0.9750 Y10.6529
G01 X-0.9438 Y10.6463
G01 X-0.8982 Y10.6378
G01 X-0.8524 Y10.6305
G01 X-0.8064 Y10.6242
G01 X-0.7603 Y10.6191
G01 X-0.7141 Y10.6151
G01 X-0.6678 Y10.6123
G01 X-0.6214 Y10.6106
G01 X-0.5750 Y10.6100
G01 X-0.5287 Y10.6106
G01 X-0.4823 Y10.6123
G01 X-0.4360 Y10.6151
G01 X-0.3898 Y10.6191
G01 X-0.3437 Y10.6242
G01 X-0.2977 Y10.6305
G01 X-0.2519 Y10.6378
G01 X-0.2063 Y10.6463
G01 X-0.1750 Y10.6529
G01 X-0.1750 Y10.7965
G01 X-0.1916 Y10.7925
G01 X-0.2336 Y10.7836
G01 X-0.2759 Y10.7758
G01 X-0.3183 Y10.7689
G01 X-0.3608 Y10.7632
G01 X-0.4035 Y10.7584
G01 X-0.4463 Y10.7547
G01 X-0.4892 Y10.7521
G01 X-0.5321 Y10.7505
G01 X-0.5750 Y10.7500
G01 X-0.6180 Y10.7505
G01 X-0.6609 Y10.7521
G01 X-0.7038 Y10.7547
G01 X-0.7466 Y10.7584
G01 X-0.7893 Y10.7632
G01 X-0.8318 Y10.7689
G01 X-0.8742 Y10.7758
G01 X-0.9164 Y10.7836
G01 X-0.9585 Y10.7925
G01 X-0.9750 Y10.7965
G01 X-0.9750 Y10.9406
G01 X-0.9278 Y10.9291
G01 X-0.8891 Y10.9209
G01 X-0.8503 Y10.9137
G01 X-0.8113 Y10.9074
G01 X-0.7721 Y10.9021
G01 X-0.7328 Y10.8978
G01 X-0.6935 Y10.8944
G01 X-0.6540 Y10.8919
G01 X-0.6145 Y10.8905
G01 X-0.5750 Y10.8900
G01 X-0.5355 Y10.8905
G01 X-0.4960 Y10.8919
G01 X-0.4566 Y10.8944
G01 X-0.4172 Y10.8978
G01 X-0.3780 Y10.9021
G01 X-0.3388 Y10.9074
G01 X-0.2998 Y10.9137
G01 X-0.2609 Y10.9209
G01 X-0.2223 Y10.9291
G01 X-0.1838 Y10.9382
G01 X-0.1750 Y10.9406
G01 X-0.1750 Y11.0855
G01 X-0.1830 Y11.0832
G01 X-0.2179 Y11.0741
G01 X-0.2530 Y11.0657
G01 X-0.2883 Y11.0582
G01 X-0.3237 Y11.0516
G01 X-0.3593 Y11.0459
G01 X-0.3951 Y11.0411
G01 X-0.4310 Y11.0371
G01 X-0.4669 Y11.0340
G01 X-0.5029 Y11.0318
G01 X-0.5390 Y11.0304
G01 X-0.5750 Y11.0300
G01 X-0.6111 Y11.0304
G01 X-0.6472 Y11.0318
G01 X-0.6832 Y11.0340
G01 X-0.7191 Y11.0371
G01 X-0.7550 Y11.0411
G01 X-0.7907 Y11.0459
G01 X-0.8264 Y11.0516
G01 X-0.8618 Y11.0582
G01 X-0.8971 Y11.0657
G01 X-0.9322 Y11.0741
G01 X-0.9750 Y11.0855
G01 X-0.9750 Y11.2317
G01 X-0.9298 Y11.2182
G01 X-0.8982 Y11.2099
G01 X-0.8664 Y11.2023
G01 X-0.8345 Y11.1956
G01 X-0.8024 Y11.1896
G01 X-0.7702 Y11.1844
G01 X-0.7378 Y11.1800
G01 X-0.7054 Y11.1764
G01 X-0.6729 Y11.1736
G01 X-0.6403 Y11.1716
G01 X-0.6077 Y11.1704
G01 X-0.5750 Y11.1700
G01 X-0.5424 Y11.1704
G01 X-0.5098 Y11.1716
G01 X-0.4772 Y11.1736
G01 X-0.4447 Y11.1764
G01 X-0.4122 Y11.1800
G01 X-0.3799 Y11.1844
G01 X-0.3477 Y11.1896
G01 X-0.3156 Y11.1956
G01 X-0.2836 Y11.2023
G01 X-0.2519 Y11.2099
G01 X-0.2203 Y11.2182
G01 X-0.1890 Y11.2273
G01 X-0.1750 Y11.2317
G01 X-0.1750 Y11.3793
G01 X-0.2018 Y11.3701
G01 X-0.2296 Y11.3612
G01 X-0.2576 Y11.3531
G01 X-0.2859 Y11.3457
G01 X-0.3143 Y11.3389
G01 X-0.3429 Y11.3329
G01 X-0.3716 Y11.3275
G01 X-0.4004 Y11.3229
G01 X-0.4294 Y11.3189
G01 X-0.4584 Y11.3157
G01 X-0.4875 Y11.3132
G01 X-0.5166 Y11.3114
G01 X-0.5458 Y11.3104
G01 X-0.5750 Y11.3100
G01 X-0.6042 Y11.3104
G01 X-0.6334 Y11.3114
G01 X-0.6626 Y11.3132
G01 X-0.6917 Y11.3157
G01 X-0.7207 Y11.3189
G01 X-0.7496 Y11.3229
G01 X-0.7785 Y11.3275
G01 X-0.8072 Y11.3329
G01 X-0.8358 Y11.3389
G01 X-0.8642 Y11.3457
G01 X-0.8924 Y11.3531
G01 X-0.9205 Y11.3612
G01 X-0.9483 Y11.3701
G01 X-0.9750 Y11.3793
G01 X-0.9750 Y11.5292
G01 X-0.9529 Y11.5204
G01 X-0.9288 Y11.5114
G01 X-0.9044 Y11.5030
G01 X-0.8798 Y11.4952
G01 X-0.8551 Y11.4880
G01 X-0.8302 Y11.4815
G01 X-0.8051 Y11.4755
G01 X-0.7799 Y11.4702
G01 X-0.7545 Y11.4655
G01 X-0.7291 Y11.4614
G01 X-0.7036 Y11.4579
G01 X-0.6780 Y11.4551
G01 X-0.6523 Y11.4528
G01 X-0.6266 Y11.4513
G01 X-0.6008 Y11.4503
G01 X-0.5750 Y11.4500
G01 X-0.5493 Y11.4503
G01 X-0.5235 Y11.4513
G01 X-0.4978 Y11.4528
G01 X-0.4721 Y11.4551
G01 X-0.4465 Y11.4579
G01 X-0.4210 Y11.4614
G01 X-0.3955 Y11.4655
G01 X-0.3702 Y11.4702
G01 X-0.3450 Y11.4755
G01 X-0.3199 Y11.4815
G01 X-0.2950 Y11.4880
G01 X-0.2702 Y11.4952
G01 X-0.2457 Y11.5030
G01 X-0.2213 Y11.5114
G01 X-0.1971 Y11.5204
G01 X-0.1750 Y11.5292
G01 X-0.1750 Y11.6827
G01 X-0.1860 Y11.6774
G01 X-0.2063 Y11.6681
G01 X-0.2268 Y11.6593
G01 X-0.2475 Y11.6510
G01 X-0.2685 Y11.6432
G01 X-0.2896 Y11.6359
G01 X-0.3109 Y11.6292
G01 X-0.3323 Y11.6230
G01 X-0.3539 Y11.6173
G01 X-0.3757 Y11.6121
G01 X-0.3975 Y11.6075
G01 X-0.4195 Y11.6034
G01 X-0.4415 Y11.5998
G01 X-0.4636 Y11.5968
G01 X-0.4858 Y11.5944
G01 X-0.5081 Y11.5925
G01 X-0.5304 Y11.5911
G01 X-0.5527 Y11.5903
G01 X-0.5750 Y11.5900
G01 X-0.5974 Y11.5903
G01 X-0.6197 Y11.5911
G01 X-0.6420 Y11.5925
G01 X-0.6642 Y11.5944
G01 X-0.6864 Y11.5968
G01 X-0.7086 Y11.5998
G01 X-0.7306 Y11.6034
G01 X-0.7526 Y11.6075
G01 X-0.7744 Y11.6121
G01 X-0.7961 Y11.6173
G01 X-0.8177 Y11.6230
G01 X-0.8392 Y11.6292
G01 X-0.8605 Y11.6359
G01 X-0.8816 Y11.6432
G01 X-0.9025 Y11.6510
G01 X-0.9233 Y11.6593
G01 X-0.9438 Y11.6681
G01 X-0.9750 Y11.6827
G01 X-0.9750 Y11.8421
G01 X-0.9546 Y11.8300
G01 X-0.9380 Y11.8209
G01 X-0.9212 Y11.8122
G01 X-0.8871 Y11.7961
G01 X-0.8522 Y11.7816
G01 X-0.8344 Y11.7750
G01 X-0.8166 Y11.7689
G01 X-0.7804 Y11.7579
G01 X-0.7621 Y11.7531
G01 X-0.7253 Y11.7448
G01 X-0.6880 Y11.7383
G01 X-0.6693 Y11.7358
G01 X-0.6317 Y11.7321
G01 X-0.5939 Y11.7302
G01 X-0.5750 Y11.7300
G01 X-0.5561 Y11.7302
G01 X-0.5184 Y11.7321
G01 X-0.4996 Y11.7337
G01 X-0.4621 Y11.7383
G01 X-0.4434 Y11.7413
G01 X-0.4063 Y11.7487
G01 X-0.3697 Y11.7579
G01 X-0.3515 Y11.7632
G01 X-0.3156 Y11.7750
G01 X-0.2804 Y11.7886
G01 X-0.2630 Y11.7961
G01 X-0.2458 Y11.8039
G01 X-0.2121 Y11.8209
G01 X-0.1955 Y11.8300
G01 X-0.1792 Y11.8395
G01 X-0.1750 Y11.8421
G01 X-0.1750 Y12.0133
G01 X-0.1754 Y12.0130
G01 X-0.1874 Y12.0033
G01 X-0.2123 Y11.9849
G01 X-0.2380 Y11.9677
G01 X-0.2645 Y11.9518
G01 X-0.2918 Y11.9373
G01 X-0.3197 Y11.9240
G01 X-0.3339 Y11.9180
G01 X-0.3628 Y11.9068
G01 X-0.3922 Y11.8971
G01 X-0.4220 Y11.8889
G01 X-0.4370 Y11.8853
G01 X-0.4673 Y11.8793
G01 X-0.4826 Y11.8768
G01 X-0.5133 Y11.8730
G01 X-0.5441 Y11.8708
G01 X-0.5750 Y11.8700
G01 X-0.6060 Y11.8708
G01 X-0.6368 Y11.8730
G01 X-0.6675 Y11.8768
G01 X-0.6827 Y11.8793
G01 X-0.7131 Y11.8853
G01 X-0.7431 Y11.8928
G01 X-0.7579 Y11.8971
G01 X-0.7873 Y11.9068
G01 X-0.8161 Y11.9180
G01 X-0.8303 Y11.9240
G01 X-0.8583 Y11.9373
G01 X-0.8856 Y11.9518
G01 X-0.9121 Y11.9677
G01 X-0.9378 Y11.9849
G01 X-0.9626 Y12.0033
G01 X-0.9750 Y12.0133
G01 X-0.9750 Y12.2170
G01 X-0.9613 Y12.1985
G01 X-0.9538 Y12.1891
G01 X-0.9381 Y12.1709
G01 X-0.9215 Y12.1535
G01 X-0.9041 Y12.1369
G01 X-0.8951 Y12.1290
G01 X-0.8765 Y12.1137
G01 X-0.8669 Y12.1064
G01 X-0.8473 Y12.0926
G01 X-0.8269 Y12.0797
G01 X-0.8060 Y12.0679
G01 X-0.7953 Y12.0623
G01 X-0.7736 Y12.0520
G01 X-0.7514 Y12.0428
G01 X-0.7401 Y12.0386
G01 X-0.7173 Y12.0311
G01 X-0.6941 Y12.0247
G01 X-0.6824 Y12.0219
G01 X-0.6706 Y12.0194
G01 X-0.6469 Y12.0153
G01 X-0.6231 Y12.0124
G01 X-0.5991 Y12.0106
G01 X-0.5750 Y12.0100
G01 X-0.5510 Y12.0106
G01 X-0.5270 Y12.0124
G01 X-0.5151 Y12.0137
G01 X-0.4913 Y12.0172
G01 X-0.4677 Y12.0219
G01 X-0.4560 Y12.0247
G01 X-0.4328 Y12.0311
G01 X-0.4100 Y12.0386
G01 X-0.3875 Y12.0473
G01 X-0.3765 Y12.0520
G01 X-0.3547 Y12.0623
G01 X-0.3335 Y12.0737
G01 X-0.3231 Y12.0797
G01 X-0.3028 Y12.0926
G01 X-0.2929 Y12.0994
G01 X-0.2736 Y12.1137
G01 X-0.2550 Y12.1290
G01 X-0.2460 Y12.1369
G01 X-0.2286 Y12.1535
G01 X-0.2120 Y12.1709
G01 X-0.1963 Y12.1891
G01 X-0.1887 Y12.1985
G01 X-0.1815 Y12.2081
G01 X-0.1750 Y12.2170
G01 X-0.2250 Y12.5000
G01 X-0.2255 Y12.4828
G01 X-0.2267 Y12.4657
G01 X-0.2288 Y12.4486
G01 X-0.2318 Y12.4317
G01 X-0.2355 Y12.4150
G01 X-0.2401 Y12.3984
G01 X-0.2485 Y12.3740
G01 X-0.2586 Y12.3504
G01 X-0.2664 Y12.3350
G01 X-0.2748 Y12.3201
G01 X-0.2840 Y12.3056
G01 X-0.2939 Y12.2915
G01 X-0.3045 Y12.2780
G01 X-0.3157 Y12.2650
G01 X-0.3276 Y12.2525
G01 X-0.3400 Y12.2407
G01 X-0.3530 Y12.2294
G01 X-0.3665 Y12.2189
G01 X-0.3806 Y12.2090
G01 X-0.3951 Y12.1998
G01 X-0.4177 Y12.1874
G01 X-0.4332 Y12.1800
G01 X-0.4491 Y12.1735
G01 X-0.4652 Y12.1677
G01 X-0.4817 Y12.1627
G01 X-0.4984 Y12.1585
G01 X-0.5152 Y12.1552
G01 X-0.5322 Y12.1526
G01 X-0.5493 Y12.1509
G01 X-0.5664 Y12.1501
G01 X-0.5836 Y12.1501
G01 X-0.6093 Y12.1517
G01 X-0.6264 Y12.1538
G01 X-0.6433 Y12.1567
G01 X-0.6601 Y12.1605
G01 X-0.6766 Y12.1651
G01 X-0.6929 Y12.1705
G01 X-0.7090 Y12.1766
G01 X-0.7324 Y12.1874
G01 X-0.7476 Y12.1955
G01 X-0.7623 Y12.2043
G01 X-0.7766 Y12.2138
G01 X-0.7904 Y12.2241
G01 X-0.8101 Y12.2407
G01 X-0.8225 Y12.2525
G01 X-0.8344 Y12.2650
G01 X-0.8456 Y12.2780
G01 X-0.8562 Y12.2915
G01 X-0.8661 Y12.3056
G01 X-0.8752 Y12.3201
G01 X-0.8837 Y12.3350
G01 X-0.8914 Y12.3504
G01 X-0.9016 Y12.3740
G01 X-0.9074 Y12.3902
G01 X-0.9124 Y12.4067
G01 X-0.9165 Y12.4233
G01 X-0.9199 Y12.4402
G01 X-0.9224 Y12.4572
G01 X-0.9246 Y12.4828
G01 X-0.9249 Y12.5086
G01 X-0.9241 Y12.5257
G01 X-0.9212 Y12.5514
G01 X-0.9183 Y12.5683
G01 X-0.9124 Y12.5933
G01 X-0.9074 Y12.6098
G01 X-0.8984 Y12.6339
G01 X-0.8914 Y12.6496
G01 X-0.8837 Y12.6650
G01 X-0.8707 Y12.6872
G01 X-0.8612 Y12.7015
G01 X-0.8456 Y12.7220
G01 X-0.8285 Y12.7413
G01 X-0.8164 Y12.7535
G01 X-0.7971 Y12.7706
G01 X-0.7835 Y12.7811
G01 X-0.7695 Y12.7910
G01 X-0.7476 Y12.8045
G01 X-0.7247 Y12.8164
G01 X-0.7090 Y12.8234
G01 X-0.6848 Y12.8323
G01 X-0.6684 Y12.8373
G01 X-0.6433 Y12.8433
G01 X-0.6264 Y12.8462
G01 X-0.6093 Y12.8483
G01 X-0.5836 Y12.8499
G01 X-0.5579 Y12.8496
G01 X-0.5407 Y12.8483
G01 X-0.5152 Y12.8448
G01 X-0.4984 Y12.8415
G01 X-0.4734 Y12.8349
G01 X-0.4491 Y12.8265
G01 X-0.4254 Y12.8164
G01 X-0.4025 Y12.8045
G01 X-0.3806 Y12.7910
G01 X-0.3665 Y12.7811
G01 X-0.3530 Y12.7706
G01 X-0.3337 Y12.7535
G01 X-0.3157 Y12.7350
G01 X-0.2991 Y12.7153
G01 X-0.2889 Y12.7015
G01 X-0.2840 Y12.6944
G01 X-0.2793 Y12.6872
G01 X-0.2664 Y12.6650
G01 X-0.2551 Y12.6418
G01 X-0.2455 Y12.6179
G01 X-0.2377 Y12.5933
G01 X-0.2335 Y12.5767
G01 X-0.2302 Y12.5598
G01 X-0.2267 Y12.5343
G01 X-0.2255 Y12.5172
G01 X-0.2250 Y12.5000
G01 X-0.3650 Y12.5000
G01 X-0.3653 Y12.4897
G01 X-0.3666 Y12.4743
G01 X-0.3681 Y12.4641
G01 X-0.3701 Y12.4540
G01 X-0.3741 Y12.4390
G01 X-0.3773 Y12.4293
G01 X-0.3831 Y12.4149
G01 X-0.3875 Y12.4056
G01 X-0.3949 Y12.3920
G01 X-0.4004 Y12.3833
G01 X-0.4064 Y12.3749
G01 X-0.4127 Y12.3668
G01 X-0.4194 Y12.3590
G01 X-0.4302 Y12.3479
G01 X-0.4379 Y12.3410
G01 X-0.4499 Y12.3313
G01 X-0.4627 Y12.3226
G01 X-0.4760 Y12.3148
G01 X-0.4899 Y12.3080
G01 X-0.5043 Y12.3023
G01 X-0.5190 Y12.2976
G01 X-0.5290 Y12.2951
G01 X-0.5391 Y12.2931
G01 X-0.5545 Y12.2910
G01 X-0.5699 Y12.2901
G01 X-0.5853 Y12.2903
G01 X-0.5956 Y12.2910
G01 X-0.6059 Y12.2923
G01 X-0.6210 Y12.2951
G01 X-0.6360 Y12.2990
G01 X-0.6506 Y12.3041
G01 X-0.6648 Y12.3102
G01 X-0.6785 Y12.3173
G01 X-0.6917 Y12.3254
G01 X-0.7001 Y12.3313
G01 X-0.7083 Y12.3377
G01 X-0.7198 Y12.3479
G01 X-0.7306 Y12.3590
G01 X-0.7406 Y12.3708
G01 X-0.7496 Y12.3833
G01 X-0.7578 Y12.3965
G01 X-0.7649 Y12.4102
G01 X-0.7710 Y12.4244
G01 X-0.7760 Y12.4390
G01 X-0.7787 Y12.4490
G01 X-0.7810 Y12.4590
G01 X-0.7835 Y12.4743
G01 X-0.7848 Y12.4897
G01 X-0.7850 Y12.5000
G01 X-0.7848 Y12.5103
G01 X-0.7835 Y12.5257
G01 X-0.7810 Y12.5410
G01 X-0.7774 Y12.5560
G01 X-0.7744 Y12.5659
G01 X-0.7710 Y12.5756
G01 X-0.7670 Y12.5851
G01 X-0.7626 Y12.5944
G01 X-0.7552 Y12.6080
G01 X-0.7496 Y12.6167
G01 X-0.7437 Y12.6251
G01 X-0.7374 Y12.6332
G01 X-0.7306 Y12.6410
G01 X-0.7198 Y12.6521
G01 X-0.7083 Y12.6623
G01 X-0.7001 Y12.6687
G01 X-0.6917 Y12.6746
G01 X-0.6830 Y12.6801
G01 X-0.6740 Y12.6852
G01 X-0.6601 Y12.6920
G01 X-0.6506 Y12.6959
G01 X-0.6409 Y12.6994
G01 X-0.6261 Y12.7037
G01 X-0.6160 Y12.7060
G01 X-0.6059 Y12.7077
G01 X-0.5956 Y12.7090
G01 X-0.5853 Y12.7097
G01 X-0.5750 Y12.7100
G01 X-0.5647 Y12.7097
G01 X-0.5493 Y12.7084
G01 X-0.5341 Y12.7060
G01 X-0.5240 Y12.7037
G01 X-0.5141 Y12.7010
G01 X-0.4995 Y12.6959
G01 X-0.4899 Y12.6920
G01 X-0.4806 Y12.6876
G01 X-0.4715 Y12.6827
G01 X-0.4627 Y12.6774
G01 X-0.4541 Y12.6717
G01 X-0.4458 Y12.6656
G01 X-0.4379 Y12.6590
G01 X-0.4302 Y12.6521
G01 X-0.4194 Y12.6410
G01 X-0.4127 Y12.6332
G01 X-0.4064 Y12.6251
G01 X-0.4004 Y12.6167
G01 X-0.3949 Y12.6080
G01 X-0.3898 Y12.5990
G01 X-0.3875 Y12.5944
G01 X-0.3831 Y12.5851
G01 X-0.3791 Y12.5756
G01 X-0.3756 Y12.5659
G01 X-0.3726 Y12.5560
G01 X-0.3701 Y12.5460
G01 X-0.3681 Y12.5359
G01 X-0.3660 Y12.5206
G01 X-0.3653 Y12.5103
G01 X-0.3650 Y12.5000
G01 X-0.5050 Y12.5000
G01 X-0.5054 Y12.4931
G01 X-0.5064 Y12.4863
G01 X-0.5081 Y12.4797
G01 X-0.5104 Y12.4732
G01 X-0.5133 Y12.4670
G01 X-0.5168 Y12.4611
G01 X-0.5209 Y12.4556
G01 X-0.5255 Y12.4505
G01 X-0.5306 Y12.4459
G01 X-0.5361 Y12.4418
G01 X-0.5420 Y12.4383
G01 X-0.5482 Y12.4353
G01 X-0.5547 Y12.4330
G01 X-0.5614 Y12.4313
G01 X-0.5682 Y12.4303
G01 X-0.5750 Y12.4300
G01 X-0.5819 Y12.4303
G01 X-0.5887 Y12.4313
G01 X-0.5954 Y12.4330
G01 X-0.6018 Y12.4353
G01 X-0.6080 Y12.4383
G01 X-0.6139 Y12.4418
G01 X-0.6194 Y12.4459
G01 X-0.6245 Y12.4505
G01 X-0.6291 Y12.4556
G01 X-0.6332 Y12.4611
G01 X-0.6368 Y12.4670
G01 X-0.6397 Y12.4732
G01 X-0.6420 Y12.4797
G01 X-0.6437 Y12.4863
G01 X-0.6447 Y12.4931
G01 X-0.6450 Y12.5000
G01 X-0.6447 Y12.5069
G01 X-0.6437 Y12.5137
G01 X-0.6420 Y12.5203
G01 X-0.6397 Y12.5268
G01 X-0.6368 Y12.5330
G01 X-0.6332 Y12.5389
G01 X-0.6291 Y12.5444
G01 X-0.6245 Y12.5495
G01 X-0.6194 Y12.5541
G01 X-0.6139 Y12.5582
G01 X-0.6080 Y12.5617
G01 X-0.6018 Y12.5647
G01 X-0.5954 Y12.5670
G01 X-0.5887 Y12.5687
G01 X-0.5819 Y12.5697
G01 X-0.5750 Y12.5700
G01 X-0.5682 Y12.5697
G01 X-0.5614 Y12.5687
G01 X-0.5547 Y12.5670
G01 X-0.5482 Y12.5647
G01 X-0.5420 Y12.5617
G01 X-0.5361 Y12.5582
G01 X-0.5306 Y12.5541
G01 X-0.5255 Y12.5495
G01 X-0.5209 Y12.5444
G01 X-0.5168 Y12.5389
G01 X-0.5133 Y12.5330
G01 X-0.5104 Y12.5268
G01 X-0.5081 Y12.5203
G01 X-0.5064 Y12.5137
G01 X-0.5054 Y12.5069
G01 X-0.5050 Y12.5000
G01 X-0.1750 Y12.7830
G01 X-0.1815 Y12.7919
G01 X-0.1887 Y12.8015
G01 X-0.2040 Y12.8201
G01 X-0.2202 Y12.8379
G01 X-0.2286 Y12.8465
G01 X-0.2460 Y12.8631
G01 X-0.2550 Y12.8710
G01 X-0.2736 Y12.8863
G01 X-0.2929 Y12.9006
G01 X-0.3129 Y12.9140
G01 X-0.3335 Y12.9263
G01 X-0.3547 Y12.9377
G01 X-0.3765 Y12.9480
G01 X-0.3987 Y12.9572
G01 X-0.4213 Y12.9653
G01 X-0.4443 Y12.9723
G01 X-0.4677 Y12.9781
G01 X-0.4913 Y12.9828
G01 X-0.5151 Y12.9863
G01 X-0.5390 Y12.9887
G01 X-0.5630 Y12.9899
G01 X-0.5871 Y12.9899
G01 X-0.6111 Y12.9887
G01 X-0.6350 Y12.9863
G01 X-0.6588 Y12.9828
G01 X-0.6824 Y12.9781
G01 X-0.7057 Y12.9723
G01 X-0.7287 Y12.9653
G01 X-0.7514 Y12.9572
G01 X-0.7736 Y12.9480
G01 X-0.7953 Y12.9377
G01 X-0.8166 Y12.9263
G01 X-0.8372 Y12.9140
G01 X-0.8572 Y12.9006
G01 X-0.8765 Y12.8863
G01 X-0.8951 Y12.8710
G01 X-0.9129 Y12.8549
G01 X-0.9299 Y12.8379
G01 X-0.9461 Y12.8201
G01 X-0.9613 Y12.8015
G01 X-0.9750 Y12.7830
G01 X-0.9750 Y12.9867
G01 X-0.9503 Y13.0060
G01 X-0.9250 Y13.0238
G01 X-0.8989 Y13.0404
G01 X-0.8720 Y13.0556
G01 X-0.8583 Y13.0627
G01 X-0.8303 Y13.0760
G01 X-0.8161 Y13.0820
G01 X-0.7873 Y13.0932
G01 X-0.7579 Y13.1029
G01 X-0.7281 Y13.1111
G01 X-0.6979 Y13.1179
G01 X-0.6675 Y13.1232
G01 X-0.6522 Y13.1253
G01 X-0.6214 Y13.1283
G01 X-0.6060 Y13.1292
G01 X-0.5750 Y13.1300
G01 X-0.5441 Y13.1292
G01 X-0.5287 Y13.1283
G01 X-0.4979 Y13.1253
G01 X-0.4673 Y13.1207
G01 X-0.4370 Y13.1147
G01 X-0.4070 Y13.1072
G01 X-0.3774 Y13.0982
G01 X-0.3628 Y13.0932
G01 X-0.3339 Y13.0820
G01 X-0.3057 Y13.0695
G01 X-0.2918 Y13.0627
G01 X-0.2645 Y13.0482
G01 X-0.2512 Y13.0404
G01 X-0.2250 Y13.0238
G01 X-0.1997 Y13.0060
G01 X-0.1874 Y12.9967
G01 X-0.1754 Y12.9870
G01 X-0.1750 Y12.9867
G01 X-0.1750 Y13.1579
G01 X-0.1792 Y13.1605
G01 X-0.1955 Y13.1700
G01 X-0.2288 Y13.1878
G01 X-0.2458 Y13.1961
G01 X-0.2804 Y13.2114
G01 X-0.3156 Y13.2250
G01 X-0.3335 Y13.2311
G01 X-0.3697 Y13.2421
G01 X-0.4063 Y13.2513
G01 X-0.4434 Y13.2587
G01 X-0.4808 Y13.2642
G01 X-0.5184 Y13.2679
G01 X-0.5561 Y13.2698
G01 X-0.5939 Y13.2698
G01 X-0.6317 Y13.2679
G01 X-0.6693 Y13.2642
G01 X-0.7067 Y13.2587
G01 X-0.7437 Y13.2513
G01 X-0.7804 Y13.2421
G01 X-0.8166 Y13.2311
G01 X-0.8522 Y13.2184
G01 X-0.8871 Y13.2039
G01 X-0.9212 Y13.1878
G01 X-0.9546 Y13.1700
G01 X-0.9750 Y13.1579
G01 X-0.9750 Y13.3173
G01 X-0.9438 Y13.3319
G01 X-0.9233 Y13.3407
G01 X-0.9025 Y13.3490
G01 X-0.8816 Y13.3568
G01 X-0.8605 Y13.3641
G01 X-0.8392 Y13.3708
G01 X-0.8177 Y13.3770
G01 X-0.7961 Y13.3827
G01 X-0.7744 Y13.3879
G01 X-0.7526 Y13.3925
G01 X-0.7306 Y13.3966
G01 X-0.7086 Y13.4002
G01 X-0.6864 Y13.4032
G01 X-0.6642 Y13.4056
G01 X-0.6420 Y13.4075
G01 X-0.6197 Y13.4089
G01 X-0.5974 Y13.4097
G01 X-0.5750 Y13.4100
G01 X-0.5527 Y13.4097
G01 X-0.5304 Y13.4089
G01 X-0.5081 Y13.4075
G01 X-0.4858 Y13.4056
G01 X-0.4636 Y13.4032
G01 X-0.4415 Y13.4002
G01 X-0.4195 Y13.3966
G01 X-0.3975 Y13.3925
G01 X-0.3757 Y13.3879
G01 X-0.3539 Y13.3827
G01 X-0.3323 Y13.3770
G01 X-0.3109 Y13.3708
G01 X-0.2896 Y13.3641
G01 X-0.2685 Y13.3568
G01 X-0.2475 Y13.3490
G01 X-0.2268 Y13.3407
G01 X-0.2063 Y13.3319
G01 X-0.1860 Y13.3226
G01 X-0.1750 Y13.3173
G01 X-0.1750 Y13.4708
G01 X-0.1971 Y13.4796
G01 X-0.2213 Y13.4886
G01 X-0.2457 Y13.4970
G01 X-0.2702 Y13.5048
G01 X-0.2950 Y13.5120
G01 X-0.3199 Y13.5185
G01 X-0.3450 Y13.5245
G01 X-0.3702 Y13.5298
G01 X-0.3955 Y13.5345
G01 X-0.4210 Y13.5386
G01 X-0.4465 Y13.5421
G01 X-0.4721 Y13.5449
G01 X-0.4978 Y13.5472
G01 X-0.5235 Y13.5487
G01 X-0.5493 Y13.5497
G01 X-0.5750 Y13.5500
G01 X-0.6008 Y13.5497
G01 X-0.6266 Y13.5487
G01 X-0.6523 Y13.5472
G01 X-0.6780 Y13.5449
G01 X-0.7036 Y13.5421
G01 X-0.7291 Y13.5386
G01 X-0.7545 Y13.5345
G01 X-0.7799 Y13.5298
G01 X-0.8051 Y13.5245
G01 X-0.8302 Y13.5185
G01 X-0.8551 Y13.5120
G01 X-0.8798 Y13.5048
G01 X-0.9044 Y13.4970
G01 X-0.9288 Y13.4886
G01 X-0.9529 Y13.4796
G01 X-0.9750 Y13.4708
G01 X-0.9750 Y13.6207
G01 X-0.9483 Y13.6299
G01 X-0.9205 Y13.6388
G01 X-0.8924 Y13.6469
G01 X-0.8642 Y13.6543
G01 X-0.8358 Y13.6611
G01 X-0.8072 Y13.6671
G01 X-0.7785 Y13.6725
G01 X-0.7496 Y13.6771
G01 X-0.7207 Y13.6811
G01 X-0.6917 Y13.6843
G01 X-0.6626 Y13.6868
G01 X-0.6334 Y13.6886
G01 X-0.6042 Y13.6896
G01 X-0.5750 Y13.6900
G01 X-0.5458 Y13.6896
G01 X-0.5166 Y13.6886
G01 X-0.4875 Y13.6868
G01 X-0.4584 Y13.6843
G01 X-0.4294 Y13.6811
G01 X-0.4004 Y13.6771
G01 X-0.3716 Y13.6725
G01 X-0.3429 Y13.6671
G01 X-0.3143 Y13.6611
G01 X-0.2859 Y13.6543
G01 X-0.2576 Y13.6469
G01 X-0.2296 Y13.6388
G01 X-0.2018 Y13.6299
G01 X-0.1750 Y13.6207
G01 X-0.1750 Y13.7683
G01 X-0.1890 Y13.7727
G01 X-0.2203 Y13.7818
G01 X-0.2519 Y13.7901
G01 X-0.2836 Y13.7977
G01 X-0.3156 Y13.8044
G01 X-0.3477 Y13.8104
G01 X-0.3799 Y13.8156
G01 X-0.4122 Y13.8200
G01 X-0.4447 Y13.8236
G01 X-0.4772 Y13.8264
G01 X-0.5098 Y13.8284
G01 X-0.5424 Y13.8296
G01 X-0.5750 Y13.8300
G01 X-0.6077 Y13.8296
G01 X-0.6403 Y13.8284
G01 X-0.6729 Y13.8264
G01 X-0.7054 Y13.8236
G01 X-0.7378 Y13.8200
G01 X-0.7702 Y13.8156
G01 X-0.8024 Y13.8104
G01 X-0.8345 Y13.8044
G01 X-0.8664 Y13.7977
G01 X-0.8982 Y13.7901
G01 X-0.9298 Y13.7818
G01 X-0.9750 Y13.7683
G01 X-0.9750 Y13.9145
G01 X-0.9322 Y13.9259
G01 X-0.8971 Y13.9343
G01 X-0.8618 Y13.9418
G01 X-0.8264 Y13.9484
G01 X-0.7907 Y13.9541
G01 X-0.7550 Y13.9589
G01 X-0.7191 Y13.9629
G01 X-0.6832 Y13.9660
G01 X-0.6472 Y13.9682
G01 X-0.6111 Y13.9696
G01 X-0.5750 Y13.9700
G01 X-0.5390 Y13.9696
G01 X-0.5029 Y13.9682
G01 X-0.4669 Y13.9660
G01 X-0.4310 Y13.9629
G01 X-0.3951 Y13.9589
G01 X-0.3593 Y13.9541
G01 X-0.3237 Y13.9484
G01 X-0.2883 Y13.9418
G01 X-0.2530 Y13.9343
G01 X-0.2179 Y13.9259
G01 X-0.1830 Y13.9168
G01 X-0.1750 Y13.9145
G01 X-0.1750 Y14.0594
G01 X-0.1838 Y14.0618
G01 X-0.2223 Y14.0709
G01 X-0.2609 Y14.0791
G01 X-0.2998 Y14.0863
G01 X-0.3388 Y14.0926
G01 X-0.3780 Y14.0979
G01 X-0.4172 Y14.1022
G01 X-0.4566 Y14.1056
G01 X-0.4960 Y14.1081
G01 X-0.5355 Y14.1095
G01 X-0.5750 Y14.1100
G01 X-0.6145 Y14.1095
G01 X-0.6540 Y14.1081
G01 X-0.6935 Y14.1056
G01 X-0.7328 Y14.1022
G01 X-0.7721 Y14.0979
G01 X-0.8113 Y14.0926
G01 X-0.8503 Y14.0863
G01 X-0.8891 Y14.0791
G01 X-0.9278 Y14.0709
G01 X-0.9750 Y14.0594
G01 X-0.9750 Y14.2035
G01 X-0.9585 Y14.2075
G01 X-0.9164 Y14.2164
G01 X-0.8742 Y14.2242
G01 X-0.8318 Y14.2311
G01 X-0.7893 Y14.2368
G01 X-0.7466 Y14.2416
G01 X-0.7038 Y14.2453
G01 X-0.6609 Y14.2479
G01 X-0.6180 Y14.2495
G01 X-0.5750 Y14.2500
G01 X-0.5321 Y14.2495
G01 X-0.4892 Y14.2479
G01 X-0.4463 Y14.2453
G01 X-0.4035 Y14.2416
G01 X-0.3608 Y14.2368
G01 X-0.3183 Y14.2311
G01 X-0.2759 Y14.2242
G01 X-0.2336 Y14.2164
G01 X-0.1916 Y14.2075
G01 X-0.1750 Y14.2035
G01 X-0.1750 Y14.3471
G01 X-0.2063 Y14.3537
G01 X-0.2519 Y14.3622
G01 X-0.2977 Y14.3695
G01 X-0.3437 Y14.3758
G01 X-0.3898 Y14.3809
G01 X-0.4360 Y14.3849
G01 X-0.4823 Y14.3877
G01 X-0.5287 Y14.3894
G01 X-0.5750 Y14.3900
G01 X-0.6214 Y14.3894
G01 X-0.6678 Y14.3877
G01 X-0.7141 Y14.3849
G01 X-0.7603 Y14.3809
G01 X-0.8064 Y14.3758
G01 X-0.8524 Y14.3695
G01 X-0.8982 Y14.3622
G01 X-0.9438 Y14.3537
G01 X-0.9750 Y14.3471
G01 X-0.9750 Y14.4902
G01 X-0.9221 Y14.5001
G01 X-0.8729 Y14.5080
G01 X-0.8235 Y14.5147
G01 X-0.7740 Y14.5202
G01 X-0.7244 Y14.5245
G01 X-0.6746 Y14.5276
G01 X-0.6249 Y14.5294
G01 X-0.5750 Y14.5300
G01 X-0.5252 Y14.5294
G01 X-0.4754 Y14.5276
G01 X-0.4257 Y14.5245
G01 X-0.3761 Y14.5202
G01 X-0.3265 Y14.5147
G01 X-0.2772 Y14.5080
G01 X-0.2280 Y14.5001
G01 X-0.1790 Y14.4910
G01 X-0.1750 Y14.4902
G01 X-0.1750 Y14.6327
G01 X-0.2041 Y14.6381
G01 X-0.2566 Y14.6465
G01 X-0.3094 Y14.6537
G01 X-0.3623 Y14.6596
G01 X-0.4154 Y14.6641
G01 X-0.4686 Y14.6674
G01 X-0.5218 Y14.6693
G01 X-0.5750 Y14.6700
G01 X-0.6283 Y14.6693
G01 X-0.6815 Y14.6674
G01 X-0.7347 Y14.6641
G01 X-0.7877 Y14.6596
G01 X-0.8407 Y14.6537
G01 X-0.8934 Y14.6465
G01 X-0.9460 Y14.6381
G01 X-0.9750 Y14.6327
G01 X-0.9750 Y14.7750
G01 X-0.9700 Y14.7760
G01 X-0.9140 Y14.7850
G01 X-0.8578 Y14.7926
G01 X-0.8015 Y14.7989
G01 X-0.7450 Y14.8037
G01 X-0.6884 Y14.8072
G01 X-0.6317 Y14.8093
G01 X-0.5750 Y14.8100
G01 X-0.5183 Y14.8093
G01 X-0.4617 Y14.8072
G01 X-0.4051 Y14.8037
G01 X-0.3486 Y14.7989
G01 X-0.2923 Y14.7926
G01 X-0.2361 Y14.7850
G01 X-0.1801 Y14.7760
G01 X-0.1750 Y14.7750
G01 X-0.1750 Y14.9170
G01 X-0.2155 Y14.9235
G01 X-0.2751 Y14.9316
G01 X-0.3349 Y14.9382
G01 X-0.3948 Y14.9434
G01 X-0.4548 Y14.9470
G01 X-0.5149 Y14.9493
G01 X-0.5750 Y14.9500
G01 X-0.6352 Y14.9493
G01 X-0.6953 Y14.9470
G01 X-0.7553 Y14.9434
G01 X-0.8152 Y14.9382
G01 X-0.8749 Y14.9316
G01 X-0.9345 Y14.9235
G01 X-0.9750 Y14.9170
G01 X-0.9750 Y15.0588
G01 X-0.9551 Y15.0620
G01 X-0.8921 Y15.0705
G01 X-0.8289 Y15.0775
G01 X-0.7656 Y15.0830
G01 X-0.7021 Y15.0869
G01 X-0.6386 Y15.0892
G01 X-0.5750 Y15.0900
G01 X-0.5115 Y15.0892
G01 X-0.4480 Y15.0869
G01 X-0.3845 Y15.0830
G01 X-0.3212 Y15.0775
G01 X-0.2580 Y15.0705
G01 X-0.1950 Y15.0620
G01 X-0.1750 Y15.0588
G01 X-0.1750 Y15.2005
G01 X-0.2409 Y15.2095
G01 X-0.3075 Y15.2169
G01 X-0.3742 Y15.2226
G01 X-0.4411 Y15.2267
G01 X-0.5080 Y15.2292
G01 X-0.5750 Y15.2300
G01 X-0.6420 Y15.2292
G01 X-0.7090 Y15.2267
G01 X-0.7759 Y15.2226
G01 X-0.8426 Y15.2169
G01 X-0.9092 Y15.2095
G01 X-0.9750 Y15.2005
G01 X-0.9750 Y15.3418
G01 X-0.9264 Y15.3484
G01 X-0.8563 Y15.3562
G01 X-0.7862 Y15.3622
G01 X-0.7159 Y15.3665
G01 X-0.6455 Y15.3691
G01 X-0.5750 Y15.3700
G01 X-0.5046 Y15.3691
G01 X-0.4342 Y15.3665
G01 X-0.3639 Y15.3622
G01 X-0.2937 Y15.3562
G01 X-0.2237 Y15.3484
G01 X-0.1750 Y15.3418
G01 X-0.1750 Y15.4831
G01 X-0.2066 Y15.4874
G01 X-0.2800 Y15.4955
G01 X-0.3536 Y15.5018
G01 X-0.4273 Y15.5064
G01 X-0.5012 Y15.5091
G01 X-0.5750 Y15.5100
G01 X-0.6489 Y15.5091
G01 X-0.7227 Y15.5064
G01 X-0.7965 Y15.5018
G01 X-0.8701 Y15.4955
G01 X-0.9435 Y15.4874
G01 X-0.9750 Y15.4831
G01 X-0.9750 Y15.6244
G01 X-0.9606 Y15.6263
G01 X-0.8838 Y15.6348
G01 X-0.8068 Y15.6415
G01 X-0.7296 Y15.6462
G01 X-0.6523 Y15.6491
G01 X-0.5750 Y15.6500
G01 X-0.4977 Y15.6491
G01 X-0.4205 Y15.6462
G01 X-0.3433 Y15.6415
G01 X-0.2663 Y15.6348
G01 X-0.1894 Y15.6263
G01 X-0.1750 Y15.6244
G01 X-0.1750 Y15.7656
G01 X-0.2526 Y15.7742
G01 X-0.3330 Y15.7811
G01 X-0.4136 Y15.7860
G01 X-0.4943 Y15.7890
G01 X-0.5750 Y15.7900
G01 X-0.6558 Y15.7890
G01 X-0.7365 Y15.7860
G01 X-0.8171 Y15.7811
G01 X-0.8975 Y15.7742
G01 X-0.9750 Y15.7656
G01 X-0.9750 Y15.9064
G01 X-0.9112 Y15.9135
G01 X-0.8274 Y15.9207
G01 X-0.7433 Y15.9259
G01 X-0.6592 Y15.9290
G01 X-0.5750 Y15.9300
G01 X-0.4909 Y15.9290
G01 X-0.4067 Y15.9259
G01 X-0.3227 Y15.9207
G01 X-0.2388 Y15.9135
G01 X-0.1750 Y15.9064
G01 X-0.1750 Y16.0473
G01 X-0.2251 Y16.0528
G01 X-0.3124 Y16.0603
G01 X-0.3999 Y16.0657
G01 X-0.4874 Y16.0689
G01 X-0.5750 Y16.0700
G01 X-0.6626 Y16.0689
G01 X-0.7502 Y16.0657
G01 X-0.8377 Y16.0603
G01 X-0.9250 Y16.0528
G01 X-0.9750 Y16.0473
G01 X-0.9750 Y16.1881
G01 X-0.9387 Y16.1921
G01 X-0.8480 Y16.1999
G01 X-0.7571 Y16.2055
G01 X-0.6661 Y16.2089
G01 X-0.5750 Y16.2100
G01 X-0.4840 Y16.2089
G01 X-0.3930 Y16.2055
G01 X-0.3021 Y16.1999
G01 X-0.2114 Y16.1921
G01 X-0.1750 Y16.1881
G01 X-0.1750 Y16.3290
G01 X-0.1977 Y16.3315
G01 X-0.2918 Y16.3396
G01 X-0.3861 Y16.3454
G01 X-0.4806 Y16.3488
G01 X-0.5750 Y16.3500
G01 X-0.6695 Y16.3488
G01 X-0.7639 Y16.3454
G01 X-0.8583 Y16.3396
G01 X-0.9524 Y16.3315
G01 X-0.9750 Y16.3290
G01 X-0.9750 Y16.4698
G01 X-0.8686 Y16.4792
G01 X-0.7708 Y16.4852
G01 X-0.6730 Y16.4888
G01 X-0.5750 Y16.4900
G01 X-0.4771 Y16.4888
G01 X-0.3793 Y16.4852
G01 X-0.2815 Y16.4792
G01 X-0.1839 Y16.4708
G01 X-0.1750 Y16.4698
G01 X-0.1750 Y16.6105
G01 X-0.2712 Y16.6188
G01 X-0.3724 Y16.6250
G01 X-0.4737 Y16.6288
G01 X-0.5750 Y16.6300
G01 X-0.6764 Y16.6288
G01 X-0.7777 Y16.6250
G01 X-0.8789 Y16.6188
G01 X-0.9750 Y16.6105
G01 X-0.9750 Y16.7510
G01 X-0.8892 Y16.7584
G01 X-0.7846 Y16.7649
G01 X-0.6798 Y16.7687
G01 X-0.5750 Y16.7700
G01 X-0.4702 Y16.7687
G01 X-0.3655 Y16.7649
G01 X-0.2609 Y16.7584
G01 X-0.1750 Y16.7510
G01 X-0.1750 Y16.8915
G01 X-0.2506 Y16.8981
G01 X-0.3586 Y16.9047
G01 X-0.4668 Y16.9087
G01 X-0.5750 Y16.9100
G01 X-0.6833 Y16.9087
G01 X-0.7914 Y16.9047
G01 X-0.8995 Y16.8981
G01 X-0.9750 Y16.8915
G01 X-0.9750 Y17.0320
G01 X-0.9098 Y17.0377
G01 X-0.7983 Y17.0445
G01 X-0.6867 Y17.0486
G01 X-0.5750 Y17.0500
G01 X-0.4634 Y17.0486
G01 X-0.3518 Y17.0445
G01 X-0.2403 Y17.0377
G01 X-0.1750 Y17.0320
G01 X-0.1750 Y17.1726
G01 X-0.2300 Y17.1773
G01 X-0.3449 Y17.1844
G01 X-0.4599 Y17.1886
G01 X-0.5750 Y17.1900
G01 X-0.6901 Y17.1886
G01 X-0.8052 Y17.1844
G01 X-0.9201 Y17.1773
G01 X-0.9750 Y17.1726
G01 X-0.9750 Y17.3131
G01 X-0.9304 Y17.3169
G01 X-0.8120 Y17.3242
G01 X-0.6936 Y17.3285
G01 X-0.5750 Y17.3300
G01 X-0.4565 Y17.3285
G01 X-0.3380 Y17.3242
G01 X-0.2197 Y17.3169
G01 X-0.1750 Y17.3131
G01 X-0.1750 Y17.4536
G01 X-0.2094 Y17.4565
G01 X-0.3312 Y17.4640
G01 X-0.4531 Y17.4685
G01 X-0.5750 Y17.4700
G01 X-0.6970 Y17.4685
G01 X-0.8189 Y17.4640
G01 X-0.9407 Y17.4565
G01 X-0.9750 Y17.4536
G01 X-0.9750 Y17.5941
G01 X-0.9510 Y17.5962
G01 X-0.8258 Y17.6038
G01 X-0.7004 Y17.6085
G01 X-0.5750 Y17.6100
G01 X-0.4496 Y17.6085
G01 X-0.3243 Y17.6038
G01 X-0.1991 Y17.5962
G01 X-0.1750 Y17.5941
G01 X-0.1750 Y17.7346
G01 X-0.1888 Y17.7358
G01 X-0.3174 Y17.7437
G01 X-0.4462 Y17.7484
G01 X-0.5750 Y17.7500
G01 X-0.7039 Y17.7484
G01 X-0.8326 Y17.7437
G01 X-0.9613 Y17.7358
G01 X-0.9750 Y17.7346
G01 X-0.9750 Y17.8751
G01 X-0.8395 Y17.8835
G01 X-0.7073 Y17.8884
G01 X-0.5750 Y17.8900
G01 X-0.4428 Y17.8884
G01 X-0.3106 Y17.8835
G01 X-0.1785 Y17.8754
G01 X-0.1750 Y17.8751
G01 X-0.1750 Y18.0154
G01 X-0.3037 Y18.0233
G01 X-0.4393 Y18.0283
G01 X-0.5750 Y18.0300
G01 X-0.7108 Y18.0283
G01 X-0.8464 Y18.0233
G01 X-0.9750 Y18.0154
G01 X-0.9750 Y18.1557
G01 X-0.8533 Y18.1632
G01 X-0.7142 Y18.1683
G01 X-0.5750 Y18.1700
G01 X-0.4359 Y18.1683
G01 X-0.2968 Y18.1632
G01 X-0.1750 Y18.1557
G01 X-0.1750 Y18.2959
G01 X-0.2900 Y18.3030
G01 X-0.4325 Y18.3083
G01 X-0.5750 Y18.3100
G01 X-0.7176 Y18.3083
G01 X-0.8601 Y18.3030
G01 X-0.9750 Y18.2959
G01 X-0.9750 Y18.4362
G01 X-0.8670 Y18.4428
G01 X-0.7211 Y18.4482
G01 X-0.5750 Y18.4500
G01 X-0.4290 Y18.4482
G01 X-0.2831 Y18.4428
G01 X-0.1750 Y18.4362
G01 X-0.1750 Y18.5764
G01 X-0.2762 Y18.5827
G01 X-0.4256 Y18.5882
G01 X-0.5750 Y18.5900
G01 X-0.7245 Y18.5882
G01 X-0.8739 Y18.5827
G01 X-0.9750 Y18.5764
G01 X-0.9750 Y18.7167
G01 X-0.8807 Y18.7225
G01 X-0.7279 Y18.7281
G01 X-0.5750 Y18.7300
G01 X-0.4221 Y18.7281
G01 X-0.2693 Y18.7225
G01 X-0.1750 Y18.7167
G01 X-0.1750 Y18.8570
G01 X-0.2625 Y18.8623
G01 X-0.4187 Y18.8681
G01 X-0.5750 Y18.8700
G01 X-0.7314 Y18.8681
G01 X-0.8876 Y18.8623
G01 X-0.9750 Y18.8570
G01 X-0.9750 Y18.9972
G01 X-0.8945 Y19.0022
G01 X-0.7348 Y19.0080
G01 X-0.5750 Y19.0100
G01 X-0.4153 Y19.0080
G01 X-0.2556 Y19.0022
G01 X-0.1750 Y18.9972
G01 X-0.1750 Y19.1375
G01 X-0.2487 Y19.1420
G01 X-0.4118 Y19.1480
G01 X-0.5750 Y19.1500
G01 X-0.7382 Y19.1480
G01 X-0.9013 Y19.1420
G01 X-0.9750 Y19.1375
G01 X-0.9750 Y19.2777
G01 X-0.9082 Y19.2818
G01 X-0.7417 Y19.2880
G01 X-0.5750 Y19.2900
G01 X-0.4084 Y19.2880
G01 X-0.2419 Y19.2818
G01 X-0.1750 Y19.2777
G01 X-0.1750 Y19.4180
G01 X-0.2350 Y19.4217
G01 X-0.4050 Y19.4279
G01 X-0.5750 Y19.4300
G01 X-0.7451 Y19.4279
G01 X-0.9151 Y19.4217
G01 X-0.9750 Y19.4180
G01 X-0.9750 Y19.5582
G01 X-0.9219 Y19.5615
G01 X-0.7485 Y19.5679
G01 X-0.5750 Y19.5700
G01 X-0.4015 Y19.5679
G01 X-0.2281 Y19.5615
G01 X-0.1750 Y19.5582
G01 X-0.1750 Y19.6985
G01 X-0.2213 Y19.7013
G01 X-0.3981 Y19.7078
G01 X-0.5750 Y19.7100
G01 X-0.7520 Y19.7078
G01 X-0.9288 Y19.7013
G01 X-0.9750 Y19.6985
G01 X-0.9750 Y19.8387
G01 X-0.9357 Y19.8411
G01 X-0.7554 Y19.8478
G01 X-0.5750 Y19.8500
G01 X-0.3947 Y19.8478
G01 X-0.2144 Y19.8411
G01 X-0.1750 Y19.8387
G01 X-0.1750 Y19.9790
G01 X-0.2075 Y19.9810
G01 X-0.3912 Y19.9877
G01 X-0.5750 Y19.9900
G01 X-0.7589 Y19.9877
G01 X-0.9426 Y19.9810
G01 X-0.9750 Y19.9790
G01 X-0.9750 Y20.1192
G01 X-0.9494 Y20.1208
G01 X-0.7623 Y20.1277
G01 X-0.5750 Y20.1300
G01 X-0.3878 Y20.1277
G01 X-0.2007 Y20.1208
G01 X-0.1750 Y20.1192
G01 X-0.1750 Y20.2595
G01 X-0.1938 Y20.2606
G01 X-0.3844 Y20.2677
G01 X-0.5750 Y20.2700
G01 X-0.7657 Y20.2677
G01 X-0.9563 Y20.2606
G01 X-0.9750 Y20.2595
G01 X-0.9750 Y20.3997
G01 X-0.9632 Y20.4005
G01 X-0.7692 Y20.4076
G01 X-0.5750 Y20.4100
G01 X-0.3809 Y20.4076
G01 X-0.1869 Y20.4005
G01 X-0.1750 Y20.3997
G01 X-0.1750 Y20.5400
G01 X-0.1800 Y20.5403
G01 X-0.3775 Y20.5476
G01 X-0.5750 Y20.5500
G01 X-0.7726 Y20.5476
G01 X-0.9750 Y20.5400
G01 X-0.9750 Y20.6802
G01 X-0.7760 Y20.6875
G01 X-0.5750 Y20.6900
G01 X-0.3740 Y20.6875
G01 X-0.1750 Y20.6802
G01 X-0.1750 Y20.8203
G01 X-0.3706 Y20.8275
G01 X-0.5750 Y20.8300
G01 X-0.7795 Y20.8275
G01 X-0.9750 Y20.8203
G01 X-0.9750 Y20.9604
G01 X-0.7829 Y20.9674
G01 X-0.5750 Y20.9700
G01 X-0.3672 Y20.9674
G01 X-0.1750 Y20.9604
G01 X-0.1750 Y21.1005
G01 X-0.3637 Y21.1074
G01 X-0.5750 Y21.1100
G01 X-0.7863 Y21.1074
G01 X-0.9750 Y21.1005
G01 X-0.9750 Y21.2405
G01 X-0.7898 Y21.2474
G01 X-0.5750 Y21.2500
G01 X-0.3603 Y21.2474
G01 X-0.1750 Y21.2405
G01 X-0.1750 Y21.3806
G01 X-0.3569 Y21.3873
G01 X-0.5750 Y21.3900
G01 X-0.7932 Y21.3873
G01 X-0.9750 Y21.3806
G01 X-0.9750 Y21.5207
G01 X-0.7966 Y21.5273
G01 X-0.5750 Y21.5300
G01 X-0.3534 Y21.5273
G01 X-0.1750 Y21.5207
G01 X-0.1750 Y21.6608
G01 X-0.3500 Y21.6672
G01 X-0.5750 Y21.6700
G01 X-0.8001 Y21.6672
G01 X-0.9750 Y21.6608
G01 X-0.9750 Y21.8009
G01 X-0.8035 Y21.8072
G01 X-0.5750 Y21.8100
G01 X-0.3466 Y21.8072
G01 X-0.1750 Y21.8009
G01 X-0.1750 Y21.9410
G01 X-0.3431 Y21.9472
G01 X-0.5750 Y21.9500
G01 X-0.8070 Y21.9472
G01 X-0.9750 Y21.9410
G01 X-0.9750 Y22.0810
G01 X-0.8104 Y22.0871
G01 X-0.5750 Y22.0900
G01 X-0.3397 Y22.0871
G01 X-0.1750 Y22.0810
G01 X-0.1750 Y22.2211
G01 X-0.3363 Y22.2271
G01 X-0.5750 Y22.2300
G01 X-0.8138 Y22.2271
G01 X-0.9750 Y22.2211
G01 X-0.9750 Y22.3612
G01 X-0.8173 Y22.3670
G01 X-0.5750 Y22.3700
G01 X-0.3328 Y22.3670
G01 X-0.1750 Y22.3612
G01 X-0.1750 Y22.5013
G01 X-0.3294 Y22.5070
G01 X-0.5750 Y22.5100
G01 X-0.8207 Y22.5070
G01 X-0.9750 Y22.5013
G01 X-0.9750 Y22.6414
G01 X-0.8241 Y22.6469
G01 X-0.5750 Y22.6500
G01 X-0.3259 Y22.6469
G01 X-0.1750 Y22.6414
G01 X-0.1750 Y22.7815
G01 X-0.3225 Y22.7869
G01 X-0.5750 Y22.7900
G01 X-0.8276 Y22.7869
G01 X-0.9750 Y22.7815
G01 X-0.9750 Y22.9216
G01 X-0.8310 Y22.9269
G01 X-0.5750 Y22.9300
G01 X-0.3191 Y22.9269
G01 X-0.1750 Y22.9216
G01 X-0.1750 Y23.0616
G01 X-0.3156 Y23.0668
G01 X-0.5750 Y23.0700
G01 X-0.8344 Y23.0668
G01 X-0.9750 Y23.0616
G01 X-0.9750 Y23.2017
G01 X-0.8379 Y23.2068
G01 X-0.5750 Y23.2100
G01 X-0.3122 Y23.2068
G01 X-0.1750 Y23.2017
G01 X-0.1750 Y23.3418
G01 X-0.3088 Y23.3467
G01 X-0.5750 Y23.3500
G01 X-0.8413 Y23.3467
G01 X-0.9750 Y23.3418
G01 X-0.9750 Y23.4819
G01 X-0.8447 Y23.4867
G01 X-0.5750 Y23.4900
G01 X-0.3053 Y23.4867
G01 X-0.1750 Y23.4819
G01 X-0.1750 Y23.6220
G01 X-0.3019 Y23.6266
G01 X-0.5750 Y23.6300
G01 X-0.8482 Y23.6266
G01 X-0.9750 Y23.6220
G01 X-0.9750 Y23.7621
G01 X-0.8516 Y23.7666
G01 X-0.5750 Y23.7700
G01 X-0.2985 Y23.7666
G01 X-0.1750 Y23.7621
G01 X-0.1750 Y23.9021
G01 X-0.2950 Y23.9066
G01 X-0.5750 Y23.9100
G01 X-0.8551 Y23.9066
G01 X-0.9750 Y23.9021
G01 X-0.9750 Y24.0422
G01 X-0.8585 Y24.0465
G01 X-0.5750 Y24.0500
G01 X-0.2916 Y24.0465
G01 X-0.1750 Y24.0422
G01 X-0.1750 Y24.1823
G01 X-0.2882 Y24.1865
G01 X-0.5750 Y24.1900
G01 X-0.8619 Y24.1865
G01 X-0.9750 Y24.1823
G01 X-0.9750 Y24.3224
G01 X-0.8654 Y24.3264
G01 X-0.5750 Y24.3300
G01 X-0.2847 Y24.3264
G01 X-0.1750 Y24.3224
G01 X-0.1750 Y24.4625
G01 X-0.2813 Y24.4664
G01 X-0.5750 Y24.4700
G01 X-0.8688 Y24.4664
G01 X-0.9750 Y24.4625
G01 X-0.9750 Y24.6026
G01 X-0.8722 Y24.6064
G01 X-0.5750 Y24.6100
G01 X-0.2778 Y24.6064
G01 X-0.1750 Y24.6026
G01 X-0.1750 Y24.7427
G01 X-0.2744 Y24.7463
G01 X-0.5750 Y24.7500
G01 X-0.8757 Y24.7463
G01 X-0.9750 Y24.7427
G01 X-0.9750 Y24.8827
G01 X-0.8791 Y24.8863
G01 X-0.5750 Y24.8900
G01 X-0.2710 Y24.8863
G01 X-0.1750 Y24.8827
G00 Z0.5000
G00 X-0.1735 Y25.0228
G01 F50.00
G01 Z-0.0500
G01 F80.00
G01 X-0.2675 Y25.0262
G01 X-0.5750 Y25.0300
G01 X-0.8825 Y25.0262
G01 X-0.9750 Y25.0228
G01 X-0.9614 Y25.1634
G01 X-0.8860 Y25.1662
G01 X-0.5750 Y25.1700
G01 X-0.2641 Y25.1662
G01 X-0.0727 Y25.1591
G01 X-0.4442 Y25.8684
G01 X-0.2469 Y25.8660
G01 X0.0810 Y25.8539
G01 X0.4085 Y25.8338
G01 X0.7355 Y25.8056
G01 X1.0616 Y25.7695
G01 X1.3867 Y25.7253
G01 X1.7107 Y25.6732
G01 X2.0333 Y25.6131
G01 X2.3543 Y25.5451
G01 X2.6736 Y25.4693
G01 X2.9909 Y25.3857
G01 X3.3061 Y25.2943
G01 X3.6189 Y25.1952
G01 X3.6775 Y25.1750
G01 X4.0980 Y25.1750
G01 X3.9763 Y25.2203
G01 X3.6628 Y25.3281
G01 X3.3467 Y25.4283
G01 X3.0283 Y25.5206
G01 X2.7076 Y25.6051
G01 X2.3850 Y25.6817
G01 X2.0606 Y25.7504
G01 X1.7347 Y25.8111
G01 X1.4073 Y25.8638
G01 X1.0787 Y25.9084
G01 X0.7492 Y25.9449
G01 X0.4188 Y25.9734
G01 X0.3921 Y25.9750
G01 X-0.6473 Y25.7291
G01 X-0.5750 Y25.7300
G01 X-0.2504 Y25.7260
G01 X0.0741 Y25.7141
G01 X0.3982 Y25.6942
G01 X0.7217 Y25.6663
G01 X1.0445 Y25.6305
G01 X1.3662 Y25.5868
G01 X1.6868 Y25.5352
G01 X2.0060 Y25.4758
G01 X2.3237 Y25.4085
G01 X2.6396 Y25.3335
G01 X2.9536 Y25.2508
G01 X3.2147 Y25.1750
G01 X2.6916 Y25.1750
G01 X2.6056 Y25.1977
G01 X2.2930 Y25.2719
G01 X1.9787 Y25.3385
G01 X1.6629 Y25.3973
G01 X1.3457 Y25.4483
G01 X1.0273 Y25.4916
G01 X0.7080 Y25.5270
G01 X0.3879 Y25.5545
G01 X0.0673 Y25.5742
G01 X-0.2538 Y25.5861
G01 X-0.5750 Y25.5900
G01 X-0.7781 Y25.5875
G01 X-0.8674 Y25.4464
G01 X-0.5750 Y25.4500
G01 X-0.2572 Y25.4461
G01 X0.0604 Y25.4344
G01 X0.3776 Y25.4149
G01 X0.6943 Y25.3876
G01 X1.0102 Y25.3526
G01 X1.3251 Y25.3098
G01 X1.6389 Y25.2593
G01 X1.9514 Y25.2012
G01 X2.0748 Y25.1750
G01 X1.2774 Y25.1750
G01 X0.9930 Y25.2137
G01 X0.6806 Y25.2483
G01 X0.3673 Y25.2753
G01 X0.0535 Y25.2946
G01 X-0.2607 Y25.3061
G01 X-0.5750 Y25.3100
G01 X-0.8894 Y25.3061
G01 X-0.9264 Y25.3048
G00 Z0.5000
G00 X-0.2000 Y24.8000
G00 X0.4633 Y24.5777
G01 F50.00
G01 Z-0.0500
G01 F80.00
G01 X0.5417 Y24.8250
G01 X0.3948 Y24.8250
G01 X0.1750 Y24.1312
G01 X0.1750 Y24.5947
G01 X0.2480 Y24.8250
G01 X0.6252 Y24.6251
G01 X0.6885 Y24.8250
G01 X0.8354 Y24.8250
G01 X0.7720 Y24.6251
G01 X0.9189 Y24.6251
G01 X0.9822 Y24.8250
G01 X1.1299 Y24.8250
G01 X1.1191 Y24.7935
G01 X1.0657 Y24.6251
G01 X1.2126 Y24.6251
G01 X1.2520 Y24.7496
G01 X1.2780 Y24.8250
G01 X1.4260 Y24.8250
G01 X1.3850 Y24.7057
G01 X1.3594 Y24.6251
G01 X1.5063 Y24.6251
G01 X1.5179 Y24.6617
G01 X1.5740 Y24.8250
G01 X1.7221 Y24.8250
G01 X1.6533 Y24.6251
G01 X1.8014 Y24.6251
G01 X1.8701 Y24.8250
G01 X2.0182 Y24.8250
G01 X1.9494 Y24.6251
G01 X2.0974 Y24.6251
G01 X2.1662 Y24.8250
G01 X2.3143 Y24.8250
G01 X2.2455 Y24.6251
G01 X2.3935 Y24.6251
G01 X2.4623 Y24.8250
G01 X2.6103 Y24.8250
G01 X2.5416 Y24.6251
G01 X2.6896 Y24.6251
G01 X2.7584 Y24.8250
G01 X2.9064 Y24.8250
G01 X2.8377 Y24.6251
G01 X2.9857 Y24.6251
G01 X3.0545 Y24.8250
G01 X3.2025 Y24.8250
G01 X3.1337 Y24.6251
G01 X3.2818 Y24.6251
G01 X3.3506 Y24.8250
G01 X3.4986 Y24.8250
G01 X3.4298 Y24.6251
G01 X3.5779 Y24.6251
G01 X3.6466 Y24.8250
G01 X3.7947 Y24.8250
G01 X3.7259 Y24.6251
G01 X3.8739 Y24.6251
G01 X3.9327 Y24.7957
G01 X3.9435 Y24.8250
G01 X4.0929 Y24.8250
G01 X4.0645 Y24.7486
G01 X4.0220 Y24.6251
G01 X4.1700 Y24.6251
G01 X4.1963 Y24.7014
G01 X4.2422 Y24.8250
G01 X4.3916 Y24.8250
G01 X4.3281 Y24.6543
G01 X4.3181 Y24.6251
G01 X4.4666 Y24.6251
G01 X4.5409 Y24.8250
G01 X4.6903 Y24.8250
G01 X4.6160 Y24.6251
G01 X4.7653 Y24.6251
G01 X4.8396 Y24.8250
G01 X4.9890 Y24.8250
G01 X4.9147 Y24.6251
G01 X5.0640 Y24.6251
G01 X5.1383 Y24.8250
G01 X5.2877 Y24.8250
G01 X5.2134 Y24.6251
G01 X5.3627 Y24.6251
G01 X5.4370 Y24.8250
G01 X5.5864 Y24.8250
G01 X5.5120 Y24.6251
G01 X5.6614 Y24.6251
G01 X5.7357 Y24.8250
G01 X5.8850 Y24.8250
G01 X5.8107 Y24.6251
G01 X5.9601 Y24.6251
G01 X6.0344 Y24.8250
G01 X6.1837 Y24.8250
G01 X6.1094 Y24.6251
G01 X6.2588 Y24.6251
G01 X6.3333 Y24.8250
G01 X6.4840 Y24.8250
G01 X6.4615 Y24.7685
G01 X6.4081 Y24.6251
G01 X6.5575 Y24.6251
G01 X6.5921 Y24.7181
G01 X6.6348 Y24.8250
G01 X6.7856 Y24.8250
G01 X6.7227 Y24.6678
G01 X6.7068 Y24.6251
G01 X6.8564 Y24.6251
G01 X6.9363 Y24.8250
G01 X7.0871 Y24.8250
G01 X7.0072 Y24.6251
G01 X7.1579 Y24.6251
G01 X7.2379 Y24.8250
G01 X7.3886 Y24.8250
G01 X7.3087 Y24.6251
G01 X7.4595 Y24.6251
G01 X7.5394 Y24.8250
G01 X7.6902 Y24.8250
G01 X7.6102 Y24.6251
G01 X7.7610 Y24.6251
G01 X7.8409 Y24.8250
G01 X7.9917 Y24.8250
G01 X7.9118 Y24.6251
G01 X8.0625 Y24.6251
G01 X8.1425 Y24.8250
G01 X8.2933 Y24.8250
G01 X8.2133 Y24.6251
G01 X8.3641 Y24.6251
G01 X8.4440 Y24.8250
G01 X8.5959 Y24.8250
G01 X8.5791 Y24.7858
G01 X8.5148 Y24.6251
G01 X8.6656 Y24.6251
G01 X8.7085 Y24.7322
G01 X8.7482 Y24.8250
G01 X8.9005 Y24.8250
G01 X8.8378 Y24.6786
G01 X8.8164 Y24.6251
G01 X8.9672 Y24.6251
G01 X9.0528 Y24.8250
G01 X9.2052 Y24.8250
G01 X9.1195 Y24.6251
G01 X9.2718 Y24.6251
G01 X9.3575 Y24.8250
G01 X9.5098 Y24.8250
G01 X9.4241 Y24.6251
G01 X9.5764 Y24.6251
G01 X9.6621 Y24.8250
G01 X9.8144 Y24.8250
G01 X9.7287 Y24.6251
G01 X9.8810 Y24.6251
G01 X9.9667 Y24.8250
G01 X10.1190 Y24.8250
G01 X10.0333 Y24.6251
G01 X10.1856 Y24.6251
G01 X10.2713 Y24.8250
G01 X10.4238 Y24.8250
G01 X10.3379 Y24.6251
G01 X10.4902 Y24.6251
G01 X10.5496 Y24.7635
G01 X10.5777 Y24.8250
G01 X10.7317 Y24.8250
G01 X10.6776 Y24.7068
G01 X10.6426 Y24.6251
G01 X10.7949 Y24.6251
G01 X10.8056 Y24.6501
G01 X10.8857 Y24.8250
G01 X11.0397 Y24.8250
G01 X10.9481 Y24.6251
G01 X11.1021 Y24.6251
G01 X11.1936 Y24.8250
G01 X11.3476 Y24.8250
G01 X11.2561 Y24.6251
G01 X11.4100 Y24.6251
G01 X11.5016 Y24.8250
G01 X11.6556 Y24.8250
G01 X11.5640 Y24.6251
G01 X11.7180 Y24.6251
G01 X11.8095 Y24.8250
G01 X11.9635 Y24.8250
G01 X11.8720 Y24.6251
G01 X12.0259 Y24.6251
G01 X12.1175 Y24.8250
G01 X12.2731 Y24.8250
G01 X12.2472 Y24.7721
G01 X12.1799 Y24.6251
G01 X12.3339 Y24.6251
G01 X12.3738 Y24.7122
G01 X12.4288 Y24.8250
G01 X12.5846 Y24.8250
G01 X12.5004 Y24.6523
G01 X12.4879 Y24.6251
G01 X12.6428 Y24.6251
G01 X12.7404 Y24.8250
G01 X12.8962 Y24.8250
G01 X12.7986 Y24.6251
G01 X12.9544 Y24.6251
G01 X13.0519 Y24.8250
G01 X13.2077 Y24.8250
G01 X13.1101 Y24.6251
G01 X13.2659 Y24.6251
G01 X13.3635 Y24.8250
G01 X13.5192 Y24.8250
G01 X13.4217 Y24.6251
G01 X13.5775 Y24.6251
G01 X13.6750 Y24.8250
G01 X13.8325 Y24.8250
G01 X13.8029 Y24.7679
G01 X13.7332 Y24.6251
G01 X13.8890 Y24.6251
G01 X13.9280 Y24.7049
G01 X13.9903 Y24.8250
G01 X14.1480 Y24.8250
G01 X14.0530 Y24.6420
G01 X14.0448 Y24.6251
G01 X14.2020 Y24.6251
G01 X14.3057 Y24.8250
G01 X14.4634 Y24.8250
G01 X14.3597 Y24.6251
G01 X14.5174 Y24.6251
G01 X14.6211 Y24.8250
G01 X14.7788 Y24.8250
G01 X14.6751 Y24.6251
G01 X14.8328 Y24.6251
G01 X14.9365 Y24.8250
G01 X15.0942 Y24.8250
G01 X14.9905 Y24.6251
G01 X15.1482 Y24.6251
G01 X15.2188 Y24.7610
G01 X15.2540 Y24.8250
G01 X15.4137 Y24.8250
G01 X15.3422 Y24.6951
G01 X15.3059 Y24.6251
G01 X15.4636 Y24.6251
G01 X15.5735 Y24.8250
G01 X15.7333 Y24.8250
G01 X15.6233 Y24.6251
G01 X15.7831 Y24.6251
G01 X15.8931 Y24.8250
G01 X16.0529 Y24.8250
G01 X15.9429 Y24.6251
G01 X16.1027 Y24.6251
G01 X16.2127 Y24.8250
G01 X16.3725 Y24.8250
G01 X16.2625 Y24.6251
G01 X16.4223 Y24.6251
G01 X16.4973 Y24.7614
G01 X16.5344 Y24.8250
G01 X16.6964 Y24.8250
G01 X16.6191 Y24.6924
G01 X16.5821 Y24.6251
G01 X16.7419 Y24.6251
G01 X16.8584 Y24.8250
G01 X17.0204 Y24.8250
G01 X16.9039 Y24.6251
G01 X17.0660 Y24.6251
G01 X17.1825 Y24.8250
G01 X17.3445 Y24.8250
G01 X17.2280 Y24.6251
G01 X17.3900 Y24.6251
G01 X17.5065 Y24.8250
G01 X17.6701 Y24.8250
G01 X17.6415 Y24.7785
G01 X17.5521 Y24.6251
G01 X17.7141 Y24.6251
G01 X17.7616 Y24.7066
G01 X17.8345 Y24.8250
G01 X17.9990 Y24.8250
G01 X17.8817 Y24.6346
G01 X17.8761 Y24.6251
G01 X18.0402 Y24.6251
G01 X18.1634 Y24.8250
G01 X18.3278 Y24.8250
G01 X18.2047 Y24.6251
G01 X18.3691 Y24.6251
G01 X18.4923 Y24.8250
G01 X18.6568 Y24.8250
G01 X18.5335 Y24.6251
G01 X18.6980 Y24.6251
G01 X18.7732 Y24.7472
G01 X18.8238 Y24.8250
G01 X18.9908 Y24.8250
G01 X18.8915 Y24.6723
G01 X18.8624 Y24.6251
G01 X19.0278 Y24.6251
G01 X19.1578 Y24.8250
G01 X19.3248 Y24.8250
G01 X19.1948 Y24.6251
G01 X19.3618 Y24.6251
G01 X19.4918 Y24.8250
G01 X19.6589 Y24.8250
G01 X19.5288 Y24.6251
G01 X19.6958 Y24.6251
G01 X19.7742 Y24.7456
G01 X19.8287 Y24.8250
G01 X19.9984 Y24.8250
G01 X19.8906 Y24.6678
G01 X19.8628 Y24.6251
G01 X20.0311 Y24.6251
G01 X20.1682 Y24.8250
G01 X20.3380 Y24.8250
G01 X20.2008 Y24.6251
G01 X20.3706 Y24.6251
G01 X20.5077 Y24.8250
G01 X20.6790 Y24.8250
G01 X20.6488 Y24.7831
G01 X20.5404 Y24.6251
G01 X20.7101 Y24.6251
G01 X20.7633 Y24.7025
G01 X20.8518 Y24.8250
G01 X21.0245 Y24.8250
G01 X20.8800 Y24.6251
G01 X21.0527 Y24.6251
G01 X21.1972 Y24.8250
G01 X21.3700 Y24.8250
G01 X21.2255 Y24.6251
G01 X21.3982 Y24.6251
G01 X21.5140 Y24.7853
G01 X21.5442 Y24.8250
G01 X21.7201 Y24.8250
G01 X21.6264 Y24.7019
G01 X21.5709 Y24.6251
G01 X21.7439 Y24.6251
G01 X21.8960 Y24.8250
G01 X22.0719 Y24.8250
G01 X21.9198 Y24.6251
G01 X22.0957 Y24.6251
G01 X22.2478 Y24.8250
G01 X22.4266 Y24.8250
G01 X22.3686 Y24.7525
G01 X22.2716 Y24.6251
G01 X22.4475 Y24.6251
G01 X22.4789 Y24.6663
G01 X22.6059 Y24.8250
G01 X22.7852 Y24.8250
G01 X22.6252 Y24.6251
G01 X22.8045 Y24.6251
G01 X22.9645 Y24.8250
G01 X23.1459 Y24.8250
G01 X23.1031 Y24.7741
G01 X22.9838 Y24.6251
G01 X23.1631 Y24.6251
G01 X23.2113 Y24.6853
G01 X23.3288 Y24.8250
G01 X23.5118 Y24.8250
G01 X23.3436 Y24.6251
G01 X23.5265 Y24.6251
G01 X23.6947 Y24.8250
G01 X23.8802 Y24.8250
G01 X23.8291 Y24.7672
G01 X23.7095 Y24.6251
G01 X23.8924 Y24.6251
G01 X23.9351 Y24.6758
G01 X24.0670 Y24.8250
G01 X24.2539 Y24.8250
G01 X24.0771 Y24.6251
G01 X24.2640 Y24.6251
G01 X24.4408 Y24.8250
G01 X24.6318 Y24.8250
G01 X24.5456 Y24.7322
G01 X24.4509 Y24.6251
G01 X24.6377 Y24.6251
G01 X24.6494 Y24.6382
G01 X24.8229 Y24.8250
G01 X25.0139 Y24.8250
G01 X24.8282 Y24.6251
G01 X25.0193 Y24.6251
G01 X25.1503 Y24.7661
G01 X25.2078 Y24.8250
G01 X25.4033 Y24.8250
G01 X25.2517 Y24.6696
G01 X25.2104 Y24.6251
G01 X25.4039 Y24.6251
G01 X25.5989 Y24.8250
G01 X25.7968 Y24.8250
G01 X25.7484 Y24.7777
G01 X25.5995 Y24.6251
G01 X25.7951 Y24.6251
G01 X25.8474 Y24.6788
G01 X25.9973 Y24.8250
G01 X25.9929 Y24.6251
G01 X26.1977 Y24.8250
G01 X26.1933 Y24.6251
G01 X26.3393 Y24.7675
G01 X26.4012 Y24.8250
G01 X26.3938 Y24.6251
G01 X26.4359 Y24.6661
G01 X26.6068 Y24.8250
G01 X26.5973 Y24.6251
G01 X26.8125 Y24.8250
G01 X26.8030 Y24.6251
G01 X26.9222 Y24.7358
G01 X27.0231 Y24.8250
G01 X27.0087 Y24.6251
G01 X27.2344 Y24.8250
G01 X27.2197 Y24.6251
G01 X27.4050 Y24.7889
G01 X27.4478 Y24.8250
G01 X27.4310 Y24.6251
G01 X27.4964 Y24.6829
G01 X27.6652 Y24.8250
G01 X27.6451 Y24.6251
G01 X27.8827 Y24.8250
G01 X27.8625 Y24.6251
G01 X27.9725 Y24.7176
G01 X28.1066 Y24.8250
G01 X28.0809 Y24.6251
G01 X28.3307 Y24.8250
G01 X28.3049 Y24.6251
G01 X28.4438 Y24.7362
G01 X28.5605 Y24.8250
G01 X28.5290 Y24.6251
G01 X28.7917 Y24.8250
G01 X28.7601 Y24.6251
G01 X28.9101 Y24.7391
G01 X29.0288 Y24.8250
G01 X28.9654 Y24.6053
G01 X28.9935 Y24.6267
G01 X29.2678 Y24.8250
G01 X29.5140 Y24.8250
G01 X29.3706 Y24.7266
G01 X29.0707 Y24.5096
G00 Z0.5000
G00 X29.1001 Y24.3560
G01 F50.00
G01 Z-0.0500
G01 F80.00
G01 X29.1602 Y24.4018
G01 X29.4513 Y24.6121
G01 X29.7473 Y24.8153
G01 X29.7622 Y24.8250
G01 X30.0190 Y24.8250
G01 X29.8251 Y24.6989
G01 X29.5319 Y24.4977
G01 X29.2436 Y24.2893
G01 X29.1001 Y24.1801
G01 X29.1001 Y24.0042
G01 X29.3270 Y24.1769
G01 X29.6125 Y24.3832
G01 X29.9029 Y24.5825
G01 X30.1981 Y24.7745
G01 X30.2800 Y24.8250
G01 X30.5468 Y24.8250
G01 X30.2730 Y24.6562
G01 X29.9807 Y24.4660
G01 X29.6931 Y24.2687
G01 X29.4104 Y24.0644
G01 X29.1329 Y23.8533
G01 X29.1001 Y23.8270
G01 X29.1001 Y23.6477
G01 X29.2190 Y23.7429
G01 X29.4938 Y23.9520
G01 X29.7737 Y24.1543
G01 X30.0585 Y24.3496
G01 X30.3479 Y24.5380
G01 X30.6419 Y24.7191
G01 X30.8235 Y24.8250
G01 X31.1070 Y24.8250
G01 X31.0093 Y24.7712
G01 X30.7139 Y24.5990
G01 X30.4228 Y24.4197
G01 X30.1362 Y24.2332
G01 X29.8543 Y24.0398
G01 X29.5772 Y23.8395
G01 X29.3052 Y23.6325
G01 X29.1426 Y23.5024
G01 X29.2449 Y23.4050
G01 X29.3913 Y23.5222
G01 X29.6606 Y23.7271
G01 X29.9349 Y23.9254
G01 X30.2140 Y24.1168
G01 X30.4977 Y24.3014
G01 X30.7859 Y24.4789
G01 X31.0783 Y24.6494
G01 X31.3748 Y24.8126
G01 X31.3987 Y24.8250
G01 X31.7026 Y24.8250
G01 X31.4408 Y24.6891
G01 X31.1473 Y24.5276
G01 X30.8578 Y24.3589
G01 X30.5726 Y24.1831
G01 X30.2918 Y24.0004
G01 X30.0155 Y23.8109
G01 X29.7440 Y23.6146
G01 X29.4774 Y23.4118
G01 X29.3472 Y23.3075
G01 X29.4495 Y23.2101
G01 X29.5636 Y23.3014
G01 X29.8274 Y23.5022
G01 X30.0962 Y23.6964
G01 X30.3696 Y23.8840
G01 X30.6475 Y24.0648
G01 X30.9298 Y24.2388
G01 X31.2163 Y24.4057
G01 X31.5068 Y24.5656
G01 X31.8011 Y24.7183
G01 X32.0196 Y24.8250
G01 X32.3505 Y24.8250
G01 X32.1589 Y24.7372
G01 X31.8640 Y24.5933
G01 X31.5728 Y24.4422
G01 X31.2853 Y24.2839
G01 X31.0018 Y24.1187
G01 X30.7224 Y23.9466
G01 X30.4474 Y23.7676
G01 X30.1768 Y23.5820
G01 X29.9108 Y23.3898
G01 X29.6497 Y23.1911
G01 X29.5518 Y23.1127
G01 X29.6541 Y23.0153
G01 X29.7358 Y23.0807
G01 X29.9942 Y23.2773
G01 X30.2574 Y23.4675
G01 X30.5251 Y23.6512
G01 X30.7973 Y23.8283
G01 X31.0738 Y23.9986
G01 X31.3543 Y24.1621
G01 X31.6388 Y24.3187
G01 X31.9270 Y24.4682
G01 X32.2188 Y24.6106
G01 X32.5140 Y24.7459
G01 X32.6985 Y24.8250
G01 X33.0673 Y24.8250
G01 X32.8660 Y24.7444
G01 X32.5707 Y24.6179
G01 X32.2786 Y24.4841
G01 X31.9899 Y24.3432
G01 X31.7047 Y24.1952
G01 X31.4233 Y24.0403
G01 X31.1457 Y23.8785
G01 X30.8722 Y23.7100
G01 X30.6029 Y23.5348
G01 X30.3380 Y23.3531
G01 X30.0776 Y23.1649
G01 X29.8219 Y22.9703
G01 X29.7564 Y22.9178
G01 X29.8587 Y22.8204
G01 X29.9081 Y22.8600
G01 X30.1610 Y23.0524
G01 X30.4186 Y23.2386
G01 X30.6807 Y23.4184
G01 X30.9471 Y23.5917
G01 X31.2177 Y23.7585
G01 X31.4923 Y23.9185
G01 X31.7707 Y24.0717
G01 X32.0529 Y24.2181
G01 X32.3385 Y24.3575
G01 X32.6275 Y24.4899
G01 X32.9196 Y24.6151
G01 X33.2147 Y24.7331
G01 X33.4618 Y24.8250
G01 X33.8907 Y24.8250
G01 X33.8571 Y24.8143
G01 X33.5598 Y24.7120
G01 X33.2651 Y24.6025
G01 X32.9732 Y24.4858
G01 X32.6842 Y24.3619
G01 X32.3983 Y24.2310
G01 X32.1158 Y24.0931
G01 X31.8367 Y23.9483
G01 X31.5613 Y23.7967
G01 X31.2897 Y23.6384
G01 X31.0220 Y23.4734
G01 X30.7585 Y23.3020
G01 X30.4992 Y23.1241
G01 X30.2444 Y22.9400
G01 X29.9942 Y22.7496
G01 X29.9610 Y22.7230
G01 X30.0633 Y22.6255
G01 X30.0803 Y22.6392
G01 X30.3278 Y22.8275
G01 X30.5798 Y23.0097
G01 X30.8363 Y23.1856
G01 X31.0969 Y23.3552
G01 X31.3616 Y23.5183
G01 X31.6303 Y23.6749
G01 X31.9027 Y23.8248
G01 X32.1788 Y23.9680
G01 X32.4582 Y24.1044
G01 X32.7409 Y24.2339
G01 X33.0267 Y24.3564
G01 X33.3155 Y24.4719
G01 X33.6069 Y24.5802
G01 X33.9010 Y24.6814
G01 X34.1974 Y24.7753
G01 X34.3687 Y24.8250
G01 X34.9133 Y24.8250
G01 X34.8308 Y24.8054
G01 X34.5334 Y24.7270
G01 X34.2381 Y24.6413
G01 X33.9449 Y24.5485
G01 X33.6541 Y24.4484
G01 X33.3658 Y24.3413
G01 X33.0803 Y24.2271
G01 X32.7977 Y24.1059
G01 X32.5181 Y23.9779
G01 X32.2417 Y23.8430
G01 X31.9687 Y23.7013
G01 X31.6993 Y23.5531
G01 X31.4336 Y23.3982
G01 X31.1718 Y23.2369
G01 X30.9140 Y23.0692
G01 X30.6605 Y22.8952
G01 X30.4112 Y22.7151
G01 X30.1656 Y22.5281
G01 X30.2682 Y22.4304
G01 X30.4946 Y22.6026
G01 X30.7411 Y22.7807
G01 X30.9918 Y22.9528
G01 X31.2467 Y23.1186
G01 X31.5056 Y23.2781
G01 X31.7683 Y23.4312
G01 X32.0347 Y23.5779
G01 X32.3046 Y23.7179
G01 X32.5779 Y23.8513
G01 X32.8544 Y23.9779
G01 X33.1339 Y24.0977
G01 X33.4162 Y24.2106
G01 X33.7013 Y24.3166
G01 X33.9888 Y24.4155
G01 X34.2787 Y24.5074
G01 X34.5708 Y24.5921
G01 X34.8648 Y24.6696
G01 X35.1607 Y24.7398
G01 X35.4582 Y24.8028
G01 X35.5772 Y24.8250
G01 X36.5221 Y24.8250
G01 X36.3758 Y24.8087
G01 X36.0779 Y24.7683
G01 X35.7810 Y24.7205
G01 X35.4855 Y24.6655
G01 X35.1913 Y24.6032
G01 X34.8988 Y24.5337
G01 X34.6081 Y24.4571
G01 X34.3193 Y24.3734
G01 X34.0327 Y24.2826
G01 X33.7484 Y24.1848
G01 X33.4666 Y24.0800
G01 X33.1875 Y23.9684
G01 X32.9111 Y23.8499
G01 X32.6378 Y23.7247
G01 X32.3676 Y23.5929
G01 X32.1007 Y23.4544
G01 X31.8373 Y23.3094
G01 X31.5776 Y23.1580
G01 X31.3216 Y23.0003
G01 X31.0696 Y22.8364
G01 X30.8217 Y22.6663
G01 X30.5780 Y22.4902
G01 X30.3709 Y22.3326
G01 X30.4736 Y22.2348
G01 X30.6614 Y22.3777
G01 X30.9023 Y22.5518
G01 X31.1474 Y22.7200
G01 X31.3965 Y22.8820
G01 X31.6495 Y23.0380
G01 X31.9063 Y23.1876
G01 X32.1667 Y23.3309
G01 X32.4305 Y23.4678
G01 X32.6976 Y23.5982
G01 X32.9679 Y23.7219
G01 X33.2410 Y23.8390
G01 X33.5170 Y23.9494
G01 X33.7956 Y24.0530
G01 X34.0766 Y24.1497
G01 X34.3600 Y24.2394
G01 X34.6454 Y24.3222
G01 X34.9328 Y24.3979
G01 X35.2220 Y24.4666
G01 X35.5128 Y24.5282
G01 X35.8050 Y24.5826
G01 X36.0984 Y24.6298
G01 X36.3929 Y24.6698
G01 X36.6883 Y24.7026
G01 X36.9845 Y24.7281
G01 X37.2811 Y24.7463
G01 X37.5781 Y24.7572
G01 X37.8753 Y24.7609
G01 X38.1725 Y24.7572
G01 X38.4695 Y24.7463
G01 X38.7662 Y24.7281
G01 X39.0623 Y24.7026
G01 X39.3577 Y24.6698
G01 X39.6522 Y24.6298
G01 X39.9457 Y24.5826
G01 X40.2379 Y24.5282
G01 X40.4194 Y24.4897
G00 Z0.5000
G00 X40.3999 Y24.3508
G01 F50.00
G01 Z-0.0500
G01 F80.00
G01 X40.2106 Y24.3909
G01 X39.9217 Y24.4446
G01 X39.6317 Y24.4913
G01 X39.3406 Y24.5308
G01 X39.0486 Y24.5632
G01 X38.7559 Y24.5884
G01 X38.4627 Y24.6064
G01 X38.1691 Y24.6173
G01 X37.8753 Y24.6209
G01 X37.5816 Y24.6173
G01 X37.2880 Y24.6064
G01 X36.9948 Y24.5884
G01 X36.7021 Y24.5632
G01 X36.4101 Y24.5308
G01 X36.1190 Y24.4913
G01 X35.8289 Y24.4446
G01 X35.5401 Y24.3909
G01 X35.2527 Y24.3300
G01 X34.9669 Y24.2621
G01 X34.6828 Y24.1873
G01 X34.4006 Y24.1054
G01 X34.1206 Y24.0167
G01 X33.8428 Y23.9211
G01 X33.5674 Y23.8188
G01 X33.2946 Y23.7097
G01 X33.0246 Y23.5940
G01 X32.7575 Y23.4716
G01 X32.4935 Y23.3428
G01 X32.2327 Y23.2075
G01 X31.9753 Y23.0658
G01 X31.7215 Y22.9179
G01 X31.4714 Y22.7638
G01 X31.2252 Y22.6036
G01 X30.9829 Y22.4374
G01 X30.7448 Y22.2653
G01 X30.5762 Y22.1370
G01 X30.6789 Y22.0392
G01 X30.8282 Y22.1528
G01 X31.0635 Y22.3229
G01 X31.3029 Y22.4872
G01 X31.5463 Y22.6455
G01 X31.7935 Y22.7978
G01 X32.0443 Y22.9440
G01 X32.2987 Y23.0840
G01 X32.5564 Y23.2177
G01 X32.8174 Y23.3451
G01 X33.0813 Y23.4660
G01 X33.3482 Y23.5804
G01 X33.6178 Y23.6882
G01 X33.8899 Y23.7893
G01 X34.1645 Y23.8838
G01 X34.4413 Y23.9715
G01 X34.7201 Y24.0523
G01 X35.0009 Y24.1263
G01 X35.2834 Y24.1934
G01 X35.5674 Y24.2536
G01 X35.8529 Y24.3067
G01 X36.1395 Y24.3528
G01 X36.4272 Y24.3919
G01 X36.7158 Y24.4239
G01 X37.0051 Y24.4488
G01 X37.2949 Y24.4666
G01 X37.5850 Y24.4773
G01 X37.8753 Y24.4809
G01 X38.1657 Y24.4773
G01 X38.4558 Y24.4666
G01 X38.7456 Y24.4488
G01 X39.0349 Y24.4239
G01 X39.3234 Y24.3919
G01 X39.6112 Y24.3528
G01 X39.8978 Y24.3067
G01 X40.1832 Y24.2536
G01 X40.3999 Y24.2077
G01 X40.3999 Y24.0646
G01 X40.1559 Y24.1162
G01 X39.8739 Y24.1688
G01 X39.5906 Y24.2143
G01 X39.3063 Y24.2530
G01 X39.0212 Y24.2846
G01 X38.7353 Y24.3092
G01 X38.4489 Y24.3268
G01 X38.1622 Y24.3373
G01 X37.8753 Y24.3409
G01 X37.5884 Y24.3373
G01 X37.3017 Y24.3268
G01 X37.0154 Y24.3092
G01 X36.7295 Y24.2846
G01 X36.4443 Y24.2530
G01 X36.1601 Y24.2143
G01 X35.8768 Y24.1688
G01 X35.5947 Y24.1162
G01 X35.3140 Y24.0568
G01 X35.0349 Y23.9905
G01 X34.7575 Y23.9174
G01 X34.4819 Y23.8375
G01 X34.2084 Y23.7508
G01 X33.9371 Y23.6575
G01 X33.6682 Y23.5576
G01 X33.4018 Y23.4510
G01 X33.1381 Y23.3380
G01 X32.8772 Y23.2185
G01 X32.6194 Y23.0927
G01 X32.3647 Y22.9605
G01 X32.1134 Y22.8222
G01 X31.8655 Y22.6777
G01 X31.6212 Y22.5272
G01 X31.3807 Y22.3707
G01 X31.1441 Y22.2084
G01 X30.9116 Y22.0404
G01 X30.7816 Y21.9414
G01 X30.8843 Y21.8437
G01 X30.9950 Y21.9279
G01 X31.2247 Y22.0940
G01 X31.4585 Y22.2543
G01 X31.6961 Y22.4089
G01 X31.9374 Y22.5576
G01 X32.1824 Y22.7004
G01 X32.4307 Y22.8371
G01 X32.6823 Y22.9676
G01 X32.9371 Y23.0919
G01 X33.1948 Y23.2100
G01 X33.4553 Y23.3217
G01 X33.7185 Y23.4269
G01 X33.9843 Y23.5257
G01 X34.2523 Y23.6179
G01 X34.5225 Y23.7035
G01 X34.7948 Y23.7825
G01 X35.0689 Y23.8547
G01 X35.3447 Y23.9202
G01 X35.6220 Y23.9789
G01 X35.9007 Y24.0308
G01 X36.1806 Y24.0759
G01 X36.4615 Y24.1140
G01 X36.7432 Y24.1452
G01 X37.0257 Y24.1696
G01 X37.3086 Y24.1870
G01 X37.5919 Y24.1974
G01 X37.8753 Y24.2009
G01 X38.1588 Y24.1974
G01 X38.4421 Y24.1870
G01 X38.7250 Y24.1696
G01 X39.0074 Y24.1452
G01 X39.2892 Y24.1140
G01 X39.5701 Y24.0759
G01 X39.8499 Y24.0308
G01 X40.1286 Y23.9789
G01 X40.3999 Y23.9215
G01 X40.3999 Y23.7778
G01 X40.3753 Y23.7836
G01 X40.1013 Y23.8416
G01 X39.8260 Y23.8929
G01 X39.5495 Y23.9374
G01 X39.2720 Y23.9751
G01 X38.9937 Y24.0059
G01 X38.7147 Y24.0299
G01 X38.4352 Y24.0471
G01 X38.1553 Y24.0574
G01 X37.8753 Y24.0609
G01 X37.5953 Y24.0574
G01 X37.3155 Y24.0471
G01 X37.0360 Y24.0299
G01 X36.7570 Y24.0059
G01 X36.4786 Y23.9751
G01 X36.2011 Y23.9374
G01 X35.9247 Y23.8929
G01 X35.6493 Y23.8416
G01 X35.3754 Y23.7836
G01 X35.1029 Y23.7189
G01 X34.8321 Y23.6476
G01 X34.5632 Y23.5696
G01 X34.2962 Y23.4850
G01 X34.0314 Y23.3939
G01 X33.7689 Y23.2963
G01 X33.5089 Y23.1923
G01 X33.2515 Y23.0820
G01 X32.9969 Y22.9654
G01 X32.7453 Y22.8426
G01 X32.4967 Y22.7136
G01 X32.2514 Y22.5786
G01 X32.0094 Y22.4375
G01 X31.7710 Y22.2906
G01 X31.5363 Y22.1379
G01 X31.3054 Y21.9795
G01 X31.0784 Y21.8155
G01 X30.9869 Y21.7459
G01 X31.0896 Y21.6481
G01 X31.1618 Y21.7030
G01 X31.3860 Y21.8650
G01 X31.6141 Y22.0215
G01 X31.8459 Y22.1724
G01 X32.0814 Y22.3175
G01 X32.3204 Y22.4567
G01 X32.5627 Y22.5901
G01 X32.8082 Y22.7175
G01 X33.0568 Y22.8388
G01 X33.3083 Y22.9540
G01 X33.5625 Y23.0630
G01 X33.8193 Y23.1657
G01 X34.0786 Y23.2621
G01 X34.3401 Y23.3520
G01 X34.6038 Y23.4356
G01 X34.8695 Y23.5126
G01 X35.1369 Y23.5831
G01 X35.4061 Y23.6470
G01 X35.6767 Y23.7043
G01 X35.9486 Y23.7549
G01 X36.2217 Y23.7989
G01 X36.4958 Y23.8361
G01 X36.7707 Y23.8666
G01 X37.0463 Y23.8903
G01 X37.3223 Y23.9073
G01 X37.5988 Y23.9175
G01 X37.8753 Y23.9209
G01 X38.1519 Y23.9175
G01 X38.4283 Y23.9073
G01 X38.7044 Y23.8903
G01 X38.9800 Y23.8666
G01 X39.2549 Y23.8361
G01 X39.5290 Y23.7989
G01 X39.8021 Y23.7549
G01 X40.0740 Y23.7043
G01 X40.3446 Y23.6470
G01 X40.3999 Y23.6339
G01 X40.3584 Y23.4999
G01 X40.3139 Y23.5104
G01 X40.0467 Y23.5670
G01 X39.7781 Y23.6170
G01 X39.5084 Y23.6604
G01 X39.2378 Y23.6972
G01 X38.9663 Y23.7273
G01 X38.6941 Y23.7507
G01 X38.4215 Y23.7675
G01 X38.1485 Y23.7775
G01 X37.8753 Y23.7809
G01 X37.6022 Y23.7775
G01 X37.3292 Y23.7675
G01 X37.0566 Y23.7507
G01 X36.7844 Y23.7273
G01 X36.5129 Y23.6972
G01 X36.2422 Y23.6604
G01 X35.9725 Y23.6170
G01 X35.7040 Y23.5670
G01 X35.4367 Y23.5104
G01 X35.1710 Y23.4473
G01 X34.9068 Y23.3777
G01 X34.6445 Y23.3016
G01 X34.3841 Y23.2191
G01 X34.1257 Y23.1303
G01 X33.8697 Y23.0351
G01 X33.6161 Y22.9336
G01 X33.3650 Y22.8260
G01 X33.1166 Y22.7123
G01 X32.8712 Y22.5925
G01 X32.6287 Y22.4666
G01 X32.3894 Y22.3349
G01 X32.1534 Y22.1974
G01 X31.9208 Y22.0541
G01 X31.6918 Y21.9051
G01 X31.4666 Y21.7506
G01 X31.2583 Y21.6001
G01 X31.4973 Y21.6001
G01 X31.5472 Y21.6361
G01 X31.7696 Y21.7887
G01 X31.9957 Y21.9358
G01 X32.2253 Y22.0773
G01 X32.4584 Y22.2131
G01 X32.6947 Y22.3432
G01 X32.9341 Y22.4674
G01 X33.1765 Y22.5857
G01 X33.4217 Y22.6980
G01 X33.6696 Y22.8043
G01 X33.9201 Y22.9045
G01 X34.1729 Y22.9984
G01 X34.4280 Y23.0862
G01 X34.6851 Y23.1676
G01 X34.9442 Y23.2428
G01 X35.2050 Y23.3115
G01 X35.4674 Y23.3738
G01 X35.7313 Y23.4297
G01 X35.9965 Y23.4791
G01 X36.2628 Y23.5219
G01 X36.5300 Y23.5582
G01 X36.7981 Y23.5879
G01 X37.0669 Y23.6111
G01 X37.3361 Y23.6276
G01 X37.6056 Y23.6376
G01 X37.8753 Y23.6409
G01 X38.1450 Y23.6376
G01 X38.4146 Y23.6276
G01 X38.6838 Y23.6111
G01 X38.9525 Y23.5879
G01 X39.2206 Y23.5582
G01 X39.4879 Y23.5219
G01 X39.7542 Y23.4791
G01 X40.0194 Y23.4297
G01 X40.2412 Y23.3827
G01 X40.1231 Y23.2646
G01 X39.9921 Y23.2924
G01 X39.7303 Y23.3411
G01 X39.4674 Y23.3834
G01 X39.2035 Y23.4193
G01 X38.9388 Y23.4486
G01 X38.6735 Y23.4715
G01 X38.4077 Y23.4878
G01 X38.1416 Y23.4976
G01 X37.8753 Y23.5009
G01 X37.6091 Y23.4976
G01 X37.3429 Y23.4878
G01 X37.0772 Y23.4715
G01 X36.8118 Y23.4486
G01 X36.5472 Y23.4193
G01 X36.2833 Y23.3834
G01 X36.0204 Y23.3411
G01 X35.7586 Y23.2924
G01 X35.4981 Y23.2372
G01 X35.2390 Y23.1757
G01 X34.9815 Y23.1078
G01 X34.7257 Y23.0337
G01 X34.4719 Y22.9532
G01 X34.2201 Y22.8666
G01 X33.9705 Y22.7738
G01 X33.7232 Y22.6750
G01 X33.4785 Y22.5700
G01 X33.2364 Y22.4591
G01 X32.9970 Y22.3423
G01 X32.7607 Y22.2197
G01 X32.5274 Y22.0913
G01 X32.2973 Y21.9572
G01 X32.0706 Y21.8175
G01 X31.8474 Y21.6723
G01 X31.7421 Y21.6001
G01 X31.9930 Y21.6001
G01 X32.1455 Y21.6992
G01 X32.3693 Y21.8371
G01 X32.5964 Y21.9695
G01 X32.8267 Y22.0962
G01 X33.0600 Y22.2173
G01 X33.2962 Y22.3326
G01 X33.5352 Y22.4421
G01 X33.7768 Y22.5456
G01 X34.0209 Y22.6432
G01 X34.2672 Y22.7348
G01 X34.5158 Y22.8203
G01 X34.7664 Y22.8997
G01 X35.0188 Y22.9729
G01 X35.2730 Y23.0399
G01 X35.5288 Y23.1006
G01 X35.7859 Y23.1551
G01 X36.0443 Y23.2032
G01 X36.3038 Y23.2449
G01 X36.5643 Y23.2803
G01 X36.8256 Y23.3093
G01 X37.0875 Y23.3318
G01 X37.3498 Y23.3480
G01 X37.6125 Y23.3576
G01 X37.8753 Y23.3609
G01 X38.1382 Y23.3576
G01 X38.4008 Y23.3480
G01 X38.6632 Y23.3318
G01 X38.9251 Y23.3093
G01 X39.1863 Y23.2803
G01 X39.4468 Y23.2449
G01 X39.7063 Y23.2032
G01 X39.9647 Y23.1551
G01 X40.0050 Y23.1465
G01 X39.8859 Y23.0274
G01 X39.6824 Y23.0653
G01 X39.4263 Y23.1065
G01 X39.1692 Y23.1414
G01 X38.9114 Y23.1700
G01 X38.6529 Y23.1922
G01 X38.3940 Y23.2081
G01 X38.1347 Y23.2177
G01 X37.8753 Y23.2209
G01 X37.6159 Y23.2177
G01 X37.3567 Y23.2081
G01 X37.0978 Y23.1922
G01 X36.8393 Y23.1700
G01 X36.5814 Y23.1414
G01 X36.3244 Y23.1065
G01 X36.0683 Y23.0653
G01 X35.8132 Y23.0178
G01 X35.5594 Y22.9640
G01 X35.3070 Y22.9041
G01 X35.0562 Y22.8380
G01 X34.8070 Y22.7657
G01 X34.5597 Y22.6874
G01 X34.3144 Y22.6030
G01 X34.0712 Y22.5126
G01 X33.8304 Y22.4163
G01 X33.5919 Y22.3141
G01 X33.3561 Y22.2060
G01 X33.1229 Y22.0922
G01 X32.8927 Y21.9728
G01 X32.6654 Y21.8477
G01 X32.4413 Y21.7171
G01 X32.2514 Y21.6001
G01 X32.5185 Y21.6001
G01 X32.7344 Y21.7259
G01 X32.9587 Y21.8493
G01 X33.1859 Y21.9672
G01 X33.4159 Y22.0795
G01 X33.6487 Y22.1861
G01 X33.8839 Y22.2869
G01 X34.1216 Y22.3820
G01 X34.3616 Y22.4712
G01 X34.6036 Y22.5544
G01 X34.8477 Y22.6318
G01 X35.0935 Y22.7030
G01 X35.3410 Y22.7683
G01 X35.5901 Y22.8274
G01 X35.8405 Y22.8805
G01 X36.0922 Y22.9273
G01 X36.3449 Y22.9680
G01 X36.5986 Y23.0024
G01 X36.8530 Y23.0306
G01 X37.1081 Y23.0526
G01 X37.3636 Y23.0683
G01 X37.6194 Y23.0777
G01 X37.8753 Y23.0809
G01 X38.1313 Y23.0777
G01 X38.3871 Y23.0683
G01 X38.6426 Y23.0526
G01 X38.8976 Y23.0306
G01 X39.1521 Y23.0024
G01 X39.4057 Y22.9680
G01 X39.6585 Y22.9273
G01 X39.7658 Y22.9073
G01 X39.6458 Y22.7873
G01 X39.6345 Y22.7894
G01 X39.3852 Y22.8295
G01 X39.1349 Y22.8635
G01 X38.8839 Y22.8913
G01 X38.6323 Y22.9130
G01 X38.3802 Y22.9285
G01 X38.1279 Y22.9378
G01 X37.8753 Y22.9409
G01 X37.6228 Y22.9378
G01 X37.3704 Y22.9285
G01 X37.1184 Y22.9130
G01 X36.8667 Y22.8913
G01 X36.6157 Y22.8635
G01 X36.3655 Y22.8295
G01 X36.1161 Y22.7894
G01 X35.8679 Y22.7431
G01 X35.6208 Y22.6908
G01 X35.3751 Y22.6325
G01 X35.1309 Y22.5681
G01 X34.8883 Y22.4978
G01 X34.6475 Y22.4215
G01 X34.4087 Y22.3394
G01 X34.1720 Y22.2514
G01 X33.9375 Y22.1576
G01 X33.7054 Y22.0581
G01 X33.4758 Y21.9529
G01 X33.2488 Y21.8421
G01 X33.0247 Y21.7258
G01 X32.7965 Y21.6001
G01 X33.0865 Y21.6001
G01 X33.3118 Y21.7171
G01 X33.5356 Y21.8264
G01 X33.7621 Y21.9301
G01 X33.9911 Y22.0282
G01 X34.2224 Y22.1207
G01 X34.4559 Y22.2075
G01 X34.6915 Y22.2886
G01 X34.9289 Y22.3638
G01 X35.1682 Y22.4332
G01 X35.4091 Y22.4967
G01 X35.6515 Y22.5542
G01 X35.8952 Y22.6058
G01 X36.1401 Y22.6514
G01 X36.3860 Y22.6910
G01 X36.6329 Y22.7245
G01 X36.8805 Y22.7520
G01 X37.1287 Y22.7734
G01 X37.3773 Y22.7886
G01 X37.6262 Y22.7978
G01 X37.8753 Y22.8009
G01 X38.1244 Y22.7978
G01 X38.3734 Y22.7886
G01 X38.6220 Y22.7734
G01 X38.8702 Y22.7520
G01 X39.1178 Y22.7245
G01 X39.3646 Y22.6910
G01 X39.5239 Y22.6654
G01 X39.4017 Y22.5432
G01 X39.3441 Y22.5525
G01 X39.1007 Y22.5856
G01 X38.8565 Y22.6127
G01 X38.6117 Y22.6337
G01 X38.3665 Y22.6488
G01 X38.1210 Y22.6579
G01 X37.8753 Y22.6609
G01 X37.6297 Y22.6579
G01 X37.3842 Y22.6488
G01 X37.1389 Y22.6337
G01 X36.8942 Y22.6127
G01 X36.6500 Y22.5856
G01 X36.4066 Y22.5525
G01 X36.1640 Y22.5135
G01 X35.9225 Y22.4685
G01 X35.6821 Y22.4176
G01 X35.4431 Y22.3609
G01 X35.2055 Y22.2983
G01 X34.9696 Y22.2298
G01 X34.7354 Y22.1556
G01 X34.5031 Y22.0757
G01 X34.2728 Y21.9901
G01 X34.0447 Y21.8989
G01 X33.8189 Y21.8021
G01 X33.5955 Y21.6998
G01 X33.3912 Y21.6001
G01 X33.7139 Y21.6001
G01 X33.8756 Y21.6741
G01 X34.0982 Y21.7696
G01 X34.3232 Y21.8595
G01 X34.5502 Y21.9439
G01 X34.7793 Y22.0227
G01 X35.0102 Y22.0959
G01 X35.2429 Y22.1633
G01 X35.4771 Y22.2251
G01 X35.7128 Y22.2810
G01 X35.9498 Y22.3312
G01 X36.1879 Y22.3756
G01 X36.4271 Y22.4140
G01 X36.6671 Y22.4466
G01 X36.9079 Y22.4733
G01 X37.1492 Y22.4941
G01 X37.3910 Y22.5090
G01 X37.6331 Y22.5179
G01 X37.8753 Y22.5209
G01 X38.1176 Y22.5179
G01 X38.3596 Y22.5090
G01 X38.6014 Y22.4941
G01 X38.8428 Y22.4733
G01 X39.0835 Y22.4466
G01 X39.2786 Y22.4201
G01 X39.1542 Y22.2958
G01 X39.0664 Y22.3077
G01 X38.8290 Y22.3340
G01 X38.5911 Y22.3545
G01 X38.3528 Y22.3691
G01 X38.1141 Y22.3779
G01 X37.8753 Y22.3809
G01 X37.6365 Y22.3779
G01 X37.3979 Y22.3691
G01 X37.1595 Y22.3545
G01 X36.9216 Y22.3340
G01 X36.6843 Y22.3077
G01 X36.4476 Y22.2756
G01 X36.2119 Y22.2376
G01 X35.9771 Y22.1939
G01 X35.7435 Y22.1444
G01 X35.5111 Y22.0893
G01 X35.2802 Y22.0284
G01 X35.0509 Y21.9619
G01 X34.8232 Y21.8898
G01 X34.5974 Y21.8121
G01 X34.3736 Y21.7289
G01 X34.1518 Y21.6402
G01 X34.0582 Y21.6001
G01 X34.4288 Y21.6001
G01 X34.6446 Y21.6803
G01 X34.8671 Y21.7568
G01 X35.0915 Y21.8279
G01 X35.3176 Y21.8935
G01 X35.5452 Y21.9535
G01 X35.7741 Y22.0078
G01 X36.0044 Y22.0566
G01 X36.2358 Y22.0997
G01 X36.4682 Y22.1371
G01 X36.7014 Y22.1687
G01 X36.9353 Y22.1947
G01 X37.1698 Y22.2149
G01 X37.4048 Y22.2293
G01 X37.6400 Y22.2380
G01 X37.8753 Y22.2409
G01 X38.1107 Y22.2380
G01 X38.3459 Y22.2293
G01 X38.5808 Y22.2149
G01 X38.8153 Y22.1947
G01 X39.0294 Y22.1709
G01 X38.9026 Y22.0442
G01 X38.8016 Y22.0554
G01 X38.5705 Y22.0753
G01 X38.3390 Y22.0895
G01 X38.1072 Y22.0980
G01 X37.8753 Y22.1009
G01 X37.6434 Y22.0980
G01 X37.4116 Y22.0895
G01 X37.1801 Y22.0753
G01 X36.9491 Y22.0554
G01 X36.7185 Y22.0298
G01 X36.4887 Y21.9986
G01 X36.2597 Y21.9617
G01 X36.0317 Y21.9193
G01 X35.8048 Y21.8713
G01 X35.5792 Y21.8177
G01 X35.3549 Y21.7585
G01 X35.1321 Y21.6940
G01 X34.9110 Y21.6239
G01 X34.8417 Y21.6001
G01 X35.3110 Y21.6001
G01 X35.3922 Y21.6236
G01 X35.6132 Y21.6819
G01 X35.8355 Y21.7347
G01 X36.0590 Y21.7820
G01 X36.2837 Y21.8238
G01 X36.5093 Y21.8601
G01 X36.7357 Y21.8908
G01 X36.9628 Y21.9160
G01 X37.1904 Y21.9356
G01 X37.4185 Y21.9497
G01 X37.6469 Y21.9581
G01 X37.8753 Y21.9609
G01 X38.1038 Y21.9581
G01 X38.3322 Y21.9497
G01 X38.5602 Y21.9356
G01 X38.7756 Y21.9171
G01 X38.6462 Y21.7877
G01 X38.5499 Y21.7960
G01 X38.3253 Y21.8098
G01 X38.1004 Y21.8181
G01 X37.8753 Y21.8209
G01 X37.6503 Y21.8181
G01 X37.4254 Y21.8098
G01 X37.2007 Y21.7960
G01 X36.9765 Y21.7767
G01 X36.7528 Y21.7519
G01 X36.5298 Y21.7216
G01 X36.3076 Y21.6859
G01 X36.0864 Y21.6447
G01 X35.8757 Y21.6001
G01 X36.6750 Y21.6001
G01 X36.7700 Y21.6130
G01 X36.9902 Y21.6374
G01 X37.2110 Y21.6564
G01 X37.4322 Y21.6700
G01 X37.6537 Y21.6781
G01 X37.8753 Y21.6809
G01 X38.0969 Y21.6781
G01 X38.3184 Y21.6700
G01 X38.5163 Y21.6578
G00 Z0.5000
G00 X40.0579 Y21.2685
G01 F50.00
G01 Z-0.0500
G01 F80.00
G01 X40.2519 Y21.2173
G00 Z0.5000
G00 X40.2500 Y21.0720
G01 F50.00
G01 Z-0.0500
G01 F80.00
G01 X40.2091 Y21.0839
G01 X40.0475 Y21.1265
G01 X40.0475 Y20.9817
G01 X40.1717 Y20.9490
G01 X40.2500 Y20.9263
G00 Z0.5000
G00 X40.2500 Y20.7805
G01 F50.00
G01 Z-0.0500
G01 F80.00
G01 X40.1344 Y20.8140
G01 X40.0475 Y20.8369
G01 X40.0475 Y20.6922
G01 X40.0970 Y20.6791
G01 X40.2500 Y20.6348
G00 Z0.5000
G00 X40.2500 Y20.4890
G01 F50.00
G01 Z-0.0500
G01 F80.00
G01 X40.0597 Y20.5442
G01 X40.0475 Y20.5474
G01 X40.0475 Y20.4020
G01 X40.2121 Y20.3542
G01 X40.2500 Y20.3422
G01 X40.2500 Y20.1981
G01 X40.2500 Y20.1956
G01 X40.2505 Y20.1883
G01 X40.2515 Y20.1810
G01 X40.2530 Y20.1738
G01 X40.2550 Y20.1667
G01 X40.2596 Y20.1553
G01 X40.2655 Y20.1446
G01 X40.2727 Y20.1346
G01 X40.2776 Y20.1291
G01 X40.2828 Y20.1240
G01 X40.2885 Y20.1192
G01 X40.2944 Y20.1149
G01 X40.3050 Y20.1087
G01 X40.3163 Y20.1039
G01 X40.3281 Y20.1005
G01 X40.3402 Y20.0985
G01 X40.3500 Y20.0981
G01 X41.8500 Y20.0981
G01 X41.8622 Y20.0988
G01 X41.8719 Y20.1005
G01 X41.8814 Y20.1031
G01 X41.8905 Y20.1066
G01 X41.8971 Y20.1099
G01 X41.9035 Y20.1136
G01 X41.9134 Y20.1208
G01 X41.9190 Y20.1256
G01 X41.9241 Y20.1309
G01 X41.9288 Y20.1365
G01 X41.9331 Y20.1425
G01 X41.9370 Y20.1488
G01 X41.9404 Y20.1553
G01 X41.9450 Y20.1667
G01 X41.9470 Y20.1738
G01 X41.9485 Y20.1810
G01 X41.9499 Y20.1932
G01 X41.9500 Y21.1981
G01 X41.9492 Y21.2103
G01 X41.9476 Y21.2200
G01 X41.9450 Y21.2294
G01 X41.9414 Y21.2386
G01 X41.9382 Y21.2452
G01 X41.9345 Y21.2516
G01 X41.9303 Y21.2576
G01 X41.9257 Y21.2634
G01 X41.9172 Y21.2722
G01 X41.9115 Y21.2769
G01 X41.9056 Y21.2812
G01 X41.8993 Y21.2851
G01 X41.8928 Y21.2885
G01 X41.8860 Y21.2914
G01 X41.8790 Y21.2938
G01 X41.8719 Y21.2956
G01 X41.8647 Y21.2970
G01 X41.8525 Y21.2980
G01 X40.3500 Y21.2981
G01 X40.3378 Y21.2973
G01 X40.3305 Y21.2961
G01 X40.3233 Y21.2944
G01 X40.3117 Y21.2904
G01 X40.3050 Y21.2874
G01 X40.2986 Y21.2838
G01 X40.2885 Y21.2769
G01 X40.2793 Y21.2688
G01 X40.2712 Y21.2596
G01 X40.2642 Y21.2495
G01 X40.2586 Y21.2386
G01 X40.2543 Y21.2271
G01 X40.2515 Y21.2152
G01 X40.2501 Y21.2030
G01 X40.2500 Y20.1981
G00 Z0.5000
G00 X40.2500 Y20.1954
G01 F50.00
G01 Z-0.0500
G01 F80.00
G01 X40.1715 Y20.2203
G01 X40.0475 Y20.2562
G01 X40.0646 Y20.1055
G01 X40.1308 Y20.0863
G01 X40.3126 Y20.0287
G01 X40.4930 Y19.9667
G01 X40.6717 Y19.9002
G01 X40.8488 Y19.8294
G01 X41.0241 Y19.7543
G01 X41.1974 Y19.6749
G01 X41.3688 Y19.5912
G01 X41.5381 Y19.5034
G01 X41.7051 Y19.4114
G01 X41.8699 Y19.3154
G01 X42.0323 Y19.2154
G01 X42.1921 Y19.1114
G01 X42.2827 Y19.0492
G01 X42.5251 Y19.0492
G01 X42.4300 Y19.1180
G01 X42.2699 Y19.2278
G01 X42.1072 Y19.3337
G01 X41.9419 Y19.4355
G01 X41.7742 Y19.5333
G01 X41.6041 Y19.6269
G01 X41.4318 Y19.7163
G01 X41.2573 Y19.8014
G01 X41.0808 Y19.8823
G01 X40.9024 Y19.9588
G01 X40.7221 Y20.0308
G01 X40.5413 Y20.0981
G01 X40.3199 Y19.8782
G01 X40.4458 Y19.8348
G01 X40.6213 Y19.7696
G01 X40.7952 Y19.7001
G01 X40.9673 Y19.6263
G01 X41.1376 Y19.5483
G01 X41.3059 Y19.4662
G01 X41.4721 Y19.3799
G01 X41.6190 Y19.2991
G01 X41.3239 Y19.2991
G01 X41.2429 Y19.3411
G01 X41.0777 Y19.4217
G01 X40.9106 Y19.4983
G01 X40.7416 Y19.5707
G01 X40.5709 Y19.6390
G01 X40.4082 Y19.6995
G00 Z0.5000
G00 X40.3654 Y19.5661
G01 F50.00
G01 Z-0.0500
G01 F80.00
G01 X40.5206 Y19.5084
G01 X40.6881 Y19.4414
G01 X40.8539 Y19.3703
G01 X41.0094 Y19.2991
G00 Z0.5000
G00 X40.6647 Y19.2991
G01 F50.00
G01 Z-0.0500
G01 F80.00
G01 X40.6345 Y19.3120
G01 X40.4702 Y19.3777
G01 X40.3043 Y19.4394
G01 X40.2185 Y19.4689
G01 X40.0973 Y19.3626
G01 X40.2571 Y19.3076
G01 X40.3066 Y19.2892
G00 Z0.5000
G00 X40.2500 Y19.1609
G01 F50.00
G01 Z-0.0500
G01 F80.00
G01 X40.2100 Y19.1758
G01 X40.0517 Y19.2302
G01 X40.0475 Y19.0836
G01 X40.1628 Y19.0439
G01 X40.2500 Y19.0115
G00 Z0.5000
G00 X40.2500 Y18.8622
G01 F50.00
G01 Z-0.0500
G01 F80.00
G01 X40.1156 Y18.9121
G01 X40.0475 Y18.9356
G01 X40.0475 Y18.7875
G01 X40.0685 Y18.7803
G01 X40.2182 Y18.7246
G01 X40.2500 Y18.7120
G00 Z0.5000
G00 X40.2500 Y18.5612
G01 F50.00
G01 Z-0.0500
G01 F80.00
G01 X40.1679 Y18.5940
G01 X40.0475 Y18.6388
G01 X40.0475 Y18.4894
G01 X40.1175 Y18.4634
G01 X40.2500 Y18.4104
G01 X40.2500 Y18.2584
G01 X40.2059 Y18.2773
G01 X40.0671 Y18.3328
G01 X40.0475 Y18.3401
G01 X40.0496 Y18.1890
G01 X40.1523 Y18.1479
G01 X40.2865 Y18.0904
G01 X40.4193 Y18.0296
G01 X40.5505 Y17.9655
G01 X40.6801 Y17.8983
G01 X40.8081 Y17.8279
G01 X40.9342 Y17.7544
G01 X41.0586 Y17.6777
G01 X41.1810 Y17.5981
G01 X41.3014 Y17.5155
G01 X41.4197 Y17.4300
G01 X41.5360 Y17.3415
G01 X41.5909 Y17.2976
G00 Z0.5000
G00 X41.8112 Y17.2976
G01 F50.00
G01 Z-0.0500
G01 F80.00
G01 X41.7388 Y17.3585
G01 X41.6221 Y17.4519
G01 X41.5031 Y17.5424
G01 X41.3820 Y17.6300
G01 X41.2588 Y17.7145
G01 X41.1335 Y17.7960
G01 X41.0062 Y17.8744
G01 X40.8771 Y17.9497
G01 X40.7461 Y18.0218
G01 X40.6135 Y18.0906
G01 X40.5961 Y18.0991
G01 X40.8960 Y18.0991
G01 X40.9461 Y18.0715
G01 X41.0782 Y17.9945
G01 X41.2084 Y17.9143
G01 X41.3365 Y17.8309
G01 X41.4626 Y17.7444
G01 X41.5865 Y17.6548
G01 X41.7082 Y17.5623
G01 X41.8276 Y17.4667
G01 X41.9446 Y17.3683
G01 X42.0591 Y17.2670
G01 X42.1712 Y17.1629
G01 X42.2806 Y17.0561
G01 X42.3874 Y16.9467
G01 X42.4915 Y16.8347
G01 X42.5927 Y16.7201
G01 X42.6912 Y16.6031
G01 X42.7867 Y16.4838
G01 X42.8793 Y16.3621
G01 X42.8998 Y16.3337
G01 X42.8998 Y16.5663
G01 X42.7994 Y16.6920
G01 X42.6988 Y16.8116
G01 X42.5952 Y16.9287
G01 X42.4888 Y17.0432
G01 X42.3796 Y17.1551
G01 X42.2677 Y17.2643
G01 X42.1532 Y17.3707
G01 X42.0360 Y17.4743
G01 X41.9164 Y17.5749
G01 X41.7944 Y17.6726
G01 X41.6699 Y17.7673
G01 X41.5432 Y17.8589
G01 X41.4143 Y17.9473
G01 X41.2833 Y18.0326
G01 X41.1753 Y18.0991
G00 Z0.5000
G00 X41.4378 Y18.0991
G01 F50.00
G01 Z-0.0500
G01 F80.00
G01 X41.4921 Y18.0637
G01 X41.6238 Y17.9733
G01 X41.7533 Y17.8797
G01 X41.8805 Y17.7830
G01 X42.0052 Y17.6832
G01 X42.1275 Y17.5803
G01 X42.2472 Y17.4745
G01 X42.3642 Y17.3657
G01 X42.4786 Y17.2541
G01 X42.5902 Y17.1398
G01 X42.6989 Y17.0227
G01 X42.7250 Y16.9932
G01 X42.7250 Y17.2003
G01 X42.6916 Y17.2363
G01 X42.5776 Y17.3531
G01 X42.4608 Y17.4671
G01 X42.3412 Y17.5782
G01 X42.2189 Y17.6863
G01 X42.0940 Y17.7914
G01 X41.9666 Y17.8934
G01 X41.8367 Y17.9922
G01 X41.7045 Y18.0878
G01 X41.6880 Y18.0991
G00 Z0.5000
G00 X41.9050 Y18.1156
G01 F50.00
G01 Z-0.0500
G01 F80.00
G01 X41.9201 Y18.1046
G01 X42.0528 Y18.0037
G01 X42.1829 Y17.8996
G01 X42.3104 Y17.7923
G01 X42.4352 Y17.6819
G01 X42.5573 Y17.5685
G01 X42.6766 Y17.4521
G01 X42.7298 Y17.3976
G00 Z0.5000
G00 X42.7900 Y17.5363
G01 F50.00
G01 Z-0.0500
G01 F80.00
G01 X42.7756 Y17.5511
G01 X42.6538 Y17.6699
G01 X42.5292 Y17.7857
G01 X42.4018 Y17.8983
G01 X42.2717 Y18.0078
G01 X42.1389 Y18.1141
G01 X42.0035 Y18.2171
G01 X41.9500 Y18.2558
G01 X42.0601 Y18.3490
G01 X42.0869 Y18.3295
G01 X42.2250 Y18.2245
G01 X42.3605 Y18.1160
G01 X42.4933 Y18.0043
G01 X42.6233 Y17.8894
G01 X42.7504 Y17.7713
G01 X42.8746 Y17.6501
G01 X42.8973 Y17.6268
G00 Z0.5000
G00 X43.0581 Y17.6625
G01 F50.00
G01 Z-0.0500
G01 F80.00
G01 X42.9736 Y17.7491
G01 X42.8469 Y17.8727
G01 X42.7173 Y17.9931
G01 X42.5847 Y18.1103
G01 X42.4493 Y18.2243
G01 X42.3112 Y18.3348
G01 X42.2926 Y18.3490
G01 X42.5176 Y18.3490
G01 X42.5381 Y18.3325
G01 X42.6762 Y18.2164
G01 X42.8113 Y18.0969
G01 X42.9435 Y17.9741
G01 X43.0726 Y17.8481
G01 X43.1985 Y17.7190
G01 X43.2510 Y17.6625
G01 X43.4413 Y17.6625
G01 X43.4251 Y17.6808
G01 X43.2999 Y17.8155
G01 X43.1716 Y17.9471
G01 X43.0400 Y18.0755
G01 X42.9188 Y18.1881
G00 Z0.5000
G00 X42.7678 Y18.3222
G01 F50.00
G01 Z-0.0500
G01 F80.00
G01 X42.7360 Y18.3490
G00 Z0.5000
G00 X43.1513 Y18.1625
G01 F50.00
G01 Z-0.0500
G01 F80.00
G01 X43.2706 Y18.0461
G01 X43.4013 Y17.9121
G01 X43.5288 Y17.7749
G01 X43.6377 Y17.6517
G00 Z0.5000
G00 X43.8741 Y17.3655
G01 F50.00
G01 Z-0.0500
G01 F80.00
G01 X43.8904 Y17.3451
G01 X44.0038 Y17.1961
G01 X44.1135 Y17.0443
G01 X44.2194 Y16.8899
G01 X44.3216 Y16.7329
G01 X44.4198 Y16.5735
G01 X44.5141 Y16.4117
G01 X44.6044 Y16.2476
G01 X44.6906 Y16.0814
G01 X44.7728 Y15.9131
G01 X44.8250 Y15.7992
G01 X44.8250 Y16.1253
G01 X44.8157 Y16.1443
G01 X44.7279 Y16.3136
G01 X44.6359 Y16.4807
G01 X44.5399 Y16.6454
G01 X44.4398 Y16.8078
G01 X44.3358 Y16.9676
G01 X44.2280 Y17.1249
G01 X44.1163 Y17.2794
G01 X44.0008 Y17.4312
G01 X43.8816 Y17.5801
G01 X43.7588 Y17.7260
G01 X43.6325 Y17.8689
G01 X43.5027 Y18.0086
G01 X43.3696 Y18.1451
G01 X43.3517 Y18.1625
G01 X43.5481 Y18.1625
G01 X43.6041 Y18.1051
G01 X43.7363 Y17.9629
G01 X43.8649 Y17.8175
G01 X43.9898 Y17.6689
G01 X44.1112 Y17.5173
G01 X44.2287 Y17.3628
G01 X44.3424 Y17.2055
G01 X44.4523 Y17.0454
G01 X44.5581 Y16.8827
G01 X44.6600 Y16.7174
G01 X44.7577 Y16.5497
G01 X44.8250 Y16.4275
G01 X44.8250 Y16.7123
G01 X44.7800 Y16.7894
G01 X44.6764 Y16.9576
G01 X44.5687 Y17.1232
G01 X44.4569 Y17.2861
G01 X44.3412 Y17.4462
G01 X44.2215 Y17.6035
G01 X44.0981 Y17.7577
G01 X43.9709 Y17.9089
G01 X43.8400 Y18.0569
G01 X43.7068 Y18.2003
G00 Z0.5000
G00 X43.8125 Y18.2922
G01 F50.00
G01 Z-0.0500
G01 F80.00
G01 X43.9437 Y18.1509
G01 X44.0769 Y18.0004
G01 X44.2063 Y17.8465
G01 X44.3319 Y17.6896
G01 X44.4536 Y17.5296
G01 X44.5714 Y17.3667
G01 X44.6851 Y17.2010
G01 X44.7947 Y17.0325
G01 X44.8250 Y16.9834
G01 X44.8250 Y17.2427
G01 X44.8015 Y17.2788
G01 X44.6858 Y17.4473
G01 X44.5660 Y17.6130
G01 X44.4423 Y17.7757
G01 X44.3145 Y17.9354
G01 X44.1829 Y18.0918
G01 X44.0475 Y18.2450
G01 X43.9083 Y18.3947
G01 X43.8711 Y18.4329
G00 Z0.5000
G00 X43.8750 Y18.6293
G01 F50.00
G01 Z-0.0500
G01 F80.00
G01 X44.0097 Y18.4913
G01 X44.1512 Y18.3390
G01 X44.2889 Y18.1832
G01 X44.4227 Y18.0242
G01 X44.5526 Y17.8619
G01 X44.6785 Y17.6964
G01 X44.8003 Y17.5280
G01 X44.8250 Y17.4920
G01 X44.8250 Y17.7328
G01 X44.7909 Y17.7798
G01 X44.6630 Y17.9480
G01 X44.5310 Y18.1130
G01 X44.3949 Y18.2747
G01 X44.2549 Y18.4330
G01 X44.1111 Y18.5878
G01 X43.9635 Y18.7391
G01 X43.8750 Y18.8254
G00 Z0.5000
G00 X43.8498 Y19.0428
G01 F50.00
G01 Z-0.0500
G01 F80.00
G01 X43.9088 Y18.9880
G01 X44.0625 Y18.8380
G01 X44.2125 Y18.6843
G01 X44.3587 Y18.5270
G01 X44.5009 Y18.3661
G01 X44.6392 Y18.2018
G01 X44.7734 Y18.0341
G01 X44.8250 Y17.9663
G01 X44.8250 Y18.1937
G01 X44.7474 Y18.2906
G01 X44.6069 Y18.4576
G01 X44.4624 Y18.6210
G01 X44.3139 Y18.7809
G01 X44.1615 Y18.9370
G01 X44.0053 Y19.0894
G01 X43.8455 Y19.2379
G01 X43.6820 Y19.3825
G01 X43.6228 Y19.4323
G01 X43.6509 Y19.2231
G01 X43.5906 Y19.2764
G01 X43.4263 Y19.4147
G01 X43.3947 Y19.4400
G01 X43.4194 Y19.2375
G01 X43.3375 Y19.3065
G01 X43.1706 Y19.4400
G01 X43.1996 Y19.2375
G01 X43.0863 Y19.3282
G01 X42.9526 Y19.4299
G00 Z0.5000
G00 X42.7568 Y19.3999
G01 F50.00
G01 Z-0.0500
G01 F80.00
G01 X42.8375 Y19.3416
G01 X42.9822 Y19.2315
G00 Z0.5000
G00 X42.8400 Y19.1638
G01 F50.00
G01 Z-0.0500
G01 F80.00
G01 X42.7541 Y19.2291
G01 X42.5912 Y19.3469
G01 X42.5139 Y19.3999
G01 X42.2620 Y19.3999
G01 X42.3477 Y19.3442
G01 X42.5106 Y19.2324
G01 X42.6707 Y19.1167
G01 X42.7548 Y19.0527
G01 X42.0310 Y19.0492
G01 X41.9500 Y19.1016
G00 Z0.5000
G00 X41.7924 Y19.6830
G01 F50.00
G01 Z-0.0500
G01 F80.00
G01 X41.6701 Y19.7503
G01 X41.4947 Y19.8413
G01 X41.3171 Y19.9280
G01 X41.1375 Y20.0103
G01 X40.9559 Y20.0881
G01 X40.9310 Y20.0981
G00 Z0.5000
G00 X41.2820 Y20.0981
G01 F50.00
G01 Z-0.0500
G01 F80.00
G01 X41.3770 Y20.0545
G01 X41.5576 Y19.9664
G01 X41.7361 Y19.8738
G01 X41.8288 Y19.8228
G00 Z0.5000
G00 X41.9511 Y19.9153
G01 F50.00
G01 Z-0.0500
G01 F80.00
G01 X41.8021 Y19.9973
G01 X41.6206 Y20.0914
G01 X41.6070 Y20.0981
G00 Z0.5000
G00 X41.8922 Y20.1074
G01 F50.00
G01 Z-0.0500
G01 F80.00
G01 X42.0502 Y20.0205
G01 X42.0787 Y20.0039
G01 X42.1424 Y20.1288
G01 X42.1192 Y20.1423
G01 X41.9500 Y20.2354
G01 X41.9500 Y20.3936
G01 X42.0001 Y20.3677
G01 X42.1525 Y20.2838
G01 X42.1525 Y20.4436
G01 X42.0660 Y20.4911
G01 X41.9500 Y20.5514
G00 Z0.5000
G00 X41.9500 Y20.7091
G01 F50.00
G01 Z-0.0500
G01 F80.00
G01 X42.1320 Y20.6146
G01 X42.1525 Y20.6034
G01 X42.1525 Y20.7617
G01 X41.9983 Y20.8417
G01 X41.9500 Y20.8653
G01 X41.9500 Y21.0211
G01 X42.0612 Y20.9668
G01 X42.1525 Y20.9194
G01 X42.1525 Y21.0771
G01 X42.1242 Y21.0918
G01 X41.9500 Y21.1768
G01 X42.1476 Y21.2361
G01 X41.9756 Y21.3201
G01 X41.7616 Y21.4181
G01 X41.5693 Y21.5005
G01 X41.6864 Y21.2981
G01 X41.4917 Y21.3815
G01 X41.2763 Y21.4676
G01 X41.1878 Y21.5005
G01 X41.3234 Y21.2981
G01 X41.2260 Y21.3370
G01 X41.0118 Y21.4166
G01 X40.7957 Y21.4910
G01 X40.7655 Y21.5005
G01 X40.9261 Y21.2981
G01 X40.7518 Y21.3580
G01 X40.5372 Y21.4260
G01 X40.3211 Y21.4887
G01 X40.2992 Y21.4944
G01 X40.1243 Y21.3958
G01 X40.2837 Y21.3538
G01 X40.4758 Y21.2981
G00 Z0.5000
G00 X40.2500 Y18.1991
G01 F50.00
G01 Z-0.0500
G01 F80.00
G01 X40.2503 Y18.1917
G01 X40.2515 Y18.1820
G01 X40.2536 Y18.1724
G01 X40.2567 Y18.1631
G01 X40.2607 Y18.1541
G01 X40.2655 Y18.1456
G01 X40.2712 Y18.1376
G01 X40.2759 Y18.1319
G01 X40.2828 Y18.1250
G01 X40.2885 Y18.1202
G01 X40.2965 Y18.1146
G01 X40.3050 Y18.1098
G01 X40.3140 Y18.1058
G01 X40.3233 Y18.1027
G01 X40.3329 Y18.1006
G01 X40.3426 Y18.0994
G01 X40.3500 Y18.0991
G01 X41.8549 Y18.0992
G01 X41.8622 Y18.0998
G01 X41.8695 Y18.1010
G01 X41.8767 Y18.1027
G01 X41.8837 Y18.1049
G01 X41.8905 Y18.1077
G01 X41.8971 Y18.1109
G01 X41.9035 Y18.1146
G01 X41.9096 Y18.1188
G01 X41.9153 Y18.1234
G01 X41.9207 Y18.1284
G01 X41.9288 Y18.1376
G01 X41.9331 Y18.1435
G01 X41.9370 Y18.1498
G01 X41.9404 Y18.1563
G01 X41.9433 Y18.1631
G01 X41.9457 Y18.1701
G01 X41.9481 Y18.1796
G01 X41.9492 Y18.1868
G01 X41.9500 Y18.1966
G01 X41.9500 Y18.3490
G01 X42.7540 Y18.3490
G01 X42.7626 Y18.3310
G01 X42.7761 Y18.3083
G01 X42.7801 Y18.3021
G01 X42.7958 Y18.2810
G01 X42.8184 Y18.2559
G01 X42.8435 Y18.2333
G01 X42.8646 Y18.2176
G01 X42.8708 Y18.2136
G01 X42.8935 Y18.2001
G01 X42.9173 Y18.1888
G01 X42.9263 Y18.1850
G01 X42.9512 Y18.1762
G01 X42.9816 Y18.1686
G01 X43.0125 Y18.1640
G01 X43.0438 Y18.1625
G01 X43.5562 Y18.1625
G01 X43.5875 Y18.1640
G01 X43.6208 Y18.1691
G01 X43.6488 Y18.1762
G01 X43.6737 Y18.1850
G01 X43.6827 Y18.1888
G01 X43.7065 Y18.2001
G01 X43.7292 Y18.2136
G01 X43.7374 Y18.2190
G01 X43.7585 Y18.2349
G01 X43.7781 Y18.2525
G01 X43.7850 Y18.2594
G01 X43.8026 Y18.2790
G01 X43.8185 Y18.3001
G01 X43.8239 Y18.3083
G01 X43.8374 Y18.3310
G01 X43.8487 Y18.3548
G01 X43.8525 Y18.3638
G01 X43.8620 Y18.3911
G01 X43.8689 Y18.4191
G01 X43.8729 Y18.4451
G01 X43.8737 Y18.4525
G01 X43.8750 Y18.4788
G01 X43.8750 Y18.9187
G01 X43.8735 Y18.9500
G01 X43.8697 Y18.9761
G01 X43.8678 Y18.9857
G01 X43.8605 Y19.0136
G01 X43.8507 Y19.0407
G01 X43.8396 Y19.0646
G01 X43.8349 Y19.0733
G01 X43.8213 Y19.0958
G01 X43.8026 Y19.1210
G01 X43.7850 Y19.1406
G01 X43.7781 Y19.1475
G01 X43.7585 Y19.1651
G01 X43.7333 Y19.1838
G01 X43.7108 Y19.1974
G01 X43.7021 Y19.2021
G01 X43.6782 Y19.2132
G01 X43.6488 Y19.2238
G01 X43.6232 Y19.2303
G01 X43.6136 Y19.2322
G01 X43.5850 Y19.2362
G01 X43.5562 Y19.2375
G01 X43.0438 Y19.2375
G01 X43.0125 Y19.2360
G01 X42.9792 Y19.2309
G01 X42.9536 Y19.2245
G01 X42.9466 Y19.2222
G01 X42.9218 Y19.2132
G01 X42.8979 Y19.2021
G01 X42.8892 Y19.1974
G01 X42.8667 Y19.1838
G01 X42.8415 Y19.1651
G01 X42.8184 Y19.1441
G01 X42.7958 Y19.1190
G01 X42.7801 Y19.0979
G01 X42.7761 Y19.0917
G01 X42.7626 Y19.0690
G01 X42.7531 Y19.0492
G01 X41.9500 Y19.0492
G01 X41.9500 Y19.2015
G01 X41.9495 Y19.2089
G01 X41.9485 Y19.2162
G01 X41.9470 Y19.2234
G01 X41.9450 Y19.2304
G01 X41.9404 Y19.2418
G01 X41.9370 Y19.2484
G01 X41.9331 Y19.2546
G01 X41.9288 Y19.2606
G01 X41.9241 Y19.2662
G01 X41.9153 Y19.2748
G01 X41.9096 Y19.2794
G01 X41.9035 Y19.2836
G01 X41.8971 Y19.2873
G01 X41.8905 Y19.2905
G01 X41.8790 Y19.2948
G01 X41.8719 Y19.2967
G01 X41.8647 Y19.2980
G01 X41.8574 Y19.2988
G01 X41.8500 Y19.2991
G01 X40.3500 Y19.2991
G01 X40.3402 Y19.2986
G01 X40.3305 Y19.2972
G01 X40.3210 Y19.2948
G01 X40.3140 Y19.2924
G01 X40.3072 Y19.2895
G01 X40.3007 Y19.2861
G01 X40.2944 Y19.2822
G01 X40.2885 Y19.2779
G01 X40.2828 Y19.2732
G01 X40.2776 Y19.2680
G01 X40.2727 Y19.2625
G01 X40.2682 Y19.2567
G01 X40.2618 Y19.2462
G01 X40.2586 Y19.2396
G01 X40.2558 Y19.2328
G01 X40.2536 Y19.2258
G01 X40.2519 Y19.2186
G01 X40.2508 Y19.2113
G01 X40.2501 Y19.2040
G01 X40.2500 Y18.1991
G01 X40.1163 Y18.0111
G01 X40.2298 Y17.9624
G01 X40.3594 Y17.9030
G01 X40.4876 Y17.8405
G01 X40.6141 Y17.7748
G01 X40.7391 Y17.7061
G01 X40.8623 Y17.6343
G01 X40.9837 Y17.5595
G01 X41.1032 Y17.4817
G01 X41.2208 Y17.4010
G01 X41.3363 Y17.3175
G01 X41.3626 Y17.2976
G01 X41.1241 Y17.2976
G01 X41.0254 Y17.3653
G01 X40.9088 Y17.4412
G01 X40.7903 Y17.5142
G01 X40.6701 Y17.5843
G01 X40.5481 Y17.6514
G01 X40.4246 Y17.7154
G01 X40.4111 Y17.7220
G00 Z0.5000
G00 X40.3796 Y17.5811
G01 F50.00
G01 Z-0.0500
G01 F80.00
G01 X40.4822 Y17.5279
G01 X40.6011 Y17.4624
G01 X40.7183 Y17.3941
G01 X40.8339 Y17.3229
G01 X40.8728 Y17.2976
G01 X40.6060 Y17.2976
G01 X40.5321 Y17.3406
G01 X40.4162 Y17.4044
G01 X40.2987 Y17.4653
G01 X40.2602 Y17.4841
G01 X40.1239 Y17.3949
G01 X40.2358 Y17.3403
G01 X40.3245 Y17.2943
G00 Z0.5000
G00 X40.3500 Y17.2976
G01 F50.00
G01 Z-0.0500
G01 F80.00
G01 X40.3402 Y17.2971
G01 X40.3305 Y17.2956
G01 X40.3210 Y17.2933
G01 X40.3117 Y17.2899
G01 X40.3029 Y17.2858
G01 X40.2965 Y17.2820
G01 X40.2885 Y17.2764
G01 X40.2810 Y17.2700
G01 X40.2743 Y17.2629
G01 X40.2682 Y17.2551
G01 X40.2642 Y17.2490
G01 X40.2596 Y17.2403
G01 X40.2558 Y17.2312
G01 X40.2530 Y17.2219
G01 X40.2511 Y17.2122
G01 X40.2501 Y17.2025
G01 X40.2501 Y16.1927
G01 X40.2515 Y16.1805
G01 X40.2536 Y16.1709
G01 X40.2567 Y16.1616
G01 X40.2618 Y16.1504
G01 X40.2669 Y16.1420
G01 X40.2743 Y16.1322
G01 X40.2810 Y16.1251
G01 X40.2904 Y16.1172
G01 X40.2965 Y16.1131
G01 X40.3029 Y16.1094
G01 X40.3095 Y16.1061
G01 X40.3186 Y16.1026
G01 X40.3257 Y16.1006
G01 X40.3329 Y16.0990
G01 X40.3402 Y16.0980
G01 X40.3475 Y16.0976
G01 X41.8525 Y16.0976
G01 X41.8622 Y16.0983
G01 X41.8743 Y16.1006
G01 X41.8860 Y16.1043
G01 X41.8971 Y16.1094
G01 X41.9056 Y16.1144
G01 X41.9153 Y16.1218
G01 X41.9224 Y16.1286
G01 X41.9303 Y16.1380
G01 X41.9345 Y16.1441
G01 X41.9382 Y16.1504
G01 X41.9414 Y16.1570
G01 X41.9450 Y16.1662
G01 X41.9470 Y16.1733
G01 X41.9485 Y16.1805
G01 X41.9495 Y16.1878
G01 X41.9500 Y16.1951
G01 X41.9500 Y17.2000
G01 X41.9489 Y17.2122
G01 X41.9464 Y17.2242
G01 X41.9424 Y17.2358
G01 X41.9382 Y17.2447
G01 X41.9318 Y17.2551
G01 X41.9257 Y17.2629
G01 X41.9190 Y17.2700
G01 X41.9096 Y17.2779
G01 X41.9035 Y17.2820
G01 X41.8971 Y17.2858
G01 X41.8905 Y17.2890
G01 X41.8837 Y17.2917
G01 X41.8743 Y17.2946
G01 X41.8671 Y17.2961
G01 X41.8598 Y17.2971
G01 X41.8525 Y17.2975
G01 X40.3500 Y17.2976
G00 Z0.5000
G00 X40.2500 Y17.1752
G01 F50.00
G01 Z-0.0500
G01 F80.00
G01 X40.1728 Y17.2152
G01 X40.0588 Y17.2709
G01 X40.0475 Y17.1206
G01 X40.1099 Y17.0902
G01 X40.2182 Y17.0340
G01 X40.2500 Y17.0165
G01 X40.2500 Y16.8567
G01 X40.1522 Y16.9105
G01 X40.0475 Y16.9648
G01 X40.0475 Y16.8071
G01 X40.0862 Y16.7871
G01 X40.1870 Y16.7316
G01 X40.2500 Y16.6949
G00 Z0.5000
G00 X40.2500 Y16.5317
G01 F50.00
G01 Z-0.0500
G01 F80.00
G01 X40.2145 Y16.5535
G01 X40.1180 Y16.6098
G01 X40.0475 Y16.6486
G01 X40.0475 Y16.4888
G01 X40.1425 Y16.4334
G01 X40.2347 Y16.3767
G01 X40.2500 Y16.3667
G00 Z0.5000
G00 X40.2500 Y16.1996
G01 F50.00
G01 Z-0.0500
G01 F80.00
G01 X40.1598 Y16.2584
G01 X40.0705 Y16.3134
G01 X40.0475 Y16.3268
G01 X40.0523 Y16.1602
G01 X40.0849 Y16.1401
G01 X40.1698 Y16.0848
G01 X40.2534 Y16.0275
G01 X40.3356 Y15.9681
G01 X40.4162 Y15.9067
G01 X40.4954 Y15.8434
G01 X40.5729 Y15.7781
G01 X40.6489 Y15.7110
G01 X40.7231 Y15.6420
G01 X40.7957 Y15.5712
G01 X40.8665 Y15.4987
G01 X40.9355 Y15.4244
G01 X41.0026 Y15.3485
G01 X41.0424 Y15.3011
G00 Z0.5000
G00 X41.2230 Y15.3011
G01 F50.00
G01 Z-0.0500
G01 F80.00
G01 X41.1761 Y15.3597
G01 X41.1086 Y15.4399
G01 X41.0392 Y15.5184
G01 X40.9679 Y15.5952
G01 X40.8947 Y15.6702
G01 X40.8197 Y15.7434
G01 X40.7429 Y15.8147
G01 X40.6644 Y15.8841
G01 X40.5842 Y15.9516
G01 X40.5024 Y16.0171
G01 X40.4190 Y16.0806
G01 X40.3954 Y16.0976
G00 Z0.5000
G00 X40.6259 Y16.0976
G01 F50.00
G01 Z-0.0500
G01 F80.00
G01 X40.6730 Y16.0598
G01 X40.7558 Y15.9902
G01 X40.8369 Y15.9185
G01 X40.9162 Y15.8448
G01 X40.9937 Y15.7692
G01 X41.0693 Y15.6917
G01 X41.1429 Y15.6124
G01 X41.2146 Y15.5314
G01 X41.2843 Y15.4485
G01 X41.3519 Y15.3640
G01 X41.3998 Y15.3011
G01 X41.5734 Y15.3011
G01 X41.5299 Y15.3613
G01 X41.4623 Y15.4502
G01 X41.3925 Y15.5374
G01 X41.3206 Y15.6228
G01 X41.2467 Y15.7065
G01 X41.1707 Y15.7883
G01 X41.0927 Y15.8682
G01 X41.0127 Y15.9462
G01 X40.9309 Y16.0222
G01 X40.8456 Y16.0976
G00 Z0.5000
G00 X41.0555 Y16.0976
G01 F50.00
G01 Z-0.0500
G01 F80.00
G01 X41.1093 Y16.0476
G01 X41.1917 Y15.9672
G01 X41.2720 Y15.8848
G01 X41.3504 Y15.8005
G01 X41.4266 Y15.7142
G01 X41.5007 Y15.6262
G01 X41.5727 Y15.5363
G01 X41.6424 Y15.4447
G01 X41.7098 Y15.3514
G01 X41.7443 Y15.3011
G00 Z0.5000
G00 X41.9500 Y14.9729
G01 F50.00
G01 Z-0.0500
G01 F80.00
G01 X41.9560 Y14.9626
G01 X42.0115 Y14.8617
G01 X42.0646 Y14.7595
G01 X42.1150 Y14.6561
G01 X42.1630 Y14.5514
G01 X42.2083 Y14.4457
G01 X42.2511 Y14.3388
G01 X42.2912 Y14.2309
G01 X42.3286 Y14.1220
G01 X42.3634 Y14.0123
G01 X42.3954 Y13.9017
G01 X42.4248 Y13.7904
G01 X42.4514 Y13.6785
G01 X42.4752 Y13.5658
G01 X42.4963 Y13.4527
